(.../pcb-gcode-3.6.2.4/pcb-gcode.ulp)
(Copyright 2005 - 2012 by John Johnson)
(See readme.txt for licensing terms.)
(This file generated from the board:)
(.../Hardware/ControlPCB/ControlBoard.brd)
(Current profile is .../pcb-gcode-3.6.2.4/profiles/generic.pp  )
(This file generated 23.3.2016 15:38)
(Settings from pcb-machine.h)
(spindle on time = 0.0000)
(  Tool Size)
(0.2000 )
(spindle speed = 30000.0000)
(tool change at 0.0000 0.0000 25.4000 )
(feed rate xy = F508.00 )
(feed rate z  = F254.00 )
(Z Axis Settings)
(  High     Up        Down     Drill)
(38.1000 	2.5400 	-0.2000 	-1.5500 )
(Settings from pcb-defaults.h)
(isolate min = 0.0254)
(isolate max = 0.5080)
(isolate step = 0.1270)
(Generated top outlines, top drill, )
(Unit of measure: mm)
(Metric Mode)
G21
(Absolute Coordinates)
G90
S30000
G00 Z38.1000 
G00 X0.0000 Y0.0000 
M03
G04 P0.000000
G00 Z2.5400 
G00 X0.9290 Y1.0000 
G01 Z-0.2000 F254.00 
G01 X0.8906 Y1.0928 F508.00 
G01 X0.8906 Y32.9698 
G01 X0.8906 Y33.0702 
G01 X0.9290 Y33.1630 
G01 X1.0000 Y33.2340 
G01 X1.0928 Y33.2724 
G01 X10.5426 Y33.2724 
G01 X10.5426 Y46.4072 
G01 X10.5810 Y46.5000 
G01 X10.6520 Y46.5710 
G01 X10.7448 Y46.6094 
G01 X89.5852 Y46.6094 
G01 X89.6780 Y46.5710 
G01 X89.7490 Y46.5000 
G01 X89.7874 Y46.4072 
G01 X89.7874 Y33.2724 
G01 X98.9072 Y33.2724 
G01 X99.0000 Y33.2340 
G01 X99.0710 Y33.1630 
G01 X99.1094 Y33.0702 
G01 X99.1094 Y1.0928 
G01 X99.0710 Y1.0000 
G01 X99.0000 Y0.9290 
G01 X98.9072 Y0.8906 
G01 X1.0928 Y0.8906 
G01 X1.0000 Y0.9290 
G01 X0.9290 Y1.0000 
G00 Z2.5400 
G00 X16.1760 Y4.6771 
G01 Z-0.2000 F254.00 
G01 X16.2054 Y4.6602 F508.00 
G01 X16.2381 Y4.6514 
G01 X17.0796 Y4.6514 
G01 X17.0796 Y4.6546 
G01 X16.2301 Y4.6546 
G01 X16.1840 Y4.6737 
G01 X16.1487 Y4.7090 
G01 X16.1296 Y4.7551 
G01 X16.1296 Y4.8046 
G01 X16.1264 Y4.8046 
G01 X16.1264 Y4.7631 
G01 X16.1352 Y4.7304 
G01 X16.1521 Y4.7010 
G01 X16.1760 Y4.6771 
G00 Z2.5400 
G00 X16.1296 Y5.3554 
G01 Z-0.2000 F254.00 
G01 X16.1296 Y5.4049 F508.00 
G01 X16.1487 Y5.4510 
G01 X16.1800 Y5.4823 
G01 X16.1738 Y5.4806 
G01 X16.1521 Y5.4590 
G01 X16.1352 Y5.4296 
G01 X16.1264 Y5.3969 
G01 X16.1264 Y5.3554 
G01 X16.1296 Y5.3554 
G00 Z2.5400 
G00 X16.1967 Y5.4916 
G01 Z-0.2000 F254.00 
G01 X16.2301 Y5.5054 F508.00 
G01 X17.0796 Y5.5054 
G01 X17.0796 Y5.9246 
G01 X16.2301 Y5.9246 
G01 X16.1967 Y5.9384 
G01 X16.2138 Y5.9253 
G01 X16.2429 Y5.9085 
G01 X16.2532 Y5.8950 
G01 X16.2667 Y5.8847 
G01 X16.2836 Y5.8555 
G01 X16.3040 Y5.8288 
G01 X16.3084 Y5.8124 
G01 X16.3169 Y5.7977 
G01 X16.3213 Y5.7644 
G01 X16.3300 Y5.7318 
G01 X16.3278 Y5.7150 
G01 X16.3300 Y5.6982 
G01 X16.3213 Y5.6656 
G01 X16.3169 Y5.6323 
G01 X16.3084 Y5.6176 
G01 X16.3040 Y5.6012 
G01 X16.2835 Y5.5745 
G01 X16.2667 Y5.5453 
G01 X16.2533 Y5.5350 
G01 X16.2429 Y5.5215 
G01 X16.2138 Y5.5047 
G01 X16.1967 Y5.4916 
G00 Z2.5400 
G00 X16.1800 Y5.9477 
G01 Z-0.2000 F254.00 
G01 X16.1487 Y5.9790 F508.00 
G01 X16.1296 Y6.0251 
G01 X16.1296 Y6.0746 
G01 X16.1264 Y6.0746 
G01 X16.1264 Y6.0331 
G01 X16.1352 Y6.0004 
G01 X16.1521 Y5.9710 
G01 X16.1738 Y5.9494 
G01 X16.1800 Y5.9477 
G00 Z2.5400 
G00 X16.1296 Y6.6254 
G01 Z-0.2000 F254.00 
G01 X16.1296 Y6.6749 F508.00 
G01 X16.1487 Y6.7210 
G01 X16.1840 Y6.7563 
G01 X16.2301 Y6.7754 
G01 X18.4799 Y6.7754 
G01 X18.5260 Y6.7563 
G01 X18.5613 Y6.7210 
G01 X18.5804 Y6.6749 
G01 X18.5804 Y6.6254 
G01 X18.5927 Y6.6254 
G01 X18.6220 Y6.6962 
G01 X18.6930 Y6.7672 
G01 X18.7858 Y6.8056 
G01 X19.2120 Y6.8056 
G01 X19.5113 Y6.9296 
G01 X21.6502 Y9.0685 
G01 X21.7430 Y9.1069 
G01 X21.8434 Y9.1069 
G01 X21.9362 Y9.0685 
G01 X22.0072 Y8.9975 
G01 X22.0456 Y8.9047 
G01 X22.0456 Y8.7280 
G01 X22.1696 Y8.4287 
G01 X22.1752 Y8.4230 
G01 X22.2003 Y8.3980 
G01 X22.2212 Y8.3475 
G01 X22.2387 Y8.3052 
G01 X22.2387 Y8.2545 
G01 X22.2387 Y8.2048 
G01 X22.2093 Y8.1338 
G01 X22.2003 Y8.1120 
G01 X22.1696 Y8.0813 
G01 X22.0456 Y7.7820 
G01 X22.0456 Y7.4580 
G01 X22.1696 Y7.1587 
G01 X22.2003 Y7.1280 
G01 X22.2099 Y7.1047 
G01 X22.2387 Y7.0352 
G01 X22.2387 Y6.9844 
G01 X22.2387 Y6.9348 
G01 X22.2205 Y6.8909 
G01 X22.2003 Y6.8420 
G01 X22.1745 Y6.8162 
G01 X22.1696 Y6.8113 
G01 X22.0456 Y6.5120 
G01 X22.0456 Y6.1880 
G01 X22.1696 Y5.8887 
G01 X22.1752 Y5.8830 
G01 X22.2003 Y5.8580 
G01 X22.2212 Y5.8075 
G01 X22.2387 Y5.7652 
G01 X22.2387 Y5.7145 
G01 X22.2387 Y5.6648 
G01 X22.2093 Y5.5938 
G01 X22.2003 Y5.5720 
G01 X22.1696 Y5.5413 
G01 X22.0456 Y5.2420 
G01 X22.0456 Y4.9180 
G01 X22.1696 Y4.6187 
G01 X22.3987 Y4.3896 
G01 X22.6980 Y4.2656 
G01 X25.5620 Y4.2656 
G01 X25.5735 Y4.2704 
G01 X25.6240 Y4.2704 
G01 X25.6740 Y4.2704 
G01 X25.7314 Y4.2704 
G01 X25.9187 Y4.3480 
G01 X26.0620 Y4.4913 
G01 X26.1396 Y4.6786 
G01 X26.1396 Y4.7374 
G01 X26.1509 Y4.7647 
G01 X26.1780 Y4.8302 
G01 X26.2144 Y4.9180 
G01 X26.2144 Y5.3334 
G01 X26.2528 Y5.4262 
G01 X26.3238 Y5.4972 
G01 X26.4166 Y5.5356 
G01 X28.0807 Y5.5356 
G01 X28.1735 Y5.4972 
G01 X28.2445 Y5.4262 
G01 X28.2780 Y5.3453 
G01 X28.4213 Y5.2020 
G01 X28.4258 Y5.2001 
G01 X28.4720 Y5.1810 
G01 X28.5430 Y5.1100 
G01 X28.5659 Y5.0546 
G01 X28.5814 Y5.0172 
G01 X28.5814 Y4.8594 
G01 X28.5846 Y4.8594 
G01 X28.5846 Y5.0589 
G01 X28.6037 Y5.1050 
G01 X28.6390 Y5.1403 
G01 X28.6851 Y5.1594 
G01 X29.7349 Y5.1594 
G01 X29.7810 Y5.1403 
G01 X29.8163 Y5.1050 
G01 X29.8354 Y5.0589 
G01 X29.8354 Y4.8594 
G01 X29.8386 Y4.8594 
G01 X29.8386 Y5.0172 
G01 X29.8550 Y5.0568 
G01 X29.8770 Y5.1100 
G01 X29.9480 Y5.1810 
G01 X29.9961 Y5.2009 
G01 X29.9987 Y5.2020 
G01 X30.1420 Y5.3453 
G01 X30.1755 Y5.4262 
G01 X30.2465 Y5.4972 
G01 X30.3393 Y5.5356 
G01 X37.1542 Y5.5356 
G01 X37.2470 Y5.4972 
G01 X37.3180 Y5.4262 
G01 X37.3564 Y5.3334 
G01 X37.3564 Y5.0794 
G01 X37.3596 Y5.0794 
G01 X37.3596 Y5.3249 
G01 X37.3787 Y5.3710 
G01 X37.4140 Y5.4063 
G01 X37.4601 Y5.4254 
G01 X40.0099 Y5.4254 
G01 X40.0560 Y5.4063 
G01 X40.0913 Y5.3710 
G01 X40.1104 Y5.3249 
G01 X40.1104 Y5.0794 
G01 X40.1136 Y5.0794 
G01 X40.1136 Y5.3334 
G01 X40.1520 Y5.4262 
G01 X40.2230 Y5.4972 
G01 X40.3158 Y5.5356 
G01 X63.6620 Y5.5356 
G01 X63.9613 Y5.6596 
G01 X68.8079 Y10.5062 
G01 X68.8789 Y10.5772 
G01 X68.9717 Y10.6156 
G01 X70.2670 Y10.6156 
G01 X70.3789 Y10.6620 
G01 X70.4717 Y10.7004 
G01 X71.8364 Y10.7004 
G01 X72.0237 Y10.7780 
G01 X72.1670 Y10.9213 
G01 X72.2446 Y11.1086 
G01 X72.2446 Y12.5114 
G01 X72.1670 Y12.6987 
G01 X72.0237 Y12.8420 
G01 X71.8364 Y12.9196 
G01 X71.6032 Y12.9196 
G01 X71.5104 Y12.9580 
G01 X71.4394 Y13.0290 
G01 X71.4010 Y13.1218 
G01 X71.4010 Y13.5362 
G01 X71.4394 Y13.6290 
G01 X72.0250 Y14.2146 
G01 X72.0960 Y14.2856 
G01 X72.1888 Y14.3240 
G01 X73.2137 Y14.3240 
G01 X73.3065 Y14.2856 
G01 X73.3775 Y14.2146 
G01 X73.3786 Y14.2118 
G01 X73.3830 Y14.2013 
G01 X73.5263 Y14.0580 
G01 X73.7136 Y13.9804 
G01 X77.4164 Y13.9804 
G01 X77.6037 Y14.0580 
G01 X77.7470 Y14.2013 
G01 X77.8246 Y14.3886 
G01 X77.8246 Y16.0914 
G01 X77.7470 Y16.2787 
G01 X77.7297 Y16.2960 
G01 X77.6586 Y16.3670 
G01 X77.6424 Y16.4062 
G01 X77.6202 Y16.4598 
G01 X77.6202 Y16.5602 
G01 X77.6366 Y16.5997 
G01 X77.6587 Y16.6530 
G01 X77.7297 Y16.7240 
G01 X77.7470 Y16.7413 
G01 X77.8246 Y16.9286 
G01 X77.8246 Y18.6314 
G01 X77.7470 Y18.8187 
G01 X77.7297 Y18.8360 
G01 X77.6586 Y18.9070 
G01 X77.6424 Y18.9462 
G01 X77.6202 Y18.9998 
G01 X77.6202 Y19.1002 
G01 X77.6366 Y19.1397 
G01 X77.6587 Y19.1930 
G01 X77.7297 Y19.2640 
G01 X77.7470 Y19.2813 
G01 X77.8246 Y19.4686 
G01 X77.8246 Y21.1714 
G01 X77.7470 Y21.3587 
G01 X77.7297 Y21.3760 
G01 X77.6586 Y21.4470 
G01 X77.6424 Y21.4862 
G01 X77.6202 Y21.5398 
G01 X77.6202 Y21.6402 
G01 X77.6366 Y21.6797 
G01 X77.6587 Y21.7330 
G01 X77.7297 Y21.8040 
G01 X77.7470 Y21.8213 
G01 X77.8246 Y22.0086 
G01 X77.8246 Y23.7114 
G01 X77.7470 Y23.8987 
G01 X77.7297 Y23.9160 
G01 X77.6587 Y23.9870 
G01 X77.6357 Y24.0425 
G01 X77.6202 Y24.0798 
G01 X77.6202 Y24.1802 
G01 X77.6431 Y24.2353 
G01 X77.6586 Y24.2730 
G01 X77.7470 Y24.3613 
G01 X77.8246 Y24.5486 
G01 X77.8246 Y26.2514 
G01 X77.7470 Y26.4387 
G01 X77.7297 Y26.4560 
G01 X77.6586 Y26.5270 
G01 X77.6424 Y26.5662 
G01 X77.6202 Y26.6198 
G01 X77.6202 Y26.7202 
G01 X77.6366 Y26.7597 
G01 X77.6587 Y26.8130 
G01 X77.7297 Y26.8840 
G01 X77.7470 Y26.9013 
G01 X77.8246 Y27.0886 
G01 X77.8246 Y28.7914 
G01 X77.7470 Y28.9787 
G01 X77.7297 Y28.9960 
G01 X77.6586 Y29.0670 
G01 X77.6424 Y29.1062 
G01 X77.6202 Y29.1598 
G01 X77.6202 Y29.2602 
G01 X77.6366 Y29.2997 
G01 X77.6587 Y29.3530 
G01 X77.7297 Y29.4240 
G01 X77.7470 Y29.4413 
G01 X77.8246 Y29.6286 
G01 X77.8246 Y31.3314 
G01 X77.7470 Y31.5187 
G01 X77.7297 Y31.5360 
G01 X77.6586 Y31.6070 
G01 X77.6424 Y31.6462 
G01 X77.6202 Y31.6998 
G01 X77.6202 Y31.8002 
G01 X77.6366 Y31.8397 
G01 X77.6587 Y31.8930 
G01 X77.7297 Y31.9640 
G01 X77.7470 Y31.9813 
G01 X77.8246 Y32.1686 
G01 X77.8246 Y33.8714 
G01 X77.7470 Y34.0587 
G01 X77.7297 Y34.0760 
G01 X77.6586 Y34.1470 
G01 X77.6424 Y34.1862 
G01 X77.6202 Y34.2398 
G01 X77.6202 Y34.3402 
G01 X77.6366 Y34.3797 
G01 X77.6587 Y34.4330 
G01 X77.7297 Y34.5040 
G01 X77.7470 Y34.5213 
G01 X77.8246 Y34.7086 
G01 X77.8246 Y36.4114 
G01 X77.7470 Y36.5987 
G01 X77.7297 Y36.6160 
G01 X77.6586 Y36.6870 
G01 X77.6424 Y36.7262 
G01 X77.6202 Y36.7798 
G01 X77.6202 Y36.8802 
G01 X77.6366 Y36.9197 
G01 X77.6587 Y36.9730 
G01 X77.7297 Y37.0440 
G01 X77.7470 Y37.0613 
G01 X77.8246 Y37.2486 
G01 X77.8246 Y38.9514 
G01 X77.7470 Y39.1387 
G01 X77.6037 Y39.2820 
G01 X77.4164 Y39.3596 
G01 X73.7136 Y39.3596 
G01 X73.5263 Y39.2820 
G01 X73.3830 Y39.1387 
G01 X73.3054 Y38.9514 
G01 X73.3054 Y37.2486 
G01 X73.3830 Y37.0613 
G01 X73.4003 Y37.0440 
G01 X73.4713 Y36.9730 
G01 X73.4943 Y36.9175 
G01 X73.5098 Y36.8802 
G01 X73.5098 Y36.7798 
G01 X73.4869 Y36.7247 
G01 X73.4713 Y36.6870 
G01 X73.3830 Y36.5987 
G01 X73.3738 Y36.5766 
G01 X73.3422 Y36.5002 
G01 X73.3354 Y36.4838 
G01 X73.2644 Y36.4128 
G01 X73.2090 Y36.3899 
G01 X73.1716 Y36.3744 
G01 X62.5378 Y36.3744 
G01 X62.4477 Y36.4117 
G01 X62.4450 Y36.4128 
G01 X62.3740 Y36.4838 
G01 X62.3356 Y36.5766 
G01 X62.3356 Y36.6770 
G01 X62.3740 Y36.7698 
G01 X62.3950 Y36.8204 
G01 X62.3950 Y39.0232 
G01 X62.3174 Y39.2105 
G01 X62.1741 Y39.3538 
G01 X61.9868 Y39.4314 
G01 X59.9840 Y39.4314 
G01 X59.7967 Y39.3538 
G01 X59.6534 Y39.2105 
G01 X59.6145 Y39.1166 
G01 X59.6085 Y39.1022 
G01 X59.5761 Y39.0238 
G01 X59.5051 Y38.9528 
G01 X59.4496 Y38.9299 
G01 X59.4123 Y38.9144 
G01 X48.7330 Y38.9144 
G01 X48.4337 Y38.7904 
G01 X48.2046 Y38.5613 
G01 X47.3971 Y37.7538 
G01 X47.3261 Y37.6828 
G01 X47.2333 Y37.6444 
G01 X45.5580 Y37.6444 
G01 X45.2587 Y37.5204 
G01 X45.0296 Y37.2913 
G01 X44.0727 Y36.3344 
G01 X44.0017 Y36.2634 
G01 X43.9089 Y36.2250 
G01 X43.8085 Y36.2250 
G01 X43.7158 Y36.2634 
G01 X43.6448 Y36.3344 
G01 X43.6063 Y36.4272 
G01 X43.6063 Y36.5276 
G01 X43.6100 Y36.5365 
G01 X43.6448 Y36.6204 
G01 X43.6896 Y36.7286 
G01 X43.6896 Y38.2014 
G01 X43.6120 Y38.3887 
G01 X43.4687 Y38.5320 
G01 X43.2814 Y38.6096 
G01 X40.5386 Y38.6096 
G01 X40.3376 Y38.5263 
G01 X40.2372 Y38.5263 
G01 X40.1444 Y38.5648 
G01 X40.1084 Y38.6008 
G01 X40.0734 Y38.6358 
G01 X40.0350 Y38.7285 
G01 X40.0350 Y38.8289 
G01 X40.0734 Y38.9217 
G01 X40.2329 Y39.0812 
G01 X40.3039 Y39.1522 
G01 X40.3967 Y39.1906 
G01 X43.5369 Y39.1906 
G01 X43.6296 Y39.1522 
G01 X43.8438 Y38.9380 
G01 X44.0311 Y38.8604 
G01 X46.7739 Y38.8604 
G01 X46.9612 Y38.9380 
G01 X47.1045 Y39.0813 
G01 X47.1821 Y39.2686 
G01 X47.1821 Y40.7414 
G01 X47.1687 Y40.7738 
G01 X47.1607 Y40.7930 
G01 X47.1607 Y40.8437 
G01 X47.1607 Y40.8934 
G01 X47.1789 Y40.9373 
G01 X47.1991 Y40.9862 
G01 X47.2352 Y41.0222 
G01 X47.2701 Y41.0572 
G01 X47.3415 Y41.0867 
G01 X47.3629 Y41.0956 
G01 X47.4136 Y41.0956 
G01 X47.4633 Y41.0956 
G01 X78.7000 Y41.0956 
G01 X78.7395 Y41.0792 
G01 X78.7927 Y41.0572 
G01 X78.8637 Y40.9862 
G01 X78.8867 Y40.9307 
G01 X78.9022 Y40.8934 
G01 X78.9022 Y40.7930 
G01 X78.8858 Y40.7535 
G01 X78.8637 Y40.7002 
G01 X78.7927 Y40.6292 
G01 X78.7085 Y40.5943 
G01 X78.7000 Y40.5908 
G01 X78.6063 Y40.5520 
G01 X78.4630 Y40.4087 
G01 X78.3854 Y40.2214 
G01 X78.3854 Y38.5186 
G01 X78.4630 Y38.3313 
G01 X78.4803 Y38.3140 
G01 X78.5513 Y38.2430 
G01 X78.5743 Y38.1875 
G01 X78.5898 Y38.1502 
G01 X78.5898 Y38.0498 
G01 X78.5669 Y37.9947 
G01 X78.5513 Y37.9570 
G01 X78.4630 Y37.8687 
G01 X78.3854 Y37.6814 
G01 X78.3854 Y35.9786 
G01 X78.4630 Y35.7913 
G01 X78.4803 Y35.7740 
G01 X78.5513 Y35.7030 
G01 X78.5743 Y35.6475 
G01 X78.5898 Y35.6102 
G01 X78.5898 Y35.5098 
G01 X78.5669 Y35.4547 
G01 X78.5513 Y35.4170 
G01 X78.4630 Y35.3287 
G01 X78.3854 Y35.1414 
G01 X78.3854 Y33.4386 
G01 X78.4630 Y33.2513 
G01 X78.6063 Y33.1080 
G01 X78.7497 Y33.0486 
G01 X78.7822 Y33.0399 
G01 X78.7957 Y33.0296 
G01 X78.8113 Y33.0231 
G01 X78.8351 Y32.9993 
G01 X78.8619 Y32.9787 
G01 X78.8703 Y32.9641 
G01 X78.8823 Y32.9521 
G01 X78.8952 Y32.9209 
G01 X78.9121 Y32.8918 
G01 X78.9143 Y32.8750 
G01 X78.9208 Y32.8593 
G01 X78.9208 Y32.8256 
G01 X78.9252 Y32.7922 
G01 X78.9208 Y32.7758 
G01 X78.9208 Y32.7589 
G01 X78.9079 Y32.7278 
G01 X78.8992 Y32.6952 
G01 X78.8888 Y32.6818 
G01 X78.8823 Y32.6661 
G01 X78.8585 Y32.6423 
G01 X78.8380 Y32.6156 
G01 X78.8233 Y32.6071 
G01 X78.8113 Y32.5951 
G01 X78.8061 Y32.5929 
G01 X78.7921 Y32.5790 
G01 X78.7752 Y32.5496 
G01 X78.7664 Y32.5169 
G01 X78.7664 Y32.1294 
G01 X78.7696 Y32.1294 
G01 X78.7696 Y32.5249 
G01 X78.7887 Y32.5710 
G01 X78.8240 Y32.6063 
G01 X78.8701 Y32.6254 
G01 X82.4199 Y32.6254 
G01 X82.4660 Y32.6063 
G01 X82.5013 Y32.5710 
G01 X82.5204 Y32.5249 
G01 X82.5204 Y32.1294 
G01 X82.5236 Y32.1294 
G01 X82.5236 Y32.5169 
G01 X82.5148 Y32.5496 
G01 X82.4979 Y32.5790 
G01 X82.4839 Y32.5929 
G01 X82.4787 Y32.5951 
G01 X82.4667 Y32.6071 
G01 X82.4520 Y32.6156 
G01 X82.4315 Y32.6423 
G01 X82.4077 Y32.6661 
G01 X82.4012 Y32.6818 
G01 X82.3908 Y32.6952 
G01 X82.3821 Y32.7278 
G01 X82.3692 Y32.7589 
G01 X82.3692 Y32.7758 
G01 X82.3648 Y32.7922 
G01 X82.3692 Y32.8256 
G01 X82.3692 Y32.8593 
G01 X82.3757 Y32.8750 
G01 X82.3779 Y32.8918 
G01 X82.3948 Y32.9209 
G01 X82.4077 Y32.9521 
G01 X82.4196 Y32.9641 
G01 X82.4281 Y32.9787 
G01 X82.4548 Y32.9993 
G01 X82.4787 Y33.0231 
G01 X82.4943 Y33.0296 
G01 X82.5078 Y33.0399 
G01 X82.5403 Y33.0486 
G01 X82.6837 Y33.1080 
G01 X82.8270 Y33.2513 
G01 X82.8362 Y33.2734 
G01 X82.8678 Y33.3498 
G01 X82.8746 Y33.3662 
G01 X82.9456 Y33.4372 
G01 X83.0010 Y33.4601 
G01 X83.0383 Y33.4756 
G01 X85.2520 Y33.4756 
G01 X85.5513 Y33.5996 
G01 X87.3853 Y35.4336 
G01 X87.4563 Y35.5046 
G01 X87.6854 Y35.7337 
G01 X87.8094 Y36.0330 
G01 X87.8094 Y41.4370 
G01 X87.6854 Y41.7363 
G01 X84.5814 Y44.8403 
G01 X84.5104 Y44.9113 
G01 X84.2813 Y45.1404 
G01 X83.9820 Y45.2644 
G01 X32.6670 Y45.2644 
G01 X32.5743 Y45.3028 
G01 X32.5033 Y45.3738 
G01 X32.4649 Y45.4666 
G01 X32.4470 Y45.5097 
G01 X32.3037 Y45.6530 
G01 X32.1164 Y45.7306 
G01 X30.1136 Y45.7306 
G01 X29.9263 Y45.6530 
G01 X29.7830 Y45.5097 
G01 X29.7054 Y45.3224 
G01 X29.7054 Y43.1196 
G01 X29.7438 Y43.0270 
G01 X29.7438 Y42.9266 
G01 X29.7053 Y42.8338 
G01 X29.6343 Y42.7628 
G01 X29.5416 Y42.7244 
G01 X28.9667 Y42.7244 
G01 X28.8739 Y42.7628 
G01 X27.4314 Y44.2053 
G01 X27.1313 Y44.5054 
G01 X26.8320 Y44.6294 
G01 X25.8883 Y44.6294 
G01 X25.8488 Y44.6458 
G01 X25.7956 Y44.6678 
G01 X25.7246 Y44.7388 
G01 X25.7168 Y44.7577 
G01 X25.6862 Y44.8316 
G01 X25.6770 Y44.8537 
G01 X25.5337 Y44.9970 
G01 X25.3464 Y45.0746 
G01 X21.6436 Y45.0746 
G01 X21.4563 Y44.9970 
G01 X21.3130 Y44.8537 
G01 X21.2354 Y44.6664 
G01 X21.2354 Y42.9636 
G01 X21.3130 Y42.7763 
G01 X21.3303 Y42.7590 
G01 X21.4013 Y42.6880 
G01 X21.4243 Y42.6325 
G01 X21.4398 Y42.5952 
G01 X21.4398 Y42.4948 
G01 X21.4169 Y42.4397 
G01 X21.4013 Y42.4020 
G01 X21.3130 Y42.3137 
G01 X21.2354 Y42.1264 
G01 X21.2354 Y40.4236 
G01 X21.3130 Y40.2363 
G01 X21.4563 Y40.0930 
G01 X21.6436 Y40.0154 
G01 X25.3464 Y40.0154 
G01 X25.5337 Y40.0930 
G01 X25.6770 Y40.2363 
G01 X25.6862 Y40.2584 
G01 X25.7246 Y40.3512 
G01 X25.7956 Y40.4222 
G01 X25.8883 Y40.4606 
G01 X26.2783 Y40.4606 
G01 X26.3711 Y40.4222 
G01 X27.8136 Y38.9797 
G01 X28.1137 Y38.6796 
G01 X28.4130 Y38.5556 
G01 X29.5629 Y38.5556 
G01 X29.6557 Y38.5172 
G01 X29.7267 Y38.4462 
G01 X29.7651 Y38.3534 
G01 X29.7830 Y38.3103 
G01 X29.9263 Y38.1670 
G01 X30.1136 Y38.0894 
G01 X31.4185 Y38.0894 
G01 X31.5113 Y38.0510 
G01 X33.9162 Y35.6461 
G01 X33.9872 Y35.5751 
G01 X34.0256 Y35.4823 
G01 X34.0256 Y33.6556 
G01 X33.9872 Y33.5629 
G01 X33.8080 Y33.3837 
G01 X33.7304 Y33.1964 
G01 X33.7304 Y29.9936 
G01 X33.8080 Y29.8063 
G01 X33.9513 Y29.6630 
G01 X34.1386 Y29.5854 
G01 X35.5414 Y29.5854 
G01 X35.6970 Y29.6499 
G01 X35.7216 Y29.6601 
G01 X35.7898 Y29.6883 
G01 X35.8902 Y29.6883 
G01 X36.1386 Y29.5854 
G01 X37.5414 Y29.5854 
G01 X37.6970 Y29.6499 
G01 X37.7216 Y29.6601 
G01 X37.7898 Y29.6883 
G01 X37.8902 Y29.6883 
G01 X38.1386 Y29.5854 
G01 X39.5414 Y29.5854 
G01 X39.7898 Y29.6883 
G01 X39.8902 Y29.6883 
G01 X39.9624 Y29.6584 
G01 X39.9830 Y29.6499 
G01 X40.1386 Y29.5854 
G01 X41.5414 Y29.5854 
G01 X41.6302 Y29.6222 
G01 X41.7230 Y29.6606 
G01 X41.8234 Y29.6606 
G01 X41.9162 Y29.6222 
G01 X41.9872 Y29.5512 
G01 X42.0256 Y29.4584 
G01 X42.0256 Y26.1680 
G01 X42.0481 Y26.1137 
G01 X42.0481 Y23.5692 
G01 X42.0097 Y23.4764 
G01 X41.6821 Y23.1488 
G01 X41.6111 Y23.0778 
G01 X41.5183 Y23.0394 
G01 X38.5730 Y23.0394 
G01 X38.2737 Y22.9154 
G01 X38.0446 Y22.6863 
G01 X36.6021 Y21.2438 
G01 X36.5311 Y21.1728 
G01 X36.4383 Y21.1344 
G01 X32.8580 Y21.1344 
G01 X32.5587 Y21.0104 
G01 X32.3296 Y20.7813 
G01 X27.2496 Y15.7013 
G01 X27.1256 Y15.4020 
G01 X27.1256 Y13.7231 
G01 X27.0872 Y13.6303 
G01 X27.0162 Y13.5593 
G01 X26.9960 Y13.5510 
G01 X26.9234 Y13.5209 
G01 X26.7498 Y13.4490 
G01 X26.6065 Y13.3057 
G01 X26.5766 Y13.2336 
G01 X26.5382 Y13.1408 
G01 X26.4672 Y13.0698 
G01 X26.3744 Y13.0314 
G01 X25.6397 Y13.0314 
G01 X25.5495 Y13.0687 
G01 X25.5469 Y13.0698 
G01 X23.7838 Y14.8329 
G01 X23.7128 Y14.9039 
G01 X23.6744 Y14.9967 
G01 X23.6744 Y26.1970 
G01 X23.5504 Y26.4963 
G01 X20.4464 Y29.6003 
G01 X20.1463 Y29.9004 
G01 X20.0668 Y29.9334 
G01 X19.9740 Y29.9718 
G01 X19.9030 Y30.0428 
G01 X19.8646 Y30.1355 
G01 X19.8646 Y30.3064 
G01 X19.7870 Y30.4937 
G01 X19.6437 Y30.6370 
G01 X19.4564 Y30.7146 
G01 X17.7036 Y30.7146 
G01 X17.6674 Y30.6996 
G01 X11.5426 Y30.6996 
G01 X11.5194 Y30.7092 
G01 X11.5064 Y30.7146 
G01 X9.7536 Y30.7146 
G01 X9.5663 Y30.6370 
G01 X9.4230 Y30.4937 
G01 X9.3454 Y30.3064 
G01 X9.3454 Y28.8036 
G01 X9.4230 Y28.6163 
G01 X9.5663 Y28.4730 
G01 X9.7536 Y28.3954 
G01 X11.5064 Y28.3954 
G01 X11.5426 Y28.4104 
G01 X17.6674 Y28.4104 
G01 X17.6906 Y28.4008 
G01 X17.7036 Y28.3954 
G01 X19.2935 Y28.3954 
G01 X19.3863 Y28.3570 
G01 X21.9362 Y25.8071 
G01 X22.0072 Y25.7361 
G01 X22.0456 Y25.6433 
G01 X22.0456 Y18.2753 
G01 X22.0072 Y18.1825 
G01 X21.9362 Y18.1115 
G01 X21.9335 Y18.1104 
G01 X21.8434 Y18.0731 
G01 X21.7430 Y18.0731 
G01 X21.6502 Y18.1115 
G01 X21.6233 Y18.1384 
G01 X21.5792 Y18.1825 
G01 X19.9299 Y19.8318 
G01 X19.9030 Y19.8587 
G01 X19.8646 Y19.9515 
G01 X19.8646 Y20.7814 
G01 X19.7870 Y20.9687 
G01 X19.6437 Y21.1120 
G01 X19.4564 Y21.1896 
G01 X17.7036 Y21.1896 
G01 X17.6938 Y21.1855 
G01 X17.6010 Y21.1471 
G01 X11.6090 Y21.1471 
G01 X11.5612 Y21.1669 
G01 X11.5162 Y21.1855 
G01 X11.5064 Y21.1896 
G01 X9.7536 Y21.1896 
G01 X9.5663 Y21.1120 
G01 X9.4230 Y20.9687 
G01 X9.3454 Y20.7814 
G01 X9.3454 Y20.3542 
G01 X9.3070 Y20.2615 
G01 X9.3054 Y20.2577 
G01 X9.3054 Y19.8023 
G01 X9.3452 Y19.7063 
G01 X9.3454 Y19.2786 
G01 X9.4230 Y19.0913 
G01 X9.5663 Y18.9480 
G01 X9.7536 Y18.8704 
G01 X10.5371 Y18.8704 
G01 X10.5673 Y18.8579 
G01 X18.5460 Y18.8579 
G01 X18.6388 Y18.8195 
G01 X20.6662 Y16.7921 
G01 X20.7372 Y16.7211 
G01 X20.7756 Y16.6283 
G01 X20.7756 Y13.8080 
G01 X20.8996 Y13.5087 
G01 X21.1287 Y13.2796 
G01 X21.3012 Y13.1071 
G01 X21.3722 Y13.0361 
G01 X21.4106 Y12.9433 
G01 X21.4106 Y11.1867 
G01 X21.3733 Y11.0966 
G01 X21.3722 Y11.0939 
G01 X19.4310 Y9.1527 
G01 X19.3600 Y9.0817 
G01 X19.2672 Y9.0433 
G01 X19.1668 Y9.0433 
G01 X19.0740 Y9.0817 
G01 X19.0030 Y9.1527 
G01 X18.9646 Y9.2455 
G01 X18.9646 Y9.2914 
G01 X18.8870 Y9.4787 
G01 X18.7437 Y9.6220 
G01 X18.5564 Y9.6996 
G01 X16.1536 Y9.6996 
G01 X15.9663 Y9.6220 
G01 X15.8230 Y9.4787 
G01 X15.7454 Y9.2914 
G01 X15.7454 Y8.4886 
G01 X15.7829 Y8.3980 
G01 X15.8214 Y8.3052 
G01 X15.8214 Y8.2048 
G01 X15.8139 Y8.1868 
G01 X15.7829 Y8.1120 
G01 X15.7454 Y8.0214 
G01 X15.7454 Y7.2186 
G01 X15.8230 Y7.0313 
G01 X15.9663 Y6.8880 
G01 X15.9708 Y6.8861 
G01 X16.0170 Y6.8670 
G01 X16.0880 Y6.7960 
G01 X16.1109 Y6.7406 
G01 X16.1264 Y6.7032 
G01 X16.1264 Y6.6254 
G01 X16.1296 Y6.6254 
G00 Z2.5400 
G00 X16.1487 Y7.2490 
G01 Z-0.2000 F254.00 
G01 X16.1296 Y7.2951 F508.00 
G01 X16.1296 Y7.9449 
G01 X16.1487 Y7.9910 
G01 X16.1840 Y8.0263 
G01 X16.2301 Y8.0454 
G01 X17.2804 Y8.0454 
G01 X17.2984 Y8.0502 
G01 X18.8718 Y8.0502 
G01 X21.7948 Y10.9732 
G01 X21.7948 Y13.1568 
G01 X21.3258 Y13.6258 
G01 X21.2458 Y13.7058 
G01 X21.1891 Y13.8039 
G01 X21.1598 Y13.9134 
G01 X21.1598 Y16.8418 
G01 X18.7470 Y19.2546 
G01 X18.3727 Y19.2546 
G01 X18.3099 Y19.2421 
G01 X10.7201 Y19.2421 
G01 X10.6573 Y19.2546 
G01 X9.8301 Y19.2546 
G01 X9.7840 Y19.2737 
G01 X9.7487 Y19.3090 
G01 X9.7296 Y19.3551 
G01 X9.7296 Y19.7822 
G01 X9.7188 Y19.8082 
G01 X9.6896 Y19.9551 
G01 X9.6896 Y20.1049 
G01 X9.7188 Y20.2518 
G01 X9.7296 Y20.2778 
G01 X9.7296 Y20.7049 
G01 X9.7487 Y20.7510 
G01 X9.7840 Y20.7863 
G01 X9.8301 Y20.8054 
G01 X11.4299 Y20.8054 
G01 X11.4760 Y20.7863 
G01 X11.4994 Y20.7629 
G01 X17.7106 Y20.7629 
G01 X17.7340 Y20.7863 
G01 X17.7801 Y20.8054 
G01 X19.3799 Y20.8054 
G01 X19.4260 Y20.7863 
G01 X19.4613 Y20.7510 
G01 X19.4804 Y20.7049 
G01 X19.4804 Y19.7380 
G01 X21.9342 Y17.2841 
G01 X21.9909 Y17.1861 
G01 X22.0202 Y17.0766 
G01 X22.0202 Y14.1482 
G01 X22.5692 Y13.5991 
G01 X22.6259 Y13.5010 
G01 X22.6552 Y13.3916 
G01 X22.6552 Y11.2252 
G01 X33.4768 Y11.2252 
G01 X34.4948 Y12.2432 
G01 X34.4948 Y13.5696 
G01 X34.2151 Y13.5696 
G01 X34.1690 Y13.5887 
G01 X34.1337 Y13.6240 
G01 X34.1146 Y13.6701 
G01 X34.1146 Y16.7199 
G01 X34.1337 Y16.7660 
G01 X34.1690 Y16.8013 
G01 X34.2151 Y16.8204 
G01 X35.4649 Y16.8204 
G01 X35.5110 Y16.8013 
G01 X35.5463 Y16.7660 
G01 X35.5654 Y16.7199 
G01 X35.5654 Y13.6701 
G01 X35.5463 Y13.6240 
G01 X35.5110 Y13.5887 
G01 X35.4649 Y13.5696 
G01 X35.3552 Y13.5696 
G01 X35.3552 Y12.0084 
G01 X35.3259 Y11.8989 
G01 X35.2692 Y11.8009 
G01 X35.1891 Y11.7208 
G01 X33.9191 Y10.4508 
G01 X33.8210 Y10.3941 
G01 X33.7116 Y10.3648 
G01 X22.4032 Y10.3648 
G01 X19.3141 Y7.2758 
G01 X19.2160 Y7.2191 
G01 X19.1066 Y7.1898 
G01 X17.2984 Y7.1898 
G01 X17.2804 Y7.1946 
G01 X16.2301 Y7.1946 
G01 X16.1840 Y7.2137 
G01 X16.1487 Y7.2490 
G00 Z2.5400 
G00 X16.1487 Y8.5190 
G01 Z-0.2000 F254.00 
G01 X16.1296 Y8.5651 F508.00 
G01 X16.1296 Y9.2149 
G01 X16.1487 Y9.2610 
G01 X16.1840 Y9.2963 
G01 X16.2301 Y9.3154 
G01 X18.4799 Y9.3154 
G01 X18.5260 Y9.2963 
G01 X18.5613 Y9.2610 
G01 X18.5804 Y9.2149 
G01 X18.5804 Y8.5651 
G01 X18.5613 Y8.5190 
G01 X18.5260 Y8.4837 
G01 X18.4799 Y8.4646 
G01 X16.2301 Y8.4646 
G01 X16.1840 Y8.4837 
G01 X16.1487 Y8.5190 
G00 Z2.5400 
G00 X17.6304 Y5.9246 
G01 Z-0.2000 F254.00 
G01 X17.6304 Y5.5054 F508.00 
G01 X18.4799 Y5.5054 
G01 X18.5133 Y5.4916 
G01 X18.4962 Y5.5047 
G01 X18.4671 Y5.5215 
G01 X18.4567 Y5.5350 
G01 X18.4433 Y5.5453 
G01 X18.4264 Y5.5745 
G01 X18.4059 Y5.6012 
G01 X18.4016 Y5.6176 
G01 X18.3931 Y5.6323 
G01 X18.3887 Y5.6656 
G01 X18.3800 Y5.6982 
G01 X18.3822 Y5.7150 
G01 X18.3800 Y5.7318 
G01 X18.3887 Y5.7644 
G01 X18.3931 Y5.7977 
G01 X18.4016 Y5.8124 
G01 X18.4060 Y5.8288 
G01 X18.4264 Y5.8555 
G01 X18.4433 Y5.8847 
G01 X18.4567 Y5.8950 
G01 X18.4671 Y5.9085 
G01 X18.4962 Y5.9253 
G01 X18.5133 Y5.9384 
G01 X18.4799 Y5.9246 
G01 X17.6304 Y5.9246 
G00 Z2.5400 
G00 X18.5300 Y5.9477 
G01 Z-0.2000 F254.00 
G01 X18.5362 Y5.9494 F508.00 
G01 X18.5579 Y5.9710 
G01 X18.5748 Y6.0004 
G01 X18.5836 Y6.0331 
G01 X18.5836 Y6.0746 
G01 X18.5804 Y6.0746 
G01 X18.5804 Y6.0251 
G01 X18.5613 Y5.9790 
G01 X18.5300 Y5.9477 
G00 Z2.5400 
G00 X18.5300 Y5.4823 
G01 Z-0.2000 F254.00 
G01 X18.5613 Y5.4510 F508.00 
G01 X18.5804 Y5.4049 
G01 X18.5804 Y5.3554 
G01 X18.5836 Y5.3554 
G01 X18.5836 Y5.3969 
G01 X18.5748 Y5.4296 
G01 X18.5579 Y5.4590 
G01 X18.5362 Y5.4806 
G01 X18.5300 Y5.4823 
G00 Z2.5400 
G00 X18.5804 Y4.8046 
G01 Z-0.2000 F254.00 
G01 X18.5804 Y4.7551 F508.00 
G01 X18.5613 Y4.7090 
G01 X18.5260 Y4.6737 
G01 X18.4799 Y4.6546 
G01 X17.6304 Y4.6546 
G01 X17.6304 Y4.6514 
G01 X18.4719 Y4.6514 
G01 X18.5046 Y4.6602 
G01 X18.5340 Y4.6771 
G01 X18.5579 Y4.7010 
G01 X18.5748 Y4.7304 
G01 X18.5836 Y4.7631 
G01 X18.5836 Y4.8046 
G01 X18.5804 Y4.8046 
G00 Z2.5400 
G00 X22.5158 Y4.8159 
G01 Z-0.2000 F254.00 
G01 X22.4591 Y4.9139 F508.00 
G01 X22.4298 Y5.0234 
G01 X22.4298 Y5.1366 
G01 X22.4591 Y5.2461 
G01 X22.5158 Y5.3441 
G01 X22.5958 Y5.4242 
G01 X22.6939 Y5.4809 
G01 X22.8034 Y5.5102 
G01 X24.9698 Y5.5102 
G01 X24.9698 Y5.9198 
G01 X22.8034 Y5.9198 
G01 X22.6939 Y5.9491 
G01 X22.5958 Y6.0058 
G01 X22.5158 Y6.0858 
G01 X22.4591 Y6.1839 
G01 X22.4298 Y6.2934 
G01 X22.4298 Y6.4066 
G01 X22.4591 Y6.5160 
G01 X22.5158 Y6.6141 
G01 X22.5958 Y6.6942 
G01 X22.6939 Y6.7509 
G01 X22.8034 Y6.7802 
G01 X28.5934 Y6.7802 
G01 X28.6037 Y6.8050 
G01 X28.6390 Y6.8403 
G01 X28.6851 Y6.8594 
G01 X29.7349 Y6.8594 
G01 X29.7810 Y6.8403 
G01 X29.8163 Y6.8050 
G01 X29.8266 Y6.7802 
G01 X63.3218 Y6.7802 
G01 X68.2358 Y11.6941 
G01 X68.3158 Y11.7742 
G01 X68.4139 Y11.8309 
G01 X68.5234 Y11.8602 
G01 X69.1096 Y11.8602 
G01 X69.1096 Y12.4349 
G01 X69.1287 Y12.4810 
G01 X69.1640 Y12.5163 
G01 X69.2101 Y12.5354 
G01 X69.9532 Y12.5354 
G01 X69.9532 Y14.0400 
G01 X69.9894 Y14.1753 
G01 X70.0595 Y14.2965 
G01 X71.3295 Y15.5665 
G01 X71.4285 Y15.6655 
G01 X71.5497 Y15.7356 
G01 X71.6850 Y15.7718 
G01 X73.6896 Y15.7718 
G01 X73.6896 Y16.0149 
G01 X73.7087 Y16.0610 
G01 X73.7440 Y16.0963 
G01 X73.7901 Y16.1154 
G01 X77.3399 Y16.1154 
G01 X77.3860 Y16.0963 
G01 X77.4213 Y16.0610 
G01 X77.4404 Y16.0149 
G01 X77.4404 Y14.4651 
G01 X77.4213 Y14.4190 
G01 X77.3860 Y14.3837 
G01 X77.3399 Y14.3646 
G01 X73.7901 Y14.3646 
G01 X73.7440 Y14.3837 
G01 X73.7087 Y14.4190 
G01 X73.6896 Y14.4651 
G01 X73.6896 Y14.7082 
G01 X71.9753 Y14.7082 
G01 X71.0168 Y13.7497 
G01 X71.0168 Y12.5354 
G01 X71.7599 Y12.5354 
G01 X71.8060 Y12.5163 
G01 X71.8413 Y12.4810 
G01 X71.8604 Y12.4349 
G01 X71.8604 Y11.1851 
G01 X71.8413 Y11.1390 
G01 X71.8060 Y11.1037 
G01 X71.7599 Y11.0846 
G01 X70.3671 Y11.0846 
G01 X70.2711 Y11.0291 
G01 X70.1616 Y10.9998 
G01 X68.7582 Y10.9998 
G01 X63.7641 Y6.0058 
G01 X63.6660 Y5.9491 
G01 X63.5566 Y5.9198 
G01 X29.8354 Y5.9198 
G01 X29.8354 Y5.6091 
G01 X29.8163 Y5.5630 
G01 X29.7810 Y5.5277 
G01 X29.7349 Y5.5086 
G01 X28.6851 Y5.5086 
G01 X28.6390 Y5.5277 
G01 X28.6037 Y5.5630 
G01 X28.5846 Y5.6091 
G01 X28.5846 Y5.9198 
G01 X25.8302 Y5.9198 
G01 X25.8302 Y5.0234 
G01 X25.8009 Y4.9139 
G01 X25.7554 Y4.8352 
G01 X25.7554 Y4.7551 
G01 X25.7363 Y4.7090 
G01 X25.7010 Y4.6737 
G01 X25.6549 Y4.6546 
G01 X25.4746 Y4.6546 
G01 X25.4566 Y4.6498 
G01 X22.8034 Y4.6498 
G01 X22.6939 Y4.6791 
G01 X22.5958 Y4.7358 
G01 X22.5158 Y4.8159 
G00 Z2.5400 
G00 X22.5158 Y7.3559 
G01 Z-0.2000 F254.00 
G01 X22.4591 Y7.4539 F508.00 
G01 X22.4298 Y7.5634 
G01 X22.4298 Y7.6766 
G01 X22.4591 Y7.7861 
G01 X22.5158 Y7.8841 
G01 X22.5958 Y7.9642 
G01 X22.6939 Y8.0209 
G01 X22.8034 Y8.0502 
G01 X24.9698 Y8.0502 
G01 X24.9698 Y8.4598 
G01 X22.8034 Y8.4598 
G01 X22.6939 Y8.4891 
G01 X22.5958 Y8.5458 
G01 X22.5158 Y8.6258 
G01 X22.4591 Y8.7239 
G01 X22.4298 Y8.8334 
G01 X22.4298 Y8.9466 
G01 X22.4591 Y9.0561 
G01 X22.5158 Y9.1541 
G01 X22.5958 Y9.2342 
G01 X22.6939 Y9.2909 
G01 X22.8034 Y9.3202 
G01 X26.9131 Y9.3202 
G01 X26.9131 Y10.1979 
G01 X26.9322 Y10.2440 
G01 X26.9675 Y10.2793 
G01 X27.0136 Y10.2984 
G01 X28.8664 Y10.2984 
G01 X28.9125 Y10.2793 
G01 X28.9478 Y10.2440 
G01 X28.9669 Y10.1979 
G01 X28.9669 Y9.3202 
G01 X30.0881 Y9.3202 
G01 X30.0881 Y10.1979 
G01 X30.1072 Y10.2440 
G01 X30.1425 Y10.2793 
G01 X30.1886 Y10.2984 
G01 X32.0414 Y10.2984 
G01 X32.0875 Y10.2793 
G01 X32.1228 Y10.2440 
G01 X32.1419 Y10.1979 
G01 X32.1419 Y8.9545 
G01 X32.6662 Y8.4302 
G01 X37.3596 Y8.4302 
G01 X37.3596 Y8.6249 
G01 X37.3787 Y8.6710 
G01 X37.4140 Y8.7063 
G01 X37.4601 Y8.7254 
G01 X38.3048 Y8.7254 
G01 X38.3048 Y13.5696 
G01 X38.2151 Y13.5696 
G01 X38.1690 Y13.5887 
G01 X38.1337 Y13.6240 
G01 X38.1146 Y13.6701 
G01 X38.1146 Y16.7199 
G01 X38.1337 Y16.7660 
G01 X38.1690 Y16.8013 
G01 X38.2151 Y16.8204 
G01 X38.4098 Y16.8204 
G01 X38.4098 Y17.3066 
G01 X38.4391 Y17.4160 
G01 X38.4958 Y17.5141 
G01 X38.5759 Y17.5942 
G01 X39.6608 Y18.6791 
G01 X39.7409 Y18.7592 
G01 X39.8389 Y18.8159 
G01 X39.9484 Y18.8452 
G01 X47.6816 Y18.8452 
G01 X47.7910 Y18.8159 
G01 X47.8891 Y18.7592 
G01 X49.1591 Y17.4892 
G01 X49.2392 Y17.4091 
G01 X49.2959 Y17.3111 
G01 X49.3252 Y17.2016 
G01 X49.3252 Y16.8204 
G01 X49.4649 Y16.8204 
G01 X49.5110 Y16.8013 
G01 X49.5463 Y16.7660 
G01 X49.5654 Y16.7199 
G01 X49.5654 Y13.6701 
G01 X49.5463 Y13.6240 
G01 X49.5110 Y13.5887 
G01 X49.4649 Y13.5696 
G01 X48.2151 Y13.5696 
G01 X48.1690 Y13.5887 
G01 X48.1337 Y13.6240 
G01 X48.1146 Y13.6701 
G01 X48.1146 Y16.7199 
G01 X48.1337 Y16.7660 
G01 X48.1690 Y16.8013 
G01 X48.2151 Y16.8204 
G01 X48.4648 Y16.8204 
G01 X48.4648 Y16.9668 
G01 X47.4468 Y17.9848 
G01 X40.1832 Y17.9848 
G01 X39.2702 Y17.0718 
G01 X39.2702 Y16.8204 
G01 X39.4649 Y16.8204 
G01 X39.5110 Y16.8013 
G01 X39.5463 Y16.7660 
G01 X39.5654 Y16.7199 
G01 X39.5654 Y13.6701 
G01 X39.5463 Y13.6240 
G01 X39.5110 Y13.5887 
G01 X39.4649 Y13.5696 
G01 X39.1652 Y13.5696 
G01 X39.1652 Y8.7254 
G01 X40.0099 Y8.7254 
G01 X40.0560 Y8.7063 
G01 X40.0913 Y8.6710 
G01 X40.1104 Y8.6249 
G01 X40.1104 Y7.3751 
G01 X40.0913 Y7.3290 
G01 X40.0560 Y7.2937 
G01 X40.0099 Y7.2746 
G01 X37.4601 Y7.2746 
G01 X37.4140 Y7.2937 
G01 X37.3787 Y7.3290 
G01 X37.3596 Y7.3751 
G01 X37.3596 Y7.5698 
G01 X32.4314 Y7.5698 
G01 X32.3219 Y7.5991 
G01 X32.2238 Y7.6558 
G01 X31.4320 Y8.4476 
G01 X30.1886 Y8.4476 
G01 X30.1591 Y8.4598 
G01 X28.8959 Y8.4598 
G01 X28.8664 Y8.4476 
G01 X27.0136 Y8.4476 
G01 X26.9841 Y8.4598 
G01 X25.8302 Y8.4598 
G01 X25.8302 Y7.5634 
G01 X25.8009 Y7.4539 
G01 X25.7554 Y7.3752 
G01 X25.7554 Y7.2951 
G01 X25.7363 Y7.2490 
G01 X25.7010 Y7.2137 
G01 X25.6549 Y7.1946 
G01 X25.4746 Y7.1946 
G01 X25.4566 Y7.1898 
G01 X22.8034 Y7.1898 
G01 X22.6939 Y7.2191 
G01 X22.5958 Y7.2758 
G01 X22.5158 Y7.3559 
G00 Z2.5400 
G00 X22.5158 Y14.3408 
G01 Z-0.2000 F254.00 
G01 X22.4591 Y14.4389 F508.00 
G01 X22.4298 Y14.5484 
G01 X22.4298 Y25.8568 
G01 X19.5068 Y28.7798 
G01 X19.3804 Y28.7798 
G01 X17.7801 Y28.7796 
G01 X17.7438 Y28.7946 
G01 X11.4662 Y28.7946 
G01 X11.4299 Y28.7796 
G01 X9.8301 Y28.7796 
G01 X9.7840 Y28.7987 
G01 X9.7487 Y28.8340 
G01 X9.7296 Y28.8801 
G01 X9.7296 Y30.2299 
G01 X9.7487 Y30.2760 
G01 X9.7840 Y30.3113 
G01 X9.8301 Y30.3304 
G01 X11.4299 Y30.3304 
G01 X11.4662 Y30.3154 
G01 X17.7438 Y30.3154 
G01 X17.7801 Y30.3304 
G01 X19.3799 Y30.3304 
G01 X19.4260 Y30.3113 
G01 X19.4613 Y30.2760 
G01 X19.4804 Y30.2299 
G01 X19.4804 Y29.6402 
G01 X19.7416 Y29.6402 
G01 X19.8511 Y29.6109 
G01 X19.9491 Y29.5542 
G01 X20.0292 Y29.4741 
G01 X23.2042 Y26.2991 
G01 X23.2609 Y26.2010 
G01 X23.2902 Y26.0916 
G01 X23.2902 Y14.7832 
G01 X25.4262 Y12.6472 
G01 X26.9131 Y12.6472 
G01 X26.9131 Y13.0419 
G01 X26.9322 Y13.0880 
G01 X26.9675 Y13.1233 
G01 X27.0136 Y13.1424 
G01 X27.5098 Y13.1424 
G01 X27.5098 Y15.2966 
G01 X27.5391 Y15.4061 
G01 X27.5958 Y15.5041 
G01 X32.6758 Y20.5841 
G01 X32.7559 Y20.6642 
G01 X32.8539 Y20.7209 
G01 X32.9634 Y20.7502 
G01 X36.6518 Y20.7502 
G01 X38.3908 Y22.4891 
G01 X38.4708 Y22.5692 
G01 X38.5689 Y22.6259 
G01 X38.6784 Y22.6552 
G01 X41.7318 Y22.6552 
G01 X42.4323 Y23.3557 
G01 X42.4323 Y26.1894 
G01 X42.4098 Y26.2734 
G01 X42.4098 Y29.9696 
G01 X42.2151 Y29.9696 
G01 X42.1690 Y29.9887 
G01 X42.1337 Y30.0240 
G01 X42.1146 Y30.0701 
G01 X42.1146 Y33.1199 
G01 X42.1337 Y33.1660 
G01 X42.1690 Y33.2013 
G01 X42.2151 Y33.2204 
G01 X42.4098 Y33.2204 
G01 X42.4098 Y34.0066 
G01 X42.4391 Y34.1161 
G01 X42.4958 Y34.2141 
G01 X45.3758 Y37.0941 
G01 X45.4558 Y37.1742 
G01 X45.5539 Y37.2309 
G01 X45.6634 Y37.2602 
G01 X47.4468 Y37.2602 
G01 X48.5508 Y38.3641 
G01 X48.6309 Y38.4442 
G01 X48.7289 Y38.5009 
G01 X48.8384 Y38.5302 
G01 X59.9600 Y38.5302 
G01 X59.9600 Y38.9467 
G01 X59.9791 Y38.9928 
G01 X60.0144 Y39.0281 
G01 X60.0605 Y39.0472 
G01 X61.9103 Y39.0472 
G01 X61.9564 Y39.0281 
G01 X61.9917 Y38.9928 
G01 X62.0108 Y38.9467 
G01 X62.0108 Y36.8969 
G01 X61.9917 Y36.8508 
G01 X61.9564 Y36.8155 
G01 X61.9103 Y36.7964 
G01 X60.0605 Y36.7964 
G01 X60.0144 Y36.8155 
G01 X59.9791 Y36.8508 
G01 X59.9600 Y36.8969 
G01 X59.9600 Y37.6698 
G01 X49.0732 Y37.6698 
G01 X47.8891 Y36.4858 
G01 X47.7910 Y36.4291 
G01 X47.6816 Y36.3998 
G01 X45.8982 Y36.3998 
G01 X43.2702 Y33.7718 
G01 X43.2702 Y33.2204 
G01 X43.4649 Y33.2204 
G01 X43.5110 Y33.2013 
G01 X43.5463 Y33.1660 
G01 X43.5654 Y33.1199 
G01 X43.5654 Y30.0701 
G01 X43.5463 Y30.0240 
G01 X43.5110 Y29.9887 
G01 X43.4649 Y29.9696 
G01 X43.2702 Y29.9696 
G01 X43.2702 Y26.4481 
G01 X43.2927 Y26.3641 
G01 X43.2927 Y23.1209 
G01 X43.2634 Y23.0114 
G01 X43.2067 Y22.9134 
G01 X43.1266 Y22.8333 
G01 X42.1741 Y21.8808 
G01 X42.0761 Y21.8241 
G01 X41.9666 Y21.7948 
G01 X38.9132 Y21.7948 
G01 X37.0941 Y19.9758 
G01 X36.9960 Y19.9191 
G01 X36.8866 Y19.8898 
G01 X33.1982 Y19.8898 
G01 X28.3702 Y15.0618 
G01 X28.3702 Y13.1424 
G01 X28.8664 Y13.1424 
G01 X28.9125 Y13.1233 
G01 X28.9478 Y13.0880 
G01 X28.9669 Y13.0419 
G01 X28.9669 Y11.3921 
G01 X28.9478 Y11.3460 
G01 X28.9125 Y11.3107 
G01 X28.8664 Y11.2916 
G01 X27.0136 Y11.2916 
G01 X26.9675 Y11.3107 
G01 X26.9322 Y11.3460 
G01 X26.9131 Y11.3921 
G01 X26.9131 Y11.7868 
G01 X25.1914 Y11.7868 
G01 X25.0819 Y11.8161 
G01 X24.9839 Y11.8728 
G01 X22.5959 Y14.2608 
G01 X22.5158 Y14.3408 
G00 Z2.5400 
G00 X19.4579 Y14.8010 
G01 Z-0.2000 F254.00 
G01 X19.4748 Y14.8304 F508.00 
G01 X19.4836 Y14.8631 
G01 X19.4836 Y15.1506 
G01 X19.4804 Y15.1506 
G01 X19.4804 Y14.8551 
G01 X19.4613 Y14.8090 
G01 X19.4260 Y14.7737 
G01 X19.3799 Y14.7546 
G01 X18.9594 Y14.7546 
G01 X18.9594 Y14.7514 
G01 X19.3719 Y14.7514 
G01 X19.4046 Y14.7602 
G01 X19.4340 Y14.7771 
G01 X19.4579 Y14.8010 
G00 Z2.5400 
G00 X19.4804 Y15.9094 
G01 Z-0.2000 F254.00 
G01 X19.4836 Y15.9094 F508.00 
G01 X19.4836 Y16.1969 
G01 X19.4748 Y16.2296 
G01 X19.4579 Y16.2590 
G01 X19.4340 Y16.2829 
G01 X19.4046 Y16.2998 
G01 X19.3719 Y16.3086 
G01 X18.9594 Y16.3086 
G01 X18.9594 Y16.3054 
G01 X19.3799 Y16.3054 
G01 X19.4260 Y16.2863 
G01 X19.4613 Y16.2510 
G01 X19.4804 Y16.2049 
G01 X19.4804 Y15.9094 
G00 Z2.5400 
G00 X18.2006 Y16.3054 
G01 Z-0.2000 F254.00 
G01 X18.2006 Y16.3086 F508.00 
G01 X17.7881 Y16.3086 
G01 X17.7554 Y16.2998 
G01 X17.7260 Y16.2829 
G01 X17.7021 Y16.2590 
G01 X17.6852 Y16.2296 
G01 X17.6764 Y16.1969 
G01 X17.6764 Y15.9094 
G01 X17.6796 Y15.9094 
G01 X17.6796 Y16.2049 
G01 X17.6987 Y16.2510 
G01 X17.7340 Y16.2863 
G01 X17.7801 Y16.3054 
G01 X18.2006 Y16.3054 
G00 Z2.5400 
G00 X18.2006 Y14.7546 
G01 Z-0.2000 F254.00 
G01 X17.7801 Y14.7546 F508.00 
G01 X17.7340 Y14.7737 
G01 X17.6987 Y14.8090 
G01 X17.6796 Y14.8551 
G01 X17.6796 Y15.1506 
G01 X17.6764 Y15.1506 
G01 X17.6764 Y14.8631 
G01 X17.6852 Y14.8304 
G01 X17.7021 Y14.8010 
G01 X17.7260 Y14.7771 
G01 X17.7554 Y14.7602 
G01 X17.7881 Y14.7514 
G01 X18.2006 Y14.7514 
G01 X18.2006 Y14.7546 
G00 Z2.5400 
G00 X11.5079 Y14.8010 
G01 Z-0.2000 F254.00 
G01 X11.5248 Y14.8304 F508.00 
G01 X11.5336 Y14.8631 
G01 X11.5336 Y15.1506 
G01 X11.5304 Y15.1506 
G01 X11.5304 Y14.8551 
G01 X11.5113 Y14.8090 
G01 X11.4760 Y14.7737 
G01 X11.4299 Y14.7546 
G01 X11.0094 Y14.7546 
G01 X11.0094 Y14.7514 
G01 X11.4219 Y14.7514 
G01 X11.4546 Y14.7602 
G01 X11.4840 Y14.7771 
G01 X11.5079 Y14.8010 
G00 Z2.5400 
G00 X11.5304 Y15.9094 
G01 Z-0.2000 F254.00 
G01 X11.5336 Y15.9094 F508.00 
G01 X11.5336 Y16.1969 
G01 X11.5248 Y16.2296 
G01 X11.5079 Y16.2590 
G01 X11.4840 Y16.2829 
G01 X11.4546 Y16.2998 
G01 X11.4219 Y16.3086 
G01 X11.0094 Y16.3086 
G01 X11.0094 Y16.3054 
G01 X11.4299 Y16.3054 
G01 X11.4760 Y16.2863 
G01 X11.5113 Y16.2510 
G01 X11.5304 Y16.2049 
G01 X11.5304 Y15.9094 
G00 Z2.5400 
G00 X10.2506 Y16.3054 
G01 Z-0.2000 F254.00 
G01 X10.2506 Y16.3086 F508.00 
G01 X9.8381 Y16.3086 
G01 X9.8054 Y16.2998 
G01 X9.7760 Y16.2829 
G01 X9.7521 Y16.2590 
G01 X9.7352 Y16.2296 
G01 X9.7264 Y16.1969 
G01 X9.7264 Y15.9094 
G01 X9.7296 Y15.9094 
G01 X9.7296 Y16.2049 
G01 X9.7487 Y16.2510 
G01 X9.7840 Y16.2863 
G01 X9.8301 Y16.3054 
G01 X10.2506 Y16.3054 
G00 Z2.5400 
G00 X10.2506 Y14.7546 
G01 Z-0.2000 F254.00 
G01 X9.8301 Y14.7546 F508.00 
G01 X9.7840 Y14.7737 
G01 X9.7487 Y14.8090 
G01 X9.7296 Y14.8551 
G01 X9.7296 Y15.1506 
G01 X9.7264 Y15.1506 
G01 X9.7264 Y14.8631 
G01 X9.7352 Y14.8304 
G01 X9.7521 Y14.8010 
G01 X9.7760 Y14.7771 
G01 X9.8054 Y14.7602 
G01 X9.8381 Y14.7514 
G01 X10.2506 Y14.7514 
G01 X10.2506 Y14.7546 
G00 Z2.5400 
G00 X10.2506 Y24.2764 
G01 Z-0.2000 F254.00 
G01 X10.2506 Y24.2796 F508.00 
G01 X9.8301 Y24.2796 
G01 X9.7840 Y24.2987 
G01 X9.7487 Y24.3340 
G01 X9.7296 Y24.3801 
G01 X9.7296 Y24.6756 
G01 X9.7264 Y24.6756 
G01 X9.7264 Y24.3881 
G01 X9.7352 Y24.3554 
G01 X9.7521 Y24.3260 
G01 X9.7760 Y24.3021 
G01 X9.8054 Y24.2852 
G01 X9.8381 Y24.2764 
G01 X10.2506 Y24.2764 
G00 Z2.5400 
G00 X11.0094 Y24.2764 
G01 Z-0.2000 F254.00 
G01 X11.4219 Y24.2764 F508.00 
G01 X11.4546 Y24.2852 
G01 X11.4710 Y24.2946 
G01 X11.4662 Y24.2946 
G01 X11.4299 Y24.2796 
G01 X11.0094 Y24.2796 
G01 X11.0094 Y24.2764 
G00 Z2.5400 
G00 X11.0094 Y25.8304 
G01 Z-0.2000 F254.00 
G01 X11.4299 Y25.8304 F508.00 
G01 X11.4662 Y25.8154 
G01 X11.4710 Y25.8154 
G01 X11.4546 Y25.8248 
G01 X11.4219 Y25.8336 
G01 X11.0094 Y25.8336 
G01 X11.0094 Y25.8304 
G00 Z2.5400 
G00 X10.2506 Y25.8304 
G01 Z-0.2000 F254.00 
G01 X10.2506 Y25.8336 F508.00 
G01 X9.8381 Y25.8336 
G01 X9.8054 Y25.8248 
G01 X9.7760 Y25.8079 
G01 X9.7521 Y25.7840 
G01 X9.7352 Y25.7546 
G01 X9.7264 Y25.7219 
G01 X9.7264 Y25.4344 
G01 X9.7296 Y25.4344 
G01 X9.7296 Y25.7299 
G01 X9.7487 Y25.7760 
G01 X9.7840 Y25.8113 
G01 X9.8301 Y25.8304 
G01 X10.2506 Y25.8304 
G00 Z2.5400 
G00 X17.7390 Y25.8154 
G01 Z-0.2000 F254.00 
G01 X17.7438 Y25.8154 F508.00 
G01 X17.7801 Y25.8304 
G01 X18.2006 Y25.8304 
G01 X18.2006 Y25.8336 
G01 X17.7881 Y25.8336 
G01 X17.7554 Y25.8248 
G01 X17.7390 Y25.8154 
G00 Z2.5400 
G00 X18.9594 Y25.8304 
G01 Z-0.2000 F254.00 
G01 X19.3799 Y25.8304 F508.00 
G01 X19.4260 Y25.8113 
G01 X19.4613 Y25.7760 
G01 X19.4804 Y25.7299 
G01 X19.4804 Y25.4344 
G01 X19.4836 Y25.4344 
G01 X19.4836 Y25.7219 
G01 X19.4748 Y25.7546 
G01 X19.4579 Y25.7840 
G01 X19.4340 Y25.8079 
G01 X19.4046 Y25.8248 
G01 X19.3719 Y25.8336 
G01 X18.9594 Y25.8336 
G01 X18.9594 Y25.8304 
G00 Z2.5400 
G00 X18.9594 Y24.2796 
G01 Z-0.2000 F254.00 
G01 X18.9594 Y24.2764 F508.00 
G01 X19.3719 Y24.2764 
G01 X19.4046 Y24.2852 
G01 X19.4340 Y24.3021 
G01 X19.4579 Y24.3260 
G01 X19.4748 Y24.3554 
G01 X19.4836 Y24.3881 
G01 X19.4836 Y24.6756 
G01 X19.4804 Y24.6756 
G01 X19.4804 Y24.3801 
G01 X19.4613 Y24.3340 
G01 X19.4260 Y24.2987 
G01 X19.3799 Y24.2796 
G01 X18.9594 Y24.2796 
G00 Z2.5400 
G00 X18.2006 Y24.2796 
G01 Z-0.2000 F254.00 
G01 X17.7801 Y24.2796 F508.00 
G01 X17.7438 Y24.2946 
G01 X17.7390 Y24.2946 
G01 X17.7554 Y24.2852 
G01 X17.7881 Y24.2764 
G01 X18.2006 Y24.2764 
G01 X18.2006 Y24.2796 
G00 Z2.5400 
G00 X16.5636 Y38.7454 
G01 Z-0.2000 F254.00 
G01 X20.2664 Y38.7454 F508.00 
G01 X20.4537 Y38.8230 
G01 X20.5970 Y38.9663 
G01 X20.6746 Y39.1536 
G01 X20.6746 Y40.8564 
G01 X20.5970 Y41.0437 
G01 X20.4537 Y41.1870 
G01 X20.3103 Y41.2464 
G01 X20.2778 Y41.2551 
G01 X20.2643 Y41.2654 
G01 X20.2487 Y41.2719 
G01 X20.2248 Y41.2957 
G01 X20.1981 Y41.3163 
G01 X20.1896 Y41.3309 
G01 X20.1777 Y41.3429 
G01 X20.1648 Y41.3740 
G01 X20.1479 Y41.4032 
G01 X20.1457 Y41.4200 
G01 X20.1392 Y41.4357 
G01 X20.1392 Y41.4694 
G01 X20.1348 Y41.5028 
G01 X20.1392 Y41.5191 
G01 X20.1392 Y41.5361 
G01 X20.1521 Y41.5672 
G01 X20.1608 Y41.5998 
G01 X20.1712 Y41.6132 
G01 X20.1777 Y41.6289 
G01 X20.2015 Y41.6527 
G01 X20.2220 Y41.6794 
G01 X20.2367 Y41.6879 
G01 X20.2487 Y41.6999 
G01 X20.2539 Y41.7021 
G01 X20.2679 Y41.7160 
G01 X20.2848 Y41.7454 
G01 X20.2936 Y41.7781 
G01 X20.2936 Y42.1656 
G01 X20.2904 Y42.1656 
G01 X20.2904 Y41.7701 
G01 X20.2713 Y41.7240 
G01 X20.2360 Y41.6887 
G01 X20.1899 Y41.6696 
G01 X16.6401 Y41.6696 
G01 X16.5940 Y41.6887 
G01 X16.5587 Y41.7240 
G01 X16.5396 Y41.7701 
G01 X16.5396 Y42.1656 
G01 X16.5364 Y42.1656 
G01 X16.5364 Y41.7781 
G01 X16.5452 Y41.7454 
G01 X16.5621 Y41.7160 
G01 X16.5761 Y41.7021 
G01 X16.5813 Y41.6999 
G01 X16.5933 Y41.6879 
G01 X16.6080 Y41.6794 
G01 X16.6285 Y41.6527 
G01 X16.6523 Y41.6289 
G01 X16.6588 Y41.6132 
G01 X16.6692 Y41.5998 
G01 X16.6779 Y41.5672 
G01 X16.6908 Y41.5361 
G01 X16.6908 Y41.5192 
G01 X16.6952 Y41.5028 
G01 X16.6908 Y41.4694 
G01 X16.6908 Y41.4357 
G01 X16.6843 Y41.4200 
G01 X16.6821 Y41.4032 
G01 X16.6652 Y41.3740 
G01 X16.6523 Y41.3429 
G01 X16.6404 Y41.3309 
G01 X16.6319 Y41.3163 
G01 X16.6051 Y41.2957 
G01 X16.5813 Y41.2719 
G01 X16.5657 Y41.2654 
G01 X16.5522 Y41.2551 
G01 X16.5197 Y41.2464 
G01 X16.3788 Y41.1880 
G01 X16.2860 Y41.1496 
G01 X15.0123 Y41.1496 
G01 X14.5916 Y40.9753 
G01 X14.2697 Y40.6534 
G01 X14.0954 Y40.2327 
G01 X14.0954 Y39.7773 
G01 X14.2697 Y39.3566 
G01 X14.5916 Y39.0347 
G01 X15.0123 Y38.8604 
G01 X16.2860 Y38.8604 
G01 X16.5636 Y38.7454 
G00 Z2.5400 
G00 X16.5940 Y39.1487 
G01 Z-0.2000 F254.00 
G01 X16.5587 Y39.1840 F508.00 
G01 X16.5396 Y39.2301 
G01 X16.5396 Y39.2446 
G01 X15.1651 Y39.2446 
G01 X15.0182 Y39.2738 
G01 X14.8798 Y39.3311 
G01 X14.7553 Y39.4144 
G01 X14.6494 Y39.5203 
G01 X14.5661 Y39.6448 
G01 X14.5088 Y39.7832 
G01 X14.4796 Y39.9301 
G01 X14.4796 Y40.0799 
G01 X14.5088 Y40.2268 
G01 X14.5661 Y40.3652 
G01 X14.6494 Y40.4897 
G01 X14.7553 Y40.5956 
G01 X14.8798 Y40.6789 
G01 X15.0182 Y40.7362 
G01 X15.1651 Y40.7654 
G01 X16.5396 Y40.7654 
G01 X16.5396 Y40.7799 
G01 X16.5587 Y40.8260 
G01 X16.5940 Y40.8613 
G01 X16.6401 Y40.8804 
G01 X20.1899 Y40.8804 
G01 X20.2360 Y40.8613 
G01 X20.2713 Y40.8260 
G01 X20.2904 Y40.7799 
G01 X20.2904 Y39.2301 
G01 X20.2713 Y39.1840 
G01 X20.2360 Y39.1487 
G01 X20.1899 Y39.1296 
G01 X16.6401 Y39.1296 
G01 X16.5940 Y39.1487 
G00 Z2.5400 
G00 X16.5396 Y42.9244 
G01 Z-0.2000 F254.00 
G01 X16.5396 Y43.3199 F508.00 
G01 X16.5587 Y43.3660 
G01 X16.5940 Y43.4013 
G01 X16.6401 Y43.4204 
G01 X18.0356 Y43.4204 
G01 X18.0356 Y43.4236 
G01 X16.6481 Y43.4236 
G01 X16.6154 Y43.4148 
G01 X16.5860 Y43.3979 
G01 X16.5621 Y43.3740 
G01 X16.5452 Y43.3446 
G01 X16.5364 Y43.3119 
G01 X16.5364 Y42.9244 
G01 X16.5396 Y42.9244 
G00 Z2.5400 
G00 X18.7944 Y43.4204 
G01 Z-0.2000 F254.00 
G01 X20.1899 Y43.4204 F508.00 
G01 X20.2360 Y43.4013 
G01 X20.2713 Y43.3660 
G01 X20.2904 Y43.3199 
G01 X20.2904 Y42.9244 
G01 X20.2936 Y42.9244 
G01 X20.2936 Y43.3119 
G01 X20.2848 Y43.3446 
G01 X20.2679 Y43.3740 
G01 X20.2440 Y43.3979 
G01 X20.2146 Y43.4148 
G01 X20.1819 Y43.4236 
G01 X18.7944 Y43.4236 
G01 X18.7944 Y43.4204 
G00 Z2.5400 
G00 X21.6196 Y43.0401 
G01 Z-0.2000 F254.00 
G01 X21.6196 Y44.5899 F508.00 
G01 X21.6387 Y44.6360 
G01 X21.6740 Y44.6713 
G01 X21.7201 Y44.6904 
G01 X25.2699 Y44.6904 
G01 X25.3160 Y44.6713 
G01 X25.3513 Y44.6360 
G01 X25.3704 Y44.5899 
G01 X25.3704 Y44.2452 
G01 X26.7266 Y44.2452 
G01 X26.8361 Y44.2159 
G01 X26.9341 Y44.1592 
G01 X27.0142 Y44.0791 
G01 X28.7532 Y42.3402 
G01 X83.2416 Y42.3402 
G01 X83.3511 Y42.3109 
G01 X83.4491 Y42.2542 
G01 X83.5292 Y42.1741 
G01 X84.7992 Y40.9041 
G01 X84.8559 Y40.8060 
G01 X84.8852 Y40.6966 
G01 X84.8852 Y37.4084 
G01 X84.8559 Y37.2989 
G01 X84.7992 Y37.2009 
G01 X84.7191 Y37.1208 
G01 X84.0841 Y36.4858 
G01 X83.9861 Y36.4291 
G01 X83.8766 Y36.3998 
G01 X82.5204 Y36.3998 
G01 X82.5204 Y36.0551 
G01 X82.5013 Y36.0090 
G01 X82.4660 Y35.9737 
G01 X82.4199 Y35.9546 
G01 X78.8701 Y35.9546 
G01 X78.8240 Y35.9737 
G01 X78.7887 Y36.0090 
G01 X78.7696 Y36.0551 
G01 X78.7696 Y37.6049 
G01 X78.7887 Y37.6510 
G01 X78.8240 Y37.6863 
G01 X78.8701 Y37.7054 
G01 X82.4199 Y37.7054 
G01 X82.4660 Y37.6863 
G01 X82.5013 Y37.6510 
G01 X82.5204 Y37.6049 
G01 X82.5204 Y37.2602 
G01 X83.6418 Y37.2602 
G01 X84.0248 Y37.6432 
G01 X84.0248 Y40.4618 
G01 X83.0068 Y41.4798 
G01 X37.2602 Y41.4798 
G01 X37.2602 Y33.2204 
G01 X37.4649 Y33.2204 
G01 X37.5110 Y33.2013 
G01 X37.5463 Y33.1660 
G01 X37.5654 Y33.1199 
G01 X37.5654 Y30.0701 
G01 X37.5463 Y30.0240 
G01 X37.5110 Y29.9887 
G01 X37.4649 Y29.9696 
G01 X36.2151 Y29.9696 
G01 X36.1690 Y29.9887 
G01 X36.1337 Y30.0240 
G01 X36.1146 Y30.0701 
G01 X36.1146 Y33.1199 
G01 X36.1337 Y33.1660 
G01 X36.1690 Y33.2013 
G01 X36.2151 Y33.2204 
G01 X36.3998 Y33.2204 
G01 X36.3998 Y41.4798 
G01 X28.5184 Y41.4798 
G01 X28.4089 Y41.5091 
G01 X28.3108 Y41.5658 
G01 X26.4918 Y43.3848 
G01 X25.3704 Y43.3848 
G01 X25.3704 Y43.0401 
G01 X25.3513 Y42.9940 
G01 X25.3160 Y42.9587 
G01 X25.2699 Y42.9396 
G01 X21.7201 Y42.9396 
G01 X21.6740 Y42.9587 
G01 X21.6387 Y42.9940 
G01 X21.6196 Y43.0401 
G00 Z2.5400 
G00 X21.6740 Y42.1313 
G01 Z-0.2000 F254.00 
G01 X21.7201 Y42.1504 F508.00 
G01 X25.2699 Y42.1504 
G01 X25.3160 Y42.1313 
G01 X25.3513 Y42.0960 
G01 X25.3704 Y42.0499 
G01 X25.3704 Y41.7052 
G01 X26.7266 Y41.7052 
G01 X26.8361 Y41.6759 
G01 X26.9341 Y41.6192 
G01 X28.7532 Y39.8002 
G01 X30.0896 Y39.8002 
G01 X30.0896 Y40.6239 
G01 X30.1087 Y40.6700 
G01 X30.1440 Y40.7053 
G01 X30.1901 Y40.7244 
G01 X32.0399 Y40.7244 
G01 X32.0860 Y40.7053 
G01 X32.1213 Y40.6700 
G01 X32.1404 Y40.6239 
G01 X32.1404 Y39.1820 
G01 X35.1041 Y36.2182 
G01 X35.1842 Y36.1381 
G01 X35.2409 Y36.0401 
G01 X35.2702 Y35.9306 
G01 X35.2702 Y33.2204 
G01 X35.4649 Y33.2204 
G01 X35.5110 Y33.2013 
G01 X35.5463 Y33.1660 
G01 X35.5654 Y33.1199 
G01 X35.5654 Y30.0701 
G01 X35.5463 Y30.0240 
G01 X35.5110 Y29.9887 
G01 X35.4649 Y29.9696 
G01 X34.2151 Y29.9696 
G01 X34.1690 Y29.9887 
G01 X34.1337 Y30.0240 
G01 X34.1146 Y30.0701 
G01 X34.1146 Y33.1199 
G01 X34.1337 Y33.1660 
G01 X34.1690 Y33.2013 
G01 X34.2151 Y33.2204 
G01 X34.4098 Y33.2204 
G01 X34.4098 Y35.6958 
G01 X31.6320 Y38.4736 
G01 X30.1901 Y38.4736 
G01 X30.1440 Y38.4927 
G01 X30.1087 Y38.5280 
G01 X30.0896 Y38.5741 
G01 X30.0896 Y38.9398 
G01 X28.5184 Y38.9398 
G01 X28.4089 Y38.9691 
G01 X28.3108 Y39.0258 
G01 X28.2308 Y39.1058 
G01 X26.4918 Y40.8448 
G01 X25.3704 Y40.8448 
G01 X25.3704 Y40.5001 
G01 X25.3513 Y40.4540 
G01 X25.3160 Y40.4187 
G01 X25.2699 Y40.3996 
G01 X21.7201 Y40.3996 
G01 X21.6740 Y40.4187 
G01 X21.6387 Y40.4540 
G01 X21.6196 Y40.5001 
G01 X21.6196 Y42.0499 
G01 X21.6387 Y42.0960 
G01 X21.6740 Y42.1313 
G00 Z2.5400 
G00 X30.1087 Y43.1500 
G01 Z-0.2000 F254.00 
G01 X30.0896 Y43.1961 F508.00 
G01 X30.0896 Y45.2459 
G01 X30.1087 Y45.2920 
G01 X30.1440 Y45.3273 
G01 X30.1901 Y45.3464 
G01 X32.0399 Y45.3464 
G01 X32.0860 Y45.3273 
G01 X32.1213 Y45.2920 
G01 X32.1404 Y45.2459 
G01 X32.1404 Y44.8802 
G01 X83.8766 Y44.8802 
G01 X83.9861 Y44.8509 
G01 X84.0841 Y44.7942 
G01 X87.3392 Y41.5391 
G01 X87.3959 Y41.4410 
G01 X87.4252 Y41.3316 
G01 X87.4252 Y36.1384 
G01 X87.3959 Y36.0289 
G01 X87.3392 Y35.9308 
G01 X87.2591 Y35.8508 
G01 X85.3541 Y33.9458 
G01 X85.2561 Y33.8891 
G01 X85.1466 Y33.8598 
G01 X82.5204 Y33.8598 
G01 X82.5204 Y33.5151 
G01 X82.5013 Y33.4690 
G01 X82.4660 Y33.4337 
G01 X82.4199 Y33.4146 
G01 X78.8701 Y33.4146 
G01 X78.8240 Y33.4337 
G01 X78.7887 Y33.4690 
G01 X78.7696 Y33.5151 
G01 X78.7696 Y35.0649 
G01 X78.7887 Y35.1110 
G01 X78.8240 Y35.1463 
G01 X78.8701 Y35.1654 
G01 X82.4199 Y35.1654 
G01 X82.4660 Y35.1463 
G01 X82.5013 Y35.1110 
G01 X82.5204 Y35.0649 
G01 X82.5204 Y34.7202 
G01 X84.9118 Y34.7202 
G01 X86.5648 Y36.3732 
G01 X86.5648 Y41.0968 
G01 X83.6418 Y44.0198 
G01 X32.1404 Y44.0198 
G01 X32.1404 Y43.1961 
G01 X32.1213 Y43.1500 
G01 X32.0860 Y43.1147 
G01 X32.0399 Y43.0956 
G01 X30.1901 Y43.0956 
G01 X30.1440 Y43.1147 
G01 X30.1087 Y43.1500 
G00 Z2.5400 
G00 X39.7409 Y40.3492 
G01 Z-0.2000 F254.00 
G01 X39.8389 Y40.4059 F508.00 
G01 X39.9484 Y40.4352 
G01 X44.0071 Y40.4352 
G01 X44.0071 Y40.6649 
G01 X44.0262 Y40.7110 
G01 X44.0615 Y40.7463 
G01 X44.1076 Y40.7654 
G01 X46.6974 Y40.7654 
G01 X46.7435 Y40.7463 
G01 X46.7788 Y40.7110 
G01 X46.7979 Y40.6649 
G01 X46.7979 Y39.3451 
G01 X46.7788 Y39.2990 
G01 X46.7435 Y39.2637 
G01 X46.6974 Y39.2446 
G01 X44.1076 Y39.2446 
G01 X44.0615 Y39.2637 
G01 X44.0262 Y39.2990 
G01 X44.0071 Y39.3451 
G01 X44.0071 Y39.5748 
G01 X40.1832 Y39.5748 
G01 X39.2702 Y38.6618 
G01 X39.2702 Y33.2204 
G01 X39.4649 Y33.2204 
G01 X39.5110 Y33.2013 
G01 X39.5463 Y33.1660 
G01 X39.5654 Y33.1199 
G01 X39.5654 Y30.0701 
G01 X39.5463 Y30.0240 
G01 X39.5110 Y29.9887 
G01 X39.4649 Y29.9696 
G01 X38.2151 Y29.9696 
G01 X38.1690 Y29.9887 
G01 X38.1337 Y30.0240 
G01 X38.1146 Y30.0701 
G01 X38.1146 Y33.1199 
G01 X38.1337 Y33.1660 
G01 X38.1690 Y33.2013 
G01 X38.2151 Y33.2204 
G01 X38.4098 Y33.2204 
G01 X38.4098 Y38.8966 
G01 X38.4391 Y39.0061 
G01 X38.4958 Y39.1041 
G01 X39.6608 Y40.2691 
G01 X39.7409 Y40.3492 
G00 Z2.5400 
G00 X40.5690 Y38.2063 
G01 Z-0.2000 F254.00 
G01 X40.6151 Y38.2254 F508.00 
G01 X43.2049 Y38.2254 
G01 X43.2510 Y38.2063 
G01 X43.2863 Y38.1710 
G01 X43.3054 Y38.1249 
G01 X43.3054 Y36.8051 
G01 X43.2863 Y36.7590 
G01 X43.2510 Y36.7237 
G01 X43.2049 Y36.7046 
G01 X41.2702 Y36.7046 
G01 X41.2702 Y33.2204 
G01 X41.4649 Y33.2204 
G01 X41.5110 Y33.2013 
G01 X41.5463 Y33.1660 
G01 X41.5654 Y33.1199 
G01 X41.5654 Y30.0701 
G01 X41.5463 Y30.0240 
G01 X41.5110 Y29.9887 
G01 X41.4649 Y29.9696 
G01 X40.2151 Y29.9696 
G01 X40.1690 Y29.9887 
G01 X40.1337 Y30.0240 
G01 X40.1146 Y30.0701 
G01 X40.1146 Y33.1199 
G01 X40.1337 Y33.1660 
G01 X40.1690 Y33.2013 
G01 X40.2151 Y33.2204 
G01 X40.4098 Y33.2204 
G01 X40.4098 Y37.0866 
G01 X40.4391 Y37.1960 
G01 X40.4958 Y37.2941 
G01 X40.5146 Y37.3130 
G01 X40.5146 Y38.1249 
G01 X40.5337 Y38.1710 
G01 X40.5690 Y38.2063 
G00 Z2.5400 
G00 X46.7259 Y35.9042 
G01 Z-0.2000 F254.00 
G01 X46.8239 Y35.9609 F508.00 
G01 X46.9334 Y35.9902 
G01 X73.6896 Y35.9902 
G01 X73.6896 Y36.3349 
G01 X73.7087 Y36.3810 
G01 X73.7440 Y36.4163 
G01 X73.7901 Y36.4354 
G01 X77.3399 Y36.4354 
G01 X77.3860 Y36.4163 
G01 X77.4213 Y36.3810 
G01 X77.4404 Y36.3349 
G01 X77.4404 Y34.7851 
G01 X77.4213 Y34.7390 
G01 X77.3860 Y34.7037 
G01 X77.3399 Y34.6846 
G01 X73.7901 Y34.6846 
G01 X73.7440 Y34.7037 
G01 X73.7087 Y34.7390 
G01 X73.6896 Y34.7851 
G01 X73.6896 Y35.1298 
G01 X47.1682 Y35.1298 
G01 X45.5152 Y33.4768 
G01 X45.5152 Y33.1971 
G01 X45.5463 Y33.1660 
G01 X45.5654 Y33.1199 
G01 X45.5654 Y30.0701 
G01 X45.5463 Y30.0240 
G01 X45.5152 Y29.9929 
G01 X45.5152 Y21.5334 
G01 X45.4859 Y21.4239 
G01 X45.4292 Y21.3258 
G01 X44.0791 Y19.9758 
G01 X43.9811 Y19.9191 
G01 X43.8716 Y19.8898 
G01 X39.5482 Y19.8898 
G01 X37.7291 Y18.0708 
G01 X37.6311 Y18.0141 
G01 X37.5216 Y17.9848 
G01 X33.8332 Y17.9848 
G01 X31.5452 Y15.6968 
G01 X31.5452 Y13.1424 
G01 X32.0414 Y13.1424 
G01 X32.0875 Y13.1233 
G01 X32.1228 Y13.0880 
G01 X32.1419 Y13.0419 
G01 X32.1419 Y11.3921 
G01 X32.1228 Y11.3460 
G01 X32.0875 Y11.3107 
G01 X32.0414 Y11.2916 
G01 X30.1886 Y11.2916 
G01 X30.1425 Y11.3107 
G01 X30.1072 Y11.3460 
G01 X30.0881 Y11.3921 
G01 X30.0881 Y13.0419 
G01 X30.1072 Y13.0880 
G01 X30.1425 Y13.1233 
G01 X30.1886 Y13.1424 
G01 X30.6848 Y13.1424 
G01 X30.6848 Y15.9316 
G01 X30.7141 Y16.0410 
G01 X30.7708 Y16.1391 
G01 X33.3108 Y18.6791 
G01 X33.3909 Y18.7592 
G01 X33.4889 Y18.8159 
G01 X33.5984 Y18.8452 
G01 X37.2868 Y18.8452 
G01 X39.0258 Y20.5841 
G01 X39.1058 Y20.6642 
G01 X39.2039 Y20.7209 
G01 X39.3134 Y20.7502 
G01 X43.6368 Y20.7502 
G01 X44.6548 Y21.7682 
G01 X44.6548 Y29.9696 
G01 X44.2151 Y29.9696 
G01 X44.1690 Y29.9887 
G01 X44.1337 Y30.0240 
G01 X44.1146 Y30.0701 
G01 X44.1146 Y33.1199 
G01 X44.1337 Y33.1660 
G01 X44.1690 Y33.2013 
G01 X44.2151 Y33.2204 
G01 X44.6548 Y33.2204 
G01 X44.6548 Y33.7116 
G01 X44.6841 Y33.8210 
G01 X44.7408 Y33.9191 
G01 X46.6458 Y35.8241 
G01 X46.7259 Y35.9042 
G00 Z2.5400 
G00 X47.3608 Y34.6342 
G01 Z-0.2000 F254.00 
G01 X47.4589 Y34.6909 F508.00 
G01 X47.5684 Y34.7202 
G01 X55.3016 Y34.7202 
G01 X55.4111 Y34.6909 
G01 X55.5091 Y34.6342 
G01 X56.7791 Y33.3642 
G01 X56.8592 Y33.2841 
G01 X56.9159 Y33.1861 
G01 X56.9452 Y33.0766 
G01 X56.9452 Y30.2752 
G01 X58.0281 Y30.2752 
G01 X58.0281 Y30.8219 
G01 X58.0472 Y30.8680 
G01 X58.0825 Y30.9033 
G01 X58.1286 Y30.9224 
G01 X59.9814 Y30.9224 
G01 X60.0275 Y30.9033 
G01 X60.0628 Y30.8680 
G01 X60.0819 Y30.8219 
G01 X60.0819 Y30.4272 
G01 X73.6896 Y30.4272 
G01 X73.6896 Y31.2549 
G01 X73.7087 Y31.3010 
G01 X73.7440 Y31.3363 
G01 X73.7901 Y31.3554 
G01 X77.3399 Y31.3554 
G01 X77.3860 Y31.3363 
G01 X77.4213 Y31.3010 
G01 X77.4404 Y31.2549 
G01 X77.4404 Y29.7051 
G01 X77.4213 Y29.6590 
G01 X77.3860 Y29.6237 
G01 X77.3399 Y29.6046 
G01 X75.2627 Y29.6046 
G01 X75.2481 Y29.5961 
G01 X75.1386 Y29.5668 
G01 X60.0819 Y29.5668 
G01 X60.0819 Y29.1721 
G01 X60.0628 Y29.1260 
G01 X60.0275 Y29.0907 
G01 X59.9814 Y29.0716 
G01 X58.1286 Y29.0716 
G01 X58.0825 Y29.0907 
G01 X58.0472 Y29.1260 
G01 X58.0281 Y29.1721 
G01 X58.0281 Y29.4148 
G01 X56.4584 Y29.4148 
G01 X56.3489 Y29.4441 
G01 X56.2508 Y29.5008 
G01 X56.1708 Y29.5809 
G01 X56.1141 Y29.6789 
G01 X56.0848 Y29.7884 
G01 X56.0848 Y32.8418 
G01 X55.0668 Y33.8598 
G01 X47.8032 Y33.8598 
G01 X47.2702 Y33.3268 
G01 X47.2702 Y33.2204 
G01 X47.4649 Y33.2204 
G01 X47.5110 Y33.2013 
G01 X47.5463 Y33.1660 
G01 X47.5654 Y33.1199 
G01 X47.5654 Y30.0701 
G01 X47.5463 Y30.0240 
G01 X47.5110 Y29.9887 
G01 X47.4649 Y29.9696 
G01 X46.2151 Y29.9696 
G01 X46.1690 Y29.9887 
G01 X46.1337 Y30.0240 
G01 X46.1146 Y30.0701 
G01 X46.1146 Y33.1199 
G01 X46.1337 Y33.1660 
G01 X46.1690 Y33.2013 
G01 X46.2151 Y33.2204 
G01 X46.4098 Y33.2204 
G01 X46.4098 Y33.5616 
G01 X46.4391 Y33.6711 
G01 X46.4958 Y33.7691 
G01 X47.2808 Y34.5541 
G01 X47.3608 Y34.6342 
G00 Z2.5400 
G00 X48.1690 Y33.2013 
G01 Z-0.2000 F254.00 
G01 X48.2151 Y33.2204 F508.00 
G01 X49.4649 Y33.2204 
G01 X49.5110 Y33.2013 
G01 X49.5463 Y33.1660 
G01 X49.5654 Y33.1199 
G01 X49.5654 Y31.9744 
G01 X49.5686 Y31.9744 
G01 X49.5686 Y33.1119 
G01 X49.5606 Y33.1419 
G01 X49.5477 Y33.1730 
G01 X49.5477 Y33.1900 
G01 X49.5433 Y33.2064 
G01 X49.5477 Y33.2397 
G01 X49.5477 Y33.2734 
G01 X49.5542 Y33.2891 
G01 X49.5564 Y33.3059 
G01 X49.5732 Y33.3351 
G01 X49.5861 Y33.3662 
G01 X49.5981 Y33.3782 
G01 X49.6066 Y33.3929 
G01 X49.6333 Y33.4134 
G01 X49.6571 Y33.4372 
G01 X49.6728 Y33.4437 
G01 X49.6863 Y33.4540 
G01 X49.7188 Y33.4627 
G01 X49.7499 Y33.4756 
G01 X49.7669 Y33.4756 
G01 X49.7832 Y33.4800 
G01 X49.8166 Y33.4756 
G01 X54.8533 Y33.4756 
G01 X54.9461 Y33.4372 
G01 X55.5912 Y32.7921 
G01 X55.6622 Y32.7211 
G01 X55.7006 Y32.6283 
G01 X55.7006 Y29.6830 
G01 X55.8246 Y29.3837 
G01 X56.0537 Y29.1546 
G01 X56.3530 Y29.0306 
G01 X57.5524 Y29.0306 
G01 X57.6452 Y28.9922 
G01 X57.7162 Y28.9212 
G01 X57.7174 Y28.9183 
G01 X57.7215 Y28.9083 
G01 X57.8648 Y28.7650 
G01 X58.0521 Y28.6874 
G01 X60.0579 Y28.6874 
G01 X60.2452 Y28.7650 
G01 X60.3885 Y28.9083 
G01 X60.4184 Y28.9804 
G01 X60.4568 Y29.0732 
G01 X60.5278 Y29.1442 
G01 X60.6206 Y29.1826 
G01 X62.0674 Y29.1826 
G01 X62.1601 Y29.1442 
G01 X62.2311 Y29.0732 
G01 X62.2322 Y29.0705 
G01 X62.2696 Y28.9804 
G01 X62.2696 Y28.8800 
G01 X62.2596 Y28.8559 
G01 X62.2311 Y28.7872 
G01 X62.1904 Y28.6889 
G01 X62.1904 Y27.1861 
G01 X62.2680 Y26.9988 
G01 X62.4113 Y26.8555 
G01 X62.4158 Y26.8536 
G01 X62.4620 Y26.8345 
G01 X62.5330 Y26.7635 
G01 X62.5559 Y26.7081 
G01 X62.5714 Y26.6707 
G01 X62.5714 Y26.4169 
G01 X62.5746 Y26.4169 
G01 X62.5746 Y26.7124 
G01 X62.5937 Y26.7585 
G01 X62.6290 Y26.7938 
G01 X62.6751 Y26.8129 
G01 X64.3249 Y26.8129 
G01 X64.3710 Y26.7938 
G01 X64.4063 Y26.7585 
G01 X64.4254 Y26.7124 
G01 X64.4254 Y26.4169 
G01 X64.4286 Y26.4169 
G01 X64.4286 Y26.6707 
G01 X64.4450 Y26.7103 
G01 X64.4670 Y26.7635 
G01 X64.5380 Y26.8345 
G01 X64.5861 Y26.8544 
G01 X64.5887 Y26.8555 
G01 X64.7320 Y26.9988 
G01 X64.7392 Y27.0162 
G01 X64.7651 Y27.0421 
G01 X64.8102 Y27.0872 
G01 X64.8341 Y27.0971 
G01 X64.9029 Y27.1256 
G01 X64.9340 Y27.1256 
G01 X65.0034 Y27.1256 
G01 X68.6194 Y27.1256 
G01 X68.7121 Y27.0872 
G01 X68.9263 Y26.8730 
G01 X69.1136 Y26.7954 
G01 X71.8564 Y26.7954 
G01 X72.0437 Y26.8730 
G01 X72.1869 Y27.0162 
G01 X72.2579 Y27.0872 
G01 X72.3506 Y27.1256 
G01 X73.1716 Y27.1256 
G01 X73.2618 Y27.0883 
G01 X73.2644 Y27.0872 
G01 X73.3354 Y27.0162 
G01 X73.3830 Y26.9013 
G01 X73.4003 Y26.8840 
G01 X73.4713 Y26.8130 
G01 X73.4943 Y26.7575 
G01 X73.5098 Y26.7202 
G01 X73.5098 Y26.6198 
G01 X73.4869 Y26.5647 
G01 X73.4713 Y26.5270 
G01 X73.3830 Y26.4387 
G01 X73.3738 Y26.4166 
G01 X73.3354 Y26.3238 
G01 X73.2644 Y26.2528 
G01 X73.1716 Y26.2144 
G01 X69.6880 Y26.2144 
G01 X69.3887 Y26.0904 
G01 X69.1596 Y25.8613 
G01 X64.0796 Y20.7813 
G01 X63.9556 Y20.4820 
G01 X63.9556 Y14.9967 
G01 X63.9172 Y14.9039 
G01 X61.3671 Y12.3538 
G01 X61.2961 Y12.2828 
G01 X61.2033 Y12.2444 
G01 X48.6517 Y12.2444 
G01 X48.5615 Y12.2817 
G01 X48.5589 Y12.2828 
G01 X48.1227 Y12.7190 
G01 X48.0517 Y12.7900 
G01 X48.0133 Y12.8828 
G01 X48.0133 Y12.9832 
G01 X48.0517 Y13.0760 
G01 X48.1227 Y13.1470 
G01 X48.2155 Y13.1854 
G01 X49.5414 Y13.1854 
G01 X49.7287 Y13.2630 
G01 X49.8720 Y13.4063 
G01 X49.9496 Y13.5936 
G01 X49.9496 Y16.7964 
G01 X49.8720 Y16.9837 
G01 X49.8188 Y17.0369 
G01 X49.7478 Y17.1079 
G01 X49.7094 Y17.2006 
G01 X49.7094 Y17.3832 
G01 X49.7478 Y17.4760 
G01 X49.8188 Y17.5470 
G01 X49.9116 Y17.5854 
G01 X52.5414 Y17.5854 
G01 X52.7287 Y17.6630 
G01 X52.8720 Y17.8063 
G01 X52.9496 Y17.9936 
G01 X52.9496 Y19.3964 
G01 X52.8467 Y19.6448 
G01 X52.8467 Y19.7452 
G01 X52.8851 Y19.8380 
G01 X52.9496 Y19.9936 
G01 X52.9496 Y21.3964 
G01 X52.8851 Y21.5520 
G01 X52.8749 Y21.5766 
G01 X52.8467 Y21.6448 
G01 X52.8467 Y21.7452 
G01 X52.9496 Y21.9936 
G01 X52.9496 Y23.3964 
G01 X52.8467 Y23.6448 
G01 X52.8467 Y23.7452 
G01 X52.8766 Y23.8174 
G01 X52.8851 Y23.8380 
G01 X52.9496 Y23.9936 
G01 X52.9496 Y25.3964 
G01 X52.8467 Y25.6448 
G01 X52.8467 Y25.7452 
G01 X52.8766 Y25.8174 
G01 X52.8851 Y25.8380 
G01 X52.9496 Y25.9936 
G01 X52.9496 Y27.3964 
G01 X52.8467 Y27.6448 
G01 X52.8467 Y27.7452 
G01 X52.8766 Y27.8174 
G01 X52.8851 Y27.8380 
G01 X52.9496 Y27.9936 
G01 X52.9496 Y29.3964 
G01 X52.8720 Y29.5837 
G01 X52.7287 Y29.7270 
G01 X52.5414 Y29.8046 
G01 X49.7708 Y29.8046 
G01 X49.6807 Y29.8419 
G01 X49.6780 Y29.8430 
G01 X49.6070 Y29.9140 
G01 X49.5686 Y30.0068 
G01 X49.5686 Y31.2156 
G01 X49.5654 Y31.2156 
G01 X49.5654 Y30.0701 
G01 X49.5463 Y30.0240 
G01 X49.5110 Y29.9887 
G01 X49.4649 Y29.9696 
G01 X49.2194 Y29.9696 
G01 X49.2194 Y29.8494 
G01 X49.1810 Y29.7566 
G01 X49.1100 Y29.6856 
G01 X49.0080 Y29.5837 
G01 X48.9304 Y29.3964 
G01 X48.9304 Y27.9936 
G01 X48.9949 Y27.8380 
G01 X49.0051 Y27.8134 
G01 X49.0333 Y27.7452 
G01 X49.0333 Y27.6448 
G01 X48.9304 Y27.3964 
G01 X48.9304 Y25.9936 
G01 X48.9949 Y25.8380 
G01 X49.0051 Y25.8134 
G01 X49.0333 Y25.7452 
G01 X49.0333 Y25.6448 
G01 X48.9304 Y25.3964 
G01 X48.9304 Y23.9936 
G01 X48.9949 Y23.8380 
G01 X49.0051 Y23.8134 
G01 X49.0333 Y23.7452 
G01 X49.0333 Y23.6448 
G01 X48.9304 Y23.3964 
G01 X48.9304 Y21.9936 
G01 X49.0333 Y21.7452 
G01 X49.0333 Y21.6448 
G01 X49.0034 Y21.5726 
G01 X48.9949 Y21.5520 
G01 X48.9304 Y21.3964 
G01 X48.9304 Y19.9936 
G01 X48.9949 Y19.8380 
G01 X49.0051 Y19.8134 
G01 X49.0333 Y19.7452 
G01 X49.0333 Y19.6448 
G01 X48.9304 Y19.3964 
G01 X48.9304 Y18.8205 
G01 X48.8920 Y18.7277 
G01 X48.8210 Y18.6567 
G01 X48.8183 Y18.6556 
G01 X48.7282 Y18.6183 
G01 X48.6278 Y18.6183 
G01 X48.5350 Y18.6567 
G01 X48.5270 Y18.6647 
G01 X48.4640 Y18.7277 
G01 X48.0863 Y19.1054 
G01 X47.7870 Y19.2294 
G01 X44.4353 Y19.2294 
G01 X44.3425 Y19.2678 
G01 X44.2715 Y19.3388 
G01 X44.2704 Y19.3415 
G01 X44.2331 Y19.4316 
G01 X44.2331 Y19.5320 
G01 X44.2715 Y19.6248 
G01 X44.2958 Y19.6490 
G01 X44.3425 Y19.6958 
G01 X45.7754 Y21.1287 
G01 X45.8994 Y21.4280 
G01 X45.8994 Y29.3832 
G01 X45.9378 Y29.4760 
G01 X46.0088 Y29.5470 
G01 X46.1016 Y29.5854 
G01 X47.5414 Y29.5854 
G01 X47.7287 Y29.6630 
G01 X47.8720 Y29.8063 
G01 X47.8757 Y29.8153 
G01 X47.8844 Y29.8478 
G01 X47.8948 Y29.8613 
G01 X47.9013 Y29.8770 
G01 X47.9251 Y29.9007 
G01 X47.9456 Y29.9275 
G01 X47.9603 Y29.9360 
G01 X47.9723 Y29.9480 
G01 X48.0034 Y29.9608 
G01 X48.0325 Y29.9777 
G01 X48.0493 Y29.9799 
G01 X48.0650 Y29.9864 
G01 X48.0987 Y29.9864 
G01 X48.1321 Y29.9908 
G01 X48.1485 Y29.9864 
G01 X48.1654 Y29.9864 
G01 X48.1965 Y29.9735 
G01 X48.2231 Y29.9664 
G01 X48.4606 Y29.9664 
G01 X48.4606 Y29.9696 
G01 X48.2151 Y29.9696 
G01 X48.1690 Y29.9887 
G01 X48.1337 Y30.0240 
G01 X48.1146 Y30.0701 
G01 X48.1146 Y33.1199 
G01 X48.1337 Y33.1660 
G01 X48.1690 Y33.2013 
G00 Z2.5400 
G00 X49.3690 Y29.4013 
G01 Z-0.2000 F254.00 
G01 X49.4151 Y29.4204 F508.00 
G01 X52.4649 Y29.4204 
G01 X52.5110 Y29.4013 
G01 X52.5463 Y29.3660 
G01 X52.5654 Y29.3199 
G01 X52.5654 Y28.0701 
G01 X52.5463 Y28.0240 
G01 X52.5110 Y27.9887 
G01 X52.4649 Y27.9696 
G01 X49.4151 Y27.9696 
G01 X49.3690 Y27.9887 
G01 X49.3337 Y28.0240 
G01 X49.3146 Y28.0701 
G01 X49.3146 Y29.3199 
G01 X49.3337 Y29.3660 
G01 X49.3690 Y29.4013 
G00 Z2.5400 
G00 X49.3690 Y27.4013 
G01 Z-0.2000 F254.00 
G01 X49.4151 Y27.4204 F508.00 
G01 X52.4649 Y27.4204 
G01 X52.5110 Y27.4013 
G01 X52.5463 Y27.3660 
G01 X52.5654 Y27.3199 
G01 X52.5654 Y26.0701 
G01 X52.5463 Y26.0240 
G01 X52.5110 Y25.9887 
G01 X52.4649 Y25.9696 
G01 X49.4151 Y25.9696 
G01 X49.3690 Y25.9887 
G01 X49.3337 Y26.0240 
G01 X49.3146 Y26.0701 
G01 X49.3146 Y27.3199 
G01 X49.3337 Y27.3660 
G01 X49.3690 Y27.4013 
G00 Z2.5400 
G00 X49.3690 Y25.4013 
G01 Z-0.2000 F254.00 
G01 X49.4151 Y25.4204 F508.00 
G01 X52.4649 Y25.4204 
G01 X52.5110 Y25.4013 
G01 X52.5463 Y25.3660 
G01 X52.5654 Y25.3199 
G01 X52.5654 Y24.0701 
G01 X52.5463 Y24.0240 
G01 X52.5110 Y23.9887 
G01 X52.4649 Y23.9696 
G01 X49.4151 Y23.9696 
G01 X49.3690 Y23.9887 
G01 X49.3337 Y24.0240 
G01 X49.3146 Y24.0701 
G01 X49.3146 Y25.3199 
G01 X49.3337 Y25.3660 
G01 X49.3690 Y25.4013 
G00 Z2.5400 
G00 X49.3690 Y23.4013 
G01 Z-0.2000 F254.00 
G01 X49.4151 Y23.4204 F508.00 
G01 X52.4649 Y23.4204 
G01 X52.5110 Y23.4013 
G01 X52.5463 Y23.3660 
G01 X52.5654 Y23.3199 
G01 X52.5654 Y22.0701 
G01 X52.5463 Y22.0240 
G01 X52.5110 Y21.9887 
G01 X52.4649 Y21.9696 
G01 X49.4151 Y21.9696 
G01 X49.3690 Y21.9887 
G01 X49.3337 Y22.0240 
G01 X49.3146 Y22.0701 
G01 X49.3146 Y23.3199 
G01 X49.3337 Y23.3660 
G01 X49.3690 Y23.4013 
G00 Z2.5400 
G00 X49.3690 Y21.4013 
G01 Z-0.2000 F254.00 
G01 X49.4151 Y21.4204 F508.00 
G01 X52.4649 Y21.4204 
G01 X52.5110 Y21.4013 
G01 X52.5463 Y21.3660 
G01 X52.5654 Y21.3199 
G01 X52.5654 Y20.0701 
G01 X52.5463 Y20.0240 
G01 X52.5110 Y19.9887 
G01 X52.4649 Y19.9696 
G01 X49.4151 Y19.9696 
G01 X49.3690 Y19.9887 
G01 X49.3337 Y20.0240 
G01 X49.3146 Y20.0701 
G01 X49.3146 Y21.3199 
G01 X49.3337 Y21.3660 
G01 X49.3690 Y21.4013 
G00 Z2.5400 
G00 X49.3690 Y19.4013 
G01 Z-0.2000 F254.00 
G01 X49.4151 Y19.4204 F508.00 
G01 X52.4649 Y19.4204 
G01 X52.5110 Y19.4013 
G01 X52.5463 Y19.3660 
G01 X52.5654 Y19.3199 
G01 X52.5654 Y18.0701 
G01 X52.5463 Y18.0240 
G01 X52.5110 Y17.9887 
G01 X52.4649 Y17.9696 
G01 X49.4151 Y17.9696 
G01 X49.3690 Y17.9887 
G01 X49.3337 Y18.0240 
G01 X49.3146 Y18.0701 
G01 X49.3146 Y19.3199 
G01 X49.3337 Y19.3660 
G01 X49.3690 Y19.4013 
G00 Z2.5400 
G00 X47.5463 Y16.7660 
G01 Z-0.2000 F254.00 
G01 X47.5654 Y16.7199 F508.00 
G01 X47.5654 Y13.6701 
G01 X47.5463 Y13.6240 
G01 X47.5110 Y13.5887 
G01 X47.4649 Y13.5696 
G01 X47.2702 Y13.5696 
G01 X47.2702 Y13.0282 
G01 X48.4382 Y11.8602 
G01 X61.4168 Y11.8602 
G01 X64.3398 Y14.7832 
G01 X64.3398 Y20.3766 
G01 X64.3691 Y20.4860 
G01 X64.4258 Y20.5841 
G01 X69.5058 Y25.6641 
G01 X69.5858 Y25.7442 
G01 X69.6839 Y25.8009 
G01 X69.7934 Y25.8302 
G01 X73.6896 Y25.8302 
G01 X73.6896 Y26.1749 
G01 X73.7087 Y26.2210 
G01 X73.7440 Y26.2563 
G01 X73.7901 Y26.2754 
G01 X77.3399 Y26.2754 
G01 X77.3860 Y26.2563 
G01 X77.4213 Y26.2210 
G01 X77.4404 Y26.1749 
G01 X77.4404 Y24.6251 
G01 X77.4213 Y24.5790 
G01 X77.3860 Y24.5437 
G01 X77.3399 Y24.5246 
G01 X73.7901 Y24.5246 
G01 X73.7440 Y24.5437 
G01 X73.7087 Y24.5790 
G01 X73.6896 Y24.6251 
G01 X73.6896 Y24.9698 
G01 X70.0282 Y24.9698 
G01 X65.2002 Y20.1418 
G01 X65.2002 Y14.5484 
G01 X65.1709 Y14.4389 
G01 X65.1142 Y14.3408 
G01 X65.0341 Y14.2608 
G01 X61.8591 Y11.0858 
G01 X61.7610 Y11.0291 
G01 X61.6516 Y10.9998 
G01 X48.2034 Y10.9998 
G01 X48.0939 Y11.0291 
G01 X47.9958 Y11.0858 
G01 X47.9158 Y11.1659 
G01 X46.4958 Y12.5859 
G01 X46.4391 Y12.6839 
G01 X46.4098 Y12.7934 
G01 X46.4098 Y13.5696 
G01 X46.2151 Y13.5696 
G01 X46.1690 Y13.5887 
G01 X46.1337 Y13.6240 
G01 X46.1146 Y13.6701 
G01 X46.1146 Y16.7199 
G01 X46.1337 Y16.7660 
G01 X46.1690 Y16.8013 
G01 X46.2151 Y16.8204 
G01 X47.4649 Y16.8204 
G01 X47.5110 Y16.8013 
G01 X47.5463 Y16.7660 
G00 Z2.5400 
G00 X45.5463 Y16.7660 
G01 Z-0.2000 F254.00 
G01 X45.5654 Y16.7199 F508.00 
G01 X45.5654 Y13.6701 
G01 X45.5463 Y13.6240 
G01 X45.5110 Y13.5887 
G01 X45.4649 Y13.5696 
G01 X44.2151 Y13.5696 
G01 X44.1690 Y13.5887 
G01 X44.1337 Y13.6240 
G01 X44.1146 Y13.6701 
G01 X44.1146 Y16.7199 
G01 X44.1337 Y16.7660 
G01 X44.1690 Y16.8013 
G01 X44.2151 Y16.8204 
G01 X45.4649 Y16.8204 
G01 X45.5110 Y16.8013 
G01 X45.5463 Y16.7660 
G00 Z2.5400 
G00 X43.5463 Y16.7660 
G01 Z-0.2000 F254.00 
G01 X43.5654 Y16.7199 F508.00 
G01 X43.5654 Y13.6701 
G01 X43.5463 Y13.6240 
G01 X43.5110 Y13.5887 
G01 X43.4649 Y13.5696 
G01 X43.2702 Y13.5696 
G01 X43.2702 Y11.3132 
G01 X44.6282 Y9.9552 
G01 X62.6868 Y9.9552 
G01 X66.2448 Y13.5132 
G01 X66.2448 Y19.1066 
G01 X66.2741 Y19.2160 
G01 X66.3308 Y19.3141 
G01 X70.2208 Y23.2042 
G01 X70.3189 Y23.2609 
G01 X70.4284 Y23.2902 
G01 X73.6896 Y23.2902 
G01 X73.6896 Y23.6349 
G01 X73.7087 Y23.6810 
G01 X73.7440 Y23.7163 
G01 X73.7901 Y23.7354 
G01 X77.3399 Y23.7354 
G01 X77.3860 Y23.7163 
G01 X77.4213 Y23.6810 
G01 X77.4404 Y23.6349 
G01 X77.4404 Y22.0851 
G01 X77.4213 Y22.0390 
G01 X77.3860 Y22.0037 
G01 X77.3399 Y21.9846 
G01 X73.7901 Y21.9846 
G01 X73.7440 Y22.0037 
G01 X73.7087 Y22.0390 
G01 X73.6896 Y22.0851 
G01 X73.6896 Y22.4298 
G01 X70.6632 Y22.4298 
G01 X67.1052 Y18.8718 
G01 X67.1052 Y13.2784 
G01 X67.0759 Y13.1689 
G01 X67.0192 Y13.0709 
G01 X66.9391 Y12.9908 
G01 X63.1291 Y9.1808 
G01 X63.0311 Y9.1241 
G01 X62.9216 Y9.0948 
G01 X44.3934 Y9.0948 
G01 X44.2839 Y9.1241 
G01 X44.1859 Y9.1808 
G01 X44.1058 Y9.2608 
G01 X42.4958 Y10.8709 
G01 X42.4391 Y10.9689 
G01 X42.4098 Y11.0784 
G01 X42.4098 Y13.5696 
G01 X42.2151 Y13.5696 
G01 X42.1690 Y13.5887 
G01 X42.1337 Y13.6240 
G01 X42.1146 Y13.6701 
G01 X42.1146 Y16.7199 
G01 X42.1337 Y16.7660 
G01 X42.1690 Y16.8013 
G01 X42.2151 Y16.8204 
G01 X43.4649 Y16.8204 
G01 X43.5110 Y16.8013 
G01 X43.5463 Y16.7660 
G00 Z2.5400 
G00 X41.5463 Y16.7660 
G01 Z-0.2000 F254.00 
G01 X41.5654 Y16.7199 F508.00 
G01 X41.5654 Y13.6701 
G01 X41.5463 Y13.6240 
G01 X41.5110 Y13.5887 
G01 X41.4649 Y13.5696 
G01 X40.2151 Y13.5696 
G01 X40.1690 Y13.5887 
G01 X40.1337 Y13.6240 
G01 X40.1146 Y13.6701 
G01 X40.1146 Y16.7199 
G01 X40.1337 Y16.7660 
G01 X40.1690 Y16.8013 
G01 X40.2151 Y16.8204 
G01 X41.4649 Y16.8204 
G01 X41.5110 Y16.8013 
G01 X41.5463 Y16.7660 
G00 Z2.5400 
G00 X37.5463 Y16.7660 
G01 Z-0.2000 F254.00 
G01 X37.5654 Y16.7199 F508.00 
G01 X37.5654 Y13.6701 
G01 X37.5463 Y13.6240 
G01 X37.5110 Y13.5887 
G01 X37.4649 Y13.5696 
G01 X36.2151 Y13.5696 
G01 X36.1690 Y13.5887 
G01 X36.1337 Y13.6240 
G01 X36.1146 Y13.6701 
G01 X36.1146 Y16.7199 
G01 X36.1337 Y16.7660 
G01 X36.1690 Y16.8013 
G01 X36.2151 Y16.8204 
G01 X37.4649 Y16.8204 
G01 X37.5110 Y16.8013 
G01 X37.5463 Y16.7660 
G00 Z2.5400 
G00 X37.3596 Y4.3206 
G01 Z-0.2000 F254.00 
G01 X37.3564 Y4.3206 F508.00 
G01 X37.3564 Y4.0831 
G01 X37.3652 Y4.0504 
G01 X37.3821 Y4.0210 
G01 X37.4060 Y3.9971 
G01 X37.4354 Y3.9802 
G01 X37.4681 Y3.9714 
G01 X38.3556 Y3.9714 
G01 X38.3556 Y3.9746 
G01 X37.4601 Y3.9746 
G01 X37.4140 Y3.9937 
G01 X37.3787 Y4.0290 
G01 X37.3596 Y4.0751 
G01 X37.3596 Y4.3206 
G00 Z2.5400 
G00 X39.1144 Y3.9746 
G01 Z-0.2000 F254.00 
G01 X39.1144 Y3.9714 F508.00 
G01 X40.0019 Y3.9714 
G01 X40.0346 Y3.9802 
G01 X40.0640 Y3.9971 
G01 X40.0879 Y4.0210 
G01 X40.1048 Y4.0504 
G01 X40.1136 Y4.0831 
G01 X40.1136 Y4.3206 
G01 X40.1104 Y4.3206 
G01 X40.1104 Y4.0751 
G01 X40.0913 Y4.0290 
G01 X40.0560 Y3.9937 
G01 X40.0099 Y3.9746 
G01 X39.1144 Y3.9746 
G00 Z2.5400 
G00 X29.8386 Y3.9171 
G01 Z-0.2000 F254.00 
G01 X29.8386 Y4.1086 F508.00 
G01 X29.8354 Y4.1086 
G01 X29.8354 Y3.9091 
G01 X29.8163 Y3.8630 
G01 X29.7810 Y3.8277 
G01 X29.7349 Y3.8086 
G01 X29.5854 Y3.8086 
G01 X29.5854 Y3.8054 
G01 X29.7269 Y3.8054 
G01 X29.7596 Y3.8142 
G01 X29.7890 Y3.8311 
G01 X29.8129 Y3.8550 
G01 X29.8298 Y3.8844 
G01 X29.8386 Y3.9171 
G00 Z2.5400 
G00 X28.8346 Y3.8086 
G01 Z-0.2000 F254.00 
G01 X28.6851 Y3.8086 F508.00 
G01 X28.6390 Y3.8277 
G01 X28.6037 Y3.8630 
G01 X28.5846 Y3.9091 
G01 X28.5846 Y4.1086 
G01 X28.5814 Y4.1086 
G01 X28.5814 Y3.9171 
G01 X28.5902 Y3.8844 
G01 X28.6071 Y3.8550 
G01 X28.6310 Y3.8311 
G01 X28.6604 Y3.8142 
G01 X28.6931 Y3.8054 
G01 X28.8346 Y3.8054 
G01 X28.8346 Y3.8086 
G00 Z2.5400 
G00 X55.7514 Y3.5544 
G01 Z-0.2000 F254.00 
G01 X55.7546 Y3.5544 F508.00 
G01 X55.7546 Y4.4699 
G01 X55.7737 Y4.5160 
G01 X55.8090 Y4.5513 
G01 X55.8551 Y4.5704 
G01 X56.1356 Y4.5704 
G01 X56.1356 Y4.5736 
G01 X55.8631 Y4.5736 
G01 X55.8304 Y4.5648 
G01 X55.8010 Y4.5479 
G01 X55.7771 Y4.5240 
G01 X55.7602 Y4.4946 
G01 X55.7514 Y4.4619 
G01 X55.7514 Y3.5544 
G00 Z2.5400 
G00 X55.7514 Y2.7956 
G01 Z-0.2000 F254.00 
G01 X55.7514 Y1.8881 F508.00 
G01 X55.7602 Y1.8554 
G01 X55.7771 Y1.8260 
G01 X55.8010 Y1.8021 
G01 X55.8304 Y1.7852 
G01 X55.8631 Y1.7764 
G01 X56.1356 Y1.7764 
G01 X56.1356 Y1.7796 
G01 X55.8551 Y1.7796 
G01 X55.8090 Y1.7987 
G01 X55.7737 Y1.8340 
G01 X55.7546 Y1.8801 
G01 X55.7546 Y2.7956 
G01 X55.7514 Y2.7956 
G00 Z2.5400 
G00 X57.2754 Y2.7956 
G01 Z-0.2000 F254.00 
G01 X57.2754 Y1.8801 F508.00 
G01 X57.2563 Y1.8340 
G01 X57.2210 Y1.7987 
G01 X57.1749 Y1.7796 
G01 X56.8944 Y1.7796 
G01 X56.8944 Y1.7764 
G01 X57.1669 Y1.7764 
G01 X57.1996 Y1.7852 
G01 X57.2290 Y1.8021 
G01 X57.2529 Y1.8260 
G01 X57.2698 Y1.8554 
G01 X57.2786 Y1.8881 
G01 X57.2786 Y2.7956 
G01 X57.2754 Y2.7956 
G00 Z2.5400 
G00 X57.2754 Y3.5544 
G01 Z-0.2000 F254.00 
G01 X57.2786 Y3.5544 F508.00 
G01 X57.2786 Y4.4619 
G01 X57.2698 Y4.4946 
G01 X57.2529 Y4.5240 
G01 X57.2290 Y4.5479 
G01 X57.1996 Y4.5648 
G01 X57.1669 Y4.5736 
G01 X56.8944 Y4.5736 
G01 X56.8944 Y4.5704 
G01 X57.1749 Y4.5704 
G01 X57.2210 Y4.5513 
G01 X57.2563 Y4.5160 
G01 X57.2754 Y4.4699 
G01 X57.2754 Y3.5544 
G00 Z2.5400 
G00 X57.2529 Y13.2560 
G01 Z-0.2000 F254.00 
G01 X57.2698 Y13.2854 F508.00 
G01 X57.2786 Y13.3181 
G01 X57.2786 Y14.2256 
G01 X57.2754 Y14.2256 
G01 X57.2754 Y13.3101 
G01 X57.2563 Y13.2640 
G01 X57.2210 Y13.2287 
G01 X57.1749 Y13.2096 
G01 X56.8944 Y13.2096 
G01 X56.8944 Y13.2064 
G01 X57.1669 Y13.2064 
G01 X57.1996 Y13.2152 
G01 X57.2290 Y13.2321 
G01 X57.2529 Y13.2560 
G00 Z2.5400 
G00 X56.1356 Y13.2096 
G01 Z-0.2000 F254.00 
G01 X55.8551 Y13.2096 F508.00 
G01 X55.8090 Y13.2287 
G01 X55.7737 Y13.2640 
G01 X55.7546 Y13.3101 
G01 X55.7546 Y14.2256 
G01 X55.7514 Y14.2256 
G01 X55.7514 Y13.3181 
G01 X55.7602 Y13.2854 
G01 X55.7771 Y13.2560 
G01 X55.8010 Y13.2321 
G01 X55.8304 Y13.2152 
G01 X55.8631 Y13.2064 
G01 X56.1356 Y13.2064 
G01 X56.1356 Y13.2096 
G00 Z2.5400 
G00 X55.7546 Y14.9844 
G01 Z-0.2000 F254.00 
G01 X55.7546 Y15.8999 F508.00 
G01 X55.7737 Y15.9460 
G01 X55.8090 Y15.9813 
G01 X55.8551 Y16.0004 
G01 X56.1356 Y16.0004 
G01 X56.1356 Y16.0036 
G01 X55.8631 Y16.0036 
G01 X55.8304 Y15.9948 
G01 X55.8010 Y15.9779 
G01 X55.7771 Y15.9540 
G01 X55.7602 Y15.9246 
G01 X55.7514 Y15.8919 
G01 X55.7514 Y14.9844 
G01 X55.7546 Y14.9844 
G00 Z2.5400 
G00 X57.2754 Y14.9844 
G01 Z-0.2000 F254.00 
G01 X57.2786 Y14.9844 F508.00 
G01 X57.2786 Y15.8919 
G01 X57.2698 Y15.9246 
G01 X57.2529 Y15.9540 
G01 X57.2290 Y15.9779 
G01 X57.1996 Y15.9948 
G01 X57.1669 Y16.0036 
G01 X56.8944 Y16.0036 
G01 X56.8944 Y16.0004 
G01 X57.1749 Y16.0004 
G01 X57.2210 Y15.9813 
G01 X57.2563 Y15.9460 
G01 X57.2754 Y15.8999 
G01 X57.2754 Y14.9844 
G00 Z2.5400 
G00 X58.0745 Y26.2501 
G01 Z-0.2000 F254.00 
G01 X58.1039 Y26.2332 F508.00 
G01 X58.1366 Y26.2244 
G01 X58.6756 Y26.2244 
G01 X58.6756 Y26.2276 
G01 X58.1286 Y26.2276 
G01 X58.0825 Y26.2467 
G01 X58.0472 Y26.2820 
G01 X58.0281 Y26.3281 
G01 X58.0281 Y26.7736 
G01 X58.0249 Y26.7736 
G01 X58.0249 Y26.3361 
G01 X58.0337 Y26.3034 
G01 X58.0506 Y26.2740 
G01 X58.0745 Y26.2501 
G00 Z2.5400 
G00 X58.0281 Y27.5324 
G01 Z-0.2000 F254.00 
G01 X58.0281 Y27.9779 F508.00 
G01 X58.0472 Y28.0240 
G01 X58.0825 Y28.0593 
G01 X58.1286 Y28.0784 
G01 X58.6756 Y28.0784 
G01 X58.6756 Y28.0816 
G01 X58.1366 Y28.0816 
G01 X58.1039 Y28.0728 
G01 X58.0745 Y28.0559 
G01 X58.0506 Y28.0320 
G01 X58.0337 Y28.0026 
G01 X58.0249 Y27.9699 
G01 X58.0249 Y27.5324 
G01 X58.0281 Y27.5324 
G00 Z2.5400 
G00 X59.4344 Y28.0784 
G01 Z-0.2000 F254.00 
G01 X59.9814 Y28.0784 F508.00 
G01 X60.0275 Y28.0593 
G01 X60.0628 Y28.0240 
G01 X60.0819 Y27.9779 
G01 X60.0819 Y27.5324 
G01 X60.0851 Y27.5324 
G01 X60.0851 Y27.9699 
G01 X60.0763 Y28.0026 
G01 X60.0594 Y28.0320 
G01 X60.0355 Y28.0559 
G01 X60.0061 Y28.0728 
G01 X59.9734 Y28.0816 
G01 X59.4344 Y28.0816 
G01 X59.4344 Y28.0784 
G00 Z2.5400 
G00 X59.4344 Y26.2276 
G01 Z-0.2000 F254.00 
G01 X59.4344 Y26.2244 F508.00 
G01 X59.9734 Y26.2244 
G01 X60.0061 Y26.2332 
G01 X60.0355 Y26.2501 
G01 X60.0594 Y26.2740 
G01 X60.0763 Y26.3034 
G01 X60.0851 Y26.3361 
G01 X60.0851 Y26.7736 
G01 X60.0819 Y26.7736 
G01 X60.0819 Y26.3281 
G01 X60.0628 Y26.2820 
G01 X60.0275 Y26.2467 
G01 X59.9814 Y26.2276 
G01 X59.4344 Y26.2276 
G00 Z2.5400 
G00 X62.5714 Y25.6581 
G01 Z-0.2000 F254.00 
G01 X62.5714 Y25.3706 F508.00 
G01 X62.5802 Y25.3379 
G01 X62.5971 Y25.3085 
G01 X62.6210 Y25.2846 
G01 X62.6504 Y25.2677 
G01 X62.6831 Y25.2589 
G01 X63.1206 Y25.2589 
G01 X63.1206 Y25.2621 
G01 X62.6751 Y25.2621 
G01 X62.6290 Y25.2812 
G01 X62.5937 Y25.3165 
G01 X62.5746 Y25.3626 
G01 X62.5746 Y25.6581 
G01 X62.5714 Y25.6581 
G00 Z2.5400 
G00 X62.5937 Y27.2165 
G01 Z-0.2000 F254.00 
G01 X62.5746 Y27.2626 F508.00 
G01 X62.5746 Y28.6124 
G01 X62.5937 Y28.6585 
G01 X62.6290 Y28.6938 
G01 X62.6751 Y28.7129 
G01 X64.3249 Y28.7129 
G01 X64.3710 Y28.6938 
G01 X64.4063 Y28.6585 
G01 X64.4254 Y28.6124 
G01 X64.4254 Y28.3702 
G01 X69.0896 Y28.3702 
G01 X69.0896 Y28.5999 
G01 X69.1087 Y28.6460 
G01 X69.1440 Y28.6813 
G01 X69.1901 Y28.7004 
G01 X71.7799 Y28.7004 
G01 X71.8260 Y28.6813 
G01 X71.8613 Y28.6460 
G01 X71.8804 Y28.5999 
G01 X71.8804 Y28.3702 
G01 X73.6896 Y28.3702 
G01 X73.6896 Y28.7149 
G01 X73.7087 Y28.7610 
G01 X73.7440 Y28.7963 
G01 X73.7901 Y28.8154 
G01 X77.3399 Y28.8154 
G01 X77.3860 Y28.7963 
G01 X77.4213 Y28.7610 
G01 X77.4404 Y28.7149 
G01 X77.4404 Y27.1651 
G01 X77.4213 Y27.1190 
G01 X77.3860 Y27.0837 
G01 X77.3399 Y27.0646 
G01 X73.7901 Y27.0646 
G01 X73.7440 Y27.0837 
G01 X73.7087 Y27.1190 
G01 X73.6896 Y27.1651 
G01 X73.6896 Y27.5098 
G01 X71.8804 Y27.5098 
G01 X71.8804 Y27.2801 
G01 X71.8613 Y27.2340 
G01 X71.8260 Y27.1987 
G01 X71.7799 Y27.1796 
G01 X69.1901 Y27.1796 
G01 X69.1440 Y27.1987 
G01 X69.1087 Y27.2340 
G01 X69.0896 Y27.2801 
G01 X69.0896 Y27.5098 
G01 X64.4254 Y27.5098 
G01 X64.4254 Y27.2626 
G01 X64.4063 Y27.2165 
G01 X64.3710 Y27.1812 
G01 X64.3249 Y27.1621 
G01 X62.6751 Y27.1621 
G01 X62.6290 Y27.1812 
G01 X62.5937 Y27.2165 
G00 Z2.5400 
G00 X63.8794 Y25.2621 
G01 Z-0.2000 F254.00 
G01 X63.8794 Y25.2589 F508.00 
G01 X64.3169 Y25.2589 
G01 X64.3496 Y25.2677 
G01 X64.3790 Y25.2846 
G01 X64.4029 Y25.3085 
G01 X64.4198 Y25.3379 
G01 X64.4286 Y25.3706 
G01 X64.4286 Y25.6581 
G01 X64.4254 Y25.6581 
G01 X64.4254 Y25.3626 
G01 X64.4063 Y25.3165 
G01 X64.3710 Y25.2812 
G01 X64.3249 Y25.2621 
G01 X63.8794 Y25.2621 
G00 Z2.5400 
G00 X61.9564 Y32.1935 
G01 Z-0.2000 F254.00 
G01 X61.9103 Y32.1744 F508.00 
G01 X60.0605 Y32.1744 
G01 X60.0144 Y32.1935 
G01 X59.9791 Y32.2288 
G01 X59.9600 Y32.2749 
G01 X59.9600 Y34.3247 
G01 X59.9791 Y34.3708 
G01 X60.0144 Y34.4061 
G01 X60.0605 Y34.4252 
G01 X61.9103 Y34.4252 
G01 X61.9564 Y34.4061 
G01 X61.9917 Y34.3708 
G01 X62.0108 Y34.3247 
G01 X62.0108 Y33.4502 
G01 X73.6896 Y33.4502 
G01 X73.6896 Y33.7949 
G01 X73.7087 Y33.8410 
G01 X73.7440 Y33.8763 
G01 X73.7901 Y33.8954 
G01 X77.3399 Y33.8954 
G01 X77.3860 Y33.8763 
G01 X77.4213 Y33.8410 
G01 X77.4404 Y33.7949 
G01 X77.4404 Y32.2451 
G01 X77.4213 Y32.1990 
G01 X77.3860 Y32.1637 
G01 X77.3399 Y32.1446 
G01 X73.7901 Y32.1446 
G01 X73.7440 Y32.1637 
G01 X73.7087 Y32.1990 
G01 X73.6896 Y32.2451 
G01 X73.6896 Y32.5898 
G01 X62.0108 Y32.5898 
G01 X62.0108 Y32.2749 
G01 X61.9917 Y32.2288 
G01 X61.9564 Y32.1935 
G00 Z2.5400 
G00 X73.7087 Y37.2790 
G01 Z-0.2000 F254.00 
G01 X73.6896 Y37.3251 F508.00 
G01 X73.6896 Y38.8749 
G01 X73.7087 Y38.9210 
G01 X73.7440 Y38.9563 
G01 X73.7901 Y38.9754 
G01 X77.3399 Y38.9754 
G01 X77.3860 Y38.9563 
G01 X77.4213 Y38.9210 
G01 X77.4404 Y38.8749 
G01 X77.4404 Y37.3251 
G01 X77.4213 Y37.2790 
G01 X77.3860 Y37.2437 
G01 X77.3399 Y37.2246 
G01 X73.7901 Y37.2246 
G01 X73.7440 Y37.2437 
G01 X73.7087 Y37.2790 
G00 Z2.5400 
G00 X78.7887 Y38.5490 
G01 Z-0.2000 F254.00 
G01 X78.7696 Y38.5951 F508.00 
G01 X78.7696 Y40.1449 
G01 X78.7887 Y40.1910 
G01 X78.8240 Y40.2263 
G01 X78.8701 Y40.2454 
G01 X82.4199 Y40.2454 
G01 X82.4660 Y40.2263 
G01 X82.5013 Y40.1910 
G01 X82.5204 Y40.1449 
G01 X82.5204 Y38.5951 
G01 X82.5013 Y38.5490 
G01 X82.4660 Y38.5137 
G01 X82.4199 Y38.4946 
G01 X78.8701 Y38.4946 
G01 X78.8240 Y38.5137 
G01 X78.7887 Y38.5490 
G00 Z2.5400 
G00 X78.7696 Y31.3706 
G01 Z-0.2000 F254.00 
G01 X78.7664 Y31.3706 F508.00 
G01 X78.7664 Y30.9831 
G01 X78.7752 Y30.9504 
G01 X78.7921 Y30.9210 
G01 X78.8160 Y30.8971 
G01 X78.8454 Y30.8802 
G01 X78.8781 Y30.8714 
G01 X80.2656 Y30.8714 
G01 X80.2656 Y30.8746 
G01 X78.8701 Y30.8746 
G01 X78.8240 Y30.8937 
G01 X78.7887 Y30.9290 
G01 X78.7696 Y30.9751 
G01 X78.7696 Y31.3706 
G00 Z2.5400 
G00 X78.7921 Y30.0390 
G01 Z-0.2000 F254.00 
G01 X78.7752 Y30.0096 F508.00 
G01 X78.7664 Y29.9769 
G01 X78.7664 Y29.5894 
G01 X78.7696 Y29.5894 
G01 X78.7696 Y29.9849 
G01 X78.7887 Y30.0310 
G01 X78.8240 Y30.0663 
G01 X78.8701 Y30.0854 
G01 X80.2656 Y30.0854 
G01 X80.2656 Y30.0886 
G01 X78.8781 Y30.0886 
G01 X78.8454 Y30.0798 
G01 X78.8160 Y30.0629 
G01 X78.7921 Y30.0390 
G00 Z2.5400 
G00 X78.7696 Y28.8306 
G01 Z-0.2000 F254.00 
G01 X78.7664 Y28.8306 F508.00 
G01 X78.7664 Y28.4431 
G01 X78.7752 Y28.4104 
G01 X78.7921 Y28.3810 
G01 X78.8160 Y28.3571 
G01 X78.8454 Y28.3402 
G01 X78.8781 Y28.3314 
G01 X80.2656 Y28.3314 
G01 X80.2656 Y28.3346 
G01 X78.8701 Y28.3346 
G01 X78.8240 Y28.3537 
G01 X78.7887 Y28.3890 
G01 X78.7696 Y28.4351 
G01 X78.7696 Y28.8306 
G00 Z2.5400 
G00 X78.7921 Y27.4990 
G01 Z-0.2000 F254.00 
G01 X78.7752 Y27.4696 F508.00 
G01 X78.7664 Y27.4369 
G01 X78.7664 Y27.0494 
G01 X78.7696 Y27.0494 
G01 X78.7696 Y27.4449 
G01 X78.7887 Y27.4910 
G01 X78.8240 Y27.5263 
G01 X78.8701 Y27.5454 
G01 X80.2656 Y27.5454 
G01 X80.2656 Y27.5486 
G01 X78.8781 Y27.5486 
G01 X78.8454 Y27.5398 
G01 X78.8160 Y27.5229 
G01 X78.7921 Y27.4990 
G00 Z2.5400 
G00 X78.7696 Y26.2906 
G01 Z-0.2000 F254.00 
G01 X78.7664 Y26.2906 F508.00 
G01 X78.7664 Y25.9031 
G01 X78.7752 Y25.8704 
G01 X78.7921 Y25.8410 
G01 X78.8160 Y25.8171 
G01 X78.8454 Y25.8002 
G01 X78.8781 Y25.7914 
G01 X80.2656 Y25.7914 
G01 X80.2656 Y25.7946 
G01 X78.8701 Y25.7946 
G01 X78.8240 Y25.8137 
G01 X78.7887 Y25.8490 
G01 X78.7696 Y25.8951 
G01 X78.7696 Y26.2906 
G00 Z2.5400 
G00 X78.7921 Y24.9590 
G01 Z-0.2000 F254.00 
G01 X78.7752 Y24.9296 F508.00 
G01 X78.7664 Y24.8969 
G01 X78.7664 Y24.5094 
G01 X78.7696 Y24.5094 
G01 X78.7696 Y24.9049 
G01 X78.7887 Y24.9510 
G01 X78.8240 Y24.9863 
G01 X78.8701 Y25.0054 
G01 X80.2656 Y25.0054 
G01 X80.2656 Y25.0086 
G01 X78.8781 Y25.0086 
G01 X78.8454 Y24.9998 
G01 X78.8160 Y24.9829 
G01 X78.7921 Y24.9590 
G00 Z2.5400 
G00 X78.7696 Y23.7506 
G01 Z-0.2000 F254.00 
G01 X78.7664 Y23.7506 F508.00 
G01 X78.7664 Y23.3631 
G01 X78.7752 Y23.3304 
G01 X78.7921 Y23.3010 
G01 X78.8160 Y23.2771 
G01 X78.8454 Y23.2602 
G01 X78.8781 Y23.2514 
G01 X80.2656 Y23.2514 
G01 X80.2656 Y23.2546 
G01 X78.8701 Y23.2546 
G01 X78.8240 Y23.2737 
G01 X78.7887 Y23.3090 
G01 X78.7696 Y23.3551 
G01 X78.7696 Y23.7506 
G00 Z2.5400 
G00 X78.7921 Y22.4190 
G01 Z-0.2000 F254.00 
G01 X78.7752 Y22.3896 F508.00 
G01 X78.7664 Y22.3569 
G01 X78.7664 Y21.9694 
G01 X78.7696 Y21.9694 
G01 X78.7696 Y22.3649 
G01 X78.7887 Y22.4110 
G01 X78.8240 Y22.4463 
G01 X78.8701 Y22.4654 
G01 X80.2656 Y22.4654 
G01 X80.2656 Y22.4686 
G01 X78.8781 Y22.4686 
G01 X78.8454 Y22.4598 
G01 X78.8160 Y22.4429 
G01 X78.7921 Y22.4190 
G00 Z2.5400 
G00 X78.7696 Y21.2106 
G01 Z-0.2000 F254.00 
G01 X78.7664 Y21.2106 F508.00 
G01 X78.7664 Y20.8231 
G01 X78.7752 Y20.7904 
G01 X78.7921 Y20.7610 
G01 X78.8160 Y20.7371 
G01 X78.8454 Y20.7202 
G01 X78.8781 Y20.7114 
G01 X80.2656 Y20.7114 
G01 X80.2656 Y20.7146 
G01 X78.8701 Y20.7146 
G01 X78.8240 Y20.7337 
G01 X78.7887 Y20.7690 
G01 X78.7696 Y20.8151 
G01 X78.7696 Y21.2106 
G00 Z2.5400 
G00 X78.7921 Y19.8790 
G01 Z-0.2000 F254.00 
G01 X78.7752 Y19.8496 F508.00 
G01 X78.7664 Y19.8169 
G01 X78.7664 Y19.4294 
G01 X78.7696 Y19.4294 
G01 X78.7696 Y19.8249 
G01 X78.7887 Y19.8710 
G01 X78.8240 Y19.9063 
G01 X78.8701 Y19.9254 
G01 X80.2656 Y19.9254 
G01 X80.2656 Y19.9286 
G01 X78.8781 Y19.9286 
G01 X78.8454 Y19.9198 
G01 X78.8160 Y19.9029 
G01 X78.7921 Y19.8790 
G00 Z2.5400 
G00 X78.7696 Y18.6706 
G01 Z-0.2000 F254.00 
G01 X78.7664 Y18.6706 F508.00 
G01 X78.7664 Y18.2831 
G01 X78.7752 Y18.2504 
G01 X78.7921 Y18.2210 
G01 X78.8160 Y18.1971 
G01 X78.8454 Y18.1802 
G01 X78.8781 Y18.1714 
G01 X80.2656 Y18.1714 
G01 X80.2656 Y18.1746 
G01 X78.8701 Y18.1746 
G01 X78.8240 Y18.1937 
G01 X78.7887 Y18.2290 
G01 X78.7696 Y18.2751 
G01 X78.7696 Y18.6706 
G00 Z2.5400 
G00 X78.7921 Y17.3390 
G01 Z-0.2000 F254.00 
G01 X78.7752 Y17.3096 F508.00 
G01 X78.7664 Y17.2769 
G01 X78.7664 Y16.8894 
G01 X78.7696 Y16.8894 
G01 X78.7696 Y17.2849 
G01 X78.7887 Y17.3310 
G01 X78.8240 Y17.3663 
G01 X78.8701 Y17.3854 
G01 X80.2656 Y17.3854 
G01 X80.2656 Y17.3886 
G01 X78.8781 Y17.3886 
G01 X78.8454 Y17.3798 
G01 X78.8160 Y17.3629 
G01 X78.7921 Y17.3390 
G00 Z2.5400 
G00 X78.7696 Y16.1306 
G01 Z-0.2000 F254.00 
G01 X78.7664 Y16.1306 F508.00 
G01 X78.7664 Y15.7431 
G01 X78.7752 Y15.7104 
G01 X78.7921 Y15.6810 
G01 X78.8160 Y15.6571 
G01 X78.8454 Y15.6402 
G01 X78.8781 Y15.6314 
G01 X80.2656 Y15.6314 
G01 X80.2656 Y15.6346 
G01 X78.8701 Y15.6346 
G01 X78.8240 Y15.6537 
G01 X78.7887 Y15.6890 
G01 X78.7696 Y15.7351 
G01 X78.7696 Y16.1306 
G00 Z2.5400 
G00 X77.3860 Y16.9237 
G01 Z-0.2000 F254.00 
G01 X77.3399 Y16.9046 F508.00 
G01 X73.7901 Y16.9046 
G01 X73.7440 Y16.9237 
G01 X73.7087 Y16.9590 
G01 X73.6896 Y17.0051 
G01 X73.6896 Y17.3498 
G01 X71.8804 Y17.3498 
G01 X71.8804 Y17.1201 
G01 X71.8613 Y17.0740 
G01 X71.8260 Y17.0387 
G01 X71.7799 Y17.0196 
G01 X69.1901 Y17.0196 
G01 X69.1440 Y17.0387 
G01 X69.1087 Y17.0740 
G01 X69.0896 Y17.1201 
G01 X69.0896 Y18.4399 
G01 X69.1087 Y18.4860 
G01 X69.1440 Y18.5213 
G01 X69.1901 Y18.5404 
G01 X71.7799 Y18.5404 
G01 X71.8260 Y18.5213 
G01 X71.8613 Y18.4860 
G01 X71.8804 Y18.4399 
G01 X71.8804 Y18.2102 
G01 X73.6896 Y18.2102 
G01 X73.6896 Y18.5549 
G01 X73.7087 Y18.6010 
G01 X73.7440 Y18.6363 
G01 X73.7901 Y18.6554 
G01 X77.3399 Y18.6554 
G01 X77.3860 Y18.6363 
G01 X77.4213 Y18.6010 
G01 X77.4404 Y18.5549 
G01 X77.4404 Y17.0051 
G01 X77.4213 Y16.9590 
G01 X77.3860 Y16.9237 
G00 Z2.5400 
G00 X77.3860 Y19.4637 
G01 Z-0.2000 F254.00 
G01 X77.3399 Y19.4446 F508.00 
G01 X73.7901 Y19.4446 
G01 X73.7440 Y19.4637 
G01 X73.7087 Y19.4990 
G01 X73.6896 Y19.5451 
G01 X73.6896 Y21.0949 
G01 X73.7087 Y21.1410 
G01 X73.7440 Y21.1763 
G01 X73.7901 Y21.1954 
G01 X77.3399 Y21.1954 
G01 X77.3860 Y21.1763 
G01 X77.4213 Y21.1410 
G01 X77.4404 Y21.0949 
G01 X77.4404 Y19.5451 
G01 X77.4213 Y19.4990 
G01 X77.3860 Y19.4637 
G00 Z2.5400 
G00 X81.0244 Y19.9254 
G01 Z-0.2000 F254.00 
G01 X82.4199 Y19.9254 F508.00 
G01 X82.4660 Y19.9063 
G01 X82.5013 Y19.8710 
G01 X82.5204 Y19.8249 
G01 X82.5204 Y19.4294 
G01 X82.5236 Y19.4294 
G01 X82.5236 Y19.8169 
G01 X82.5148 Y19.8496 
G01 X82.4979 Y19.8790 
G01 X82.4740 Y19.9029 
G01 X82.4446 Y19.9198 
G01 X82.4119 Y19.9286 
G01 X81.0244 Y19.9286 
G01 X81.0244 Y19.9254 
G00 Z2.5400 
G00 X81.0244 Y20.7114 
G01 Z-0.2000 F254.00 
G01 X82.4119 Y20.7114 F508.00 
G01 X82.4446 Y20.7202 
G01 X82.4740 Y20.7371 
G01 X82.4979 Y20.7610 
G01 X82.5148 Y20.7904 
G01 X82.5236 Y20.8231 
G01 X82.5236 Y21.2106 
G01 X82.5204 Y21.2106 
G01 X82.5204 Y20.8151 
G01 X82.5013 Y20.7690 
G01 X82.4660 Y20.7337 
G01 X82.4199 Y20.7146 
G01 X81.0244 Y20.7146 
G01 X81.0244 Y20.7114 
G00 Z2.5400 
G00 X81.0244 Y22.4654 
G01 Z-0.2000 F254.00 
G01 X82.4199 Y22.4654 F508.00 
G01 X82.4660 Y22.4463 
G01 X82.5013 Y22.4110 
G01 X82.5204 Y22.3649 
G01 X82.5204 Y21.9694 
G01 X82.5236 Y21.9694 
G01 X82.5236 Y22.3569 
G01 X82.5148 Y22.3896 
G01 X82.4979 Y22.4190 
G01 X82.4740 Y22.4429 
G01 X82.4446 Y22.4598 
G01 X82.4119 Y22.4686 
G01 X81.0244 Y22.4686 
G01 X81.0244 Y22.4654 
G00 Z2.5400 
G00 X81.0244 Y23.2514 
G01 Z-0.2000 F254.00 
G01 X82.4119 Y23.2514 F508.00 
G01 X82.4446 Y23.2602 
G01 X82.4740 Y23.2771 
G01 X82.4979 Y23.3010 
G01 X82.5148 Y23.3304 
G01 X82.5236 Y23.3631 
G01 X82.5236 Y23.7506 
G01 X82.5204 Y23.7506 
G01 X82.5204 Y23.3551 
G01 X82.5013 Y23.3090 
G01 X82.4660 Y23.2737 
G01 X82.4199 Y23.2546 
G01 X81.0244 Y23.2546 
G01 X81.0244 Y23.2514 
G00 Z2.5400 
G00 X81.0244 Y25.0054 
G01 Z-0.2000 F254.00 
G01 X82.4199 Y25.0054 F508.00 
G01 X82.4660 Y24.9863 
G01 X82.5013 Y24.9510 
G01 X82.5204 Y24.9049 
G01 X82.5204 Y24.5094 
G01 X82.5236 Y24.5094 
G01 X82.5236 Y24.8969 
G01 X82.5148 Y24.9296 
G01 X82.4979 Y24.9590 
G01 X82.4740 Y24.9829 
G01 X82.4446 Y24.9998 
G01 X82.4119 Y25.0086 
G01 X81.0244 Y25.0086 
G01 X81.0244 Y25.0054 
G00 Z2.5400 
G00 X81.0244 Y25.7914 
G01 Z-0.2000 F254.00 
G01 X82.4119 Y25.7914 F508.00 
G01 X82.4446 Y25.8002 
G01 X82.4740 Y25.8171 
G01 X82.4979 Y25.8410 
G01 X82.5148 Y25.8704 
G01 X82.5236 Y25.9031 
G01 X82.5236 Y26.2906 
G01 X82.5204 Y26.2906 
G01 X82.5204 Y25.8951 
G01 X82.5013 Y25.8490 
G01 X82.4660 Y25.8137 
G01 X82.4199 Y25.7946 
G01 X81.0244 Y25.7946 
G01 X81.0244 Y25.7914 
G00 Z2.5400 
G00 X81.0244 Y27.5454 
G01 Z-0.2000 F254.00 
G01 X82.4199 Y27.5454 F508.00 
G01 X82.4660 Y27.5263 
G01 X82.5013 Y27.4910 
G01 X82.5204 Y27.4449 
G01 X82.5204 Y27.0494 
G01 X82.5236 Y27.0494 
G01 X82.5236 Y27.4369 
G01 X82.5148 Y27.4696 
G01 X82.4979 Y27.4990 
G01 X82.4740 Y27.5229 
G01 X82.4446 Y27.5398 
G01 X82.4119 Y27.5486 
G01 X81.0244 Y27.5486 
G01 X81.0244 Y27.5454 
G00 Z2.5400 
G00 X81.0244 Y28.3314 
G01 Z-0.2000 F254.00 
G01 X82.4119 Y28.3314 F508.00 
G01 X82.4446 Y28.3402 
G01 X82.4740 Y28.3571 
G01 X82.4979 Y28.3810 
G01 X82.5148 Y28.4104 
G01 X82.5236 Y28.4431 
G01 X82.5236 Y28.8306 
G01 X82.5204 Y28.8306 
G01 X82.5204 Y28.4351 
G01 X82.5013 Y28.3890 
G01 X82.4660 Y28.3537 
G01 X82.4199 Y28.3346 
G01 X81.0244 Y28.3346 
G01 X81.0244 Y28.3314 
G00 Z2.5400 
G00 X81.0244 Y30.0854 
G01 Z-0.2000 F254.00 
G01 X82.4199 Y30.0854 F508.00 
G01 X82.4660 Y30.0663 
G01 X82.5013 Y30.0310 
G01 X82.5204 Y29.9849 
G01 X82.5204 Y29.5894 
G01 X82.5236 Y29.5894 
G01 X82.5236 Y29.9769 
G01 X82.5148 Y30.0096 
G01 X82.4979 Y30.0390 
G01 X82.4740 Y30.0629 
G01 X82.4446 Y30.0798 
G01 X82.4119 Y30.0886 
G01 X81.0244 Y30.0886 
G01 X81.0244 Y30.0854 
G00 Z2.5400 
G00 X81.0244 Y30.8714 
G01 Z-0.2000 F254.00 
G01 X82.4119 Y30.8714 F508.00 
G01 X82.4446 Y30.8802 
G01 X82.4740 Y30.8971 
G01 X82.4979 Y30.9210 
G01 X82.5148 Y30.9504 
G01 X82.5236 Y30.9831 
G01 X82.5236 Y31.3706 
G01 X82.5204 Y31.3706 
G01 X82.5204 Y30.9751 
G01 X82.5013 Y30.9290 
G01 X82.4660 Y30.8937 
G01 X82.4199 Y30.8746 
G01 X81.0244 Y30.8746 
G01 X81.0244 Y30.8714 
G00 Z2.5400 
G00 X81.0244 Y18.1746 
G01 Z-0.2000 F254.00 
G01 X81.0244 Y18.1714 F508.00 
G01 X82.4119 Y18.1714 
G01 X82.4446 Y18.1802 
G01 X82.4740 Y18.1971 
G01 X82.4979 Y18.2210 
G01 X82.5148 Y18.2504 
G01 X82.5236 Y18.2831 
G01 X82.5236 Y18.6706 
G01 X82.5204 Y18.6706 
G01 X82.5204 Y18.2751 
G01 X82.5013 Y18.2290 
G01 X82.4660 Y18.1937 
G01 X82.4199 Y18.1746 
G01 X81.0244 Y18.1746 
G00 Z2.5400 
G00 X81.0244 Y17.3886 
G01 Z-0.2000 F254.00 
G01 X81.0244 Y17.3854 F508.00 
G01 X82.4199 Y17.3854 
G01 X82.4660 Y17.3663 
G01 X82.5013 Y17.3310 
G01 X82.5204 Y17.2849 
G01 X82.5204 Y16.8894 
G01 X82.5236 Y16.8894 
G01 X82.5236 Y17.2769 
G01 X82.5148 Y17.3096 
G01 X82.4979 Y17.3390 
G01 X82.4740 Y17.3629 
G01 X82.4446 Y17.3798 
G01 X82.4119 Y17.3886 
G01 X81.0244 Y17.3886 
G00 Z2.5400 
G00 X81.0244 Y15.6346 
G01 Z-0.2000 F254.00 
G01 X81.0244 Y15.6314 F508.00 
G01 X82.4119 Y15.6314 
G01 X82.4446 Y15.6402 
G01 X82.4740 Y15.6571 
G01 X82.4979 Y15.6810 
G01 X82.5148 Y15.7104 
G01 X82.5236 Y15.7431 
G01 X82.5236 Y16.1306 
G01 X82.5204 Y16.1306 
G01 X82.5204 Y15.7351 
G01 X82.5013 Y15.6890 
G01 X82.4660 Y15.6537 
G01 X82.4199 Y15.6346 
G01 X81.0244 Y15.6346 
G00 Z2.5400 
G00 X71.8140 Y9.2129 
G01 Z-0.2000 F254.00 
G01 X71.7846 Y9.2298 F508.00 
G01 X71.7519 Y9.2386 
G01 X70.8644 Y9.2386 
G01 X70.8644 Y9.2354 
G01 X71.7599 Y9.2354 
G01 X71.8060 Y9.2163 
G01 X71.8413 Y9.1810 
G01 X71.8604 Y9.1349 
G01 X71.8604 Y8.8894 
G01 X71.8636 Y8.8894 
G01 X71.8636 Y9.1269 
G01 X71.8548 Y9.1596 
G01 X71.8379 Y9.1890 
G01 X71.8140 Y9.2129 
G00 Z2.5400 
G00 X71.8604 Y8.1306 
G01 Z-0.2000 F254.00 
G01 X71.8604 Y7.8851 F508.00 
G01 X71.8413 Y7.8390 
G01 X71.8060 Y7.8037 
G01 X71.7599 Y7.7846 
G01 X70.8644 Y7.7846 
G01 X70.8644 Y7.7814 
G01 X71.7519 Y7.7814 
G01 X71.7846 Y7.7902 
G01 X71.8140 Y7.8071 
G01 X71.8379 Y7.8310 
G01 X71.8548 Y7.8604 
G01 X71.8636 Y7.8931 
G01 X71.8636 Y8.1306 
G01 X71.8604 Y8.1306 
G00 Z2.5400 
G00 X70.1056 Y7.7846 
G01 Z-0.2000 F254.00 
G01 X69.2101 Y7.7846 F508.00 
G01 X69.1640 Y7.8037 
G01 X69.1287 Y7.8390 
G01 X69.1096 Y7.8851 
G01 X69.1096 Y8.1306 
G01 X69.1064 Y8.1306 
G01 X69.1064 Y7.8931 
G01 X69.1152 Y7.8604 
G01 X69.1321 Y7.8310 
G01 X69.1560 Y7.8071 
G01 X69.1854 Y7.7902 
G01 X69.2181 Y7.7814 
G01 X70.1056 Y7.7814 
G01 X70.1056 Y7.7846 
G00 Z2.5400 
G00 X70.1056 Y9.2354 
G01 Z-0.2000 F254.00 
G01 X70.1056 Y9.2386 F508.00 
G01 X69.2181 Y9.2386 
G01 X69.1854 Y9.2298 
G01 X69.1560 Y9.2129 
G01 X69.1321 Y9.1890 
G01 X69.1152 Y9.1596 
G01 X69.1064 Y9.1269 
G01 X69.1064 Y8.8894 
G01 X69.1096 Y8.8894 
G01 X69.1096 Y9.1349 
G01 X69.1287 Y9.1810 
G01 X69.1640 Y9.2163 
G01 X69.2101 Y9.2354 
G01 X70.1056 Y9.2354 
G00 Z2.5400 
G00 Z2.540000
G00 X4.0000 Y40.0000 
G01 Z-0.2794 F508.00 
G01 Z2.540000
(R2.5400  P0.000000)
G00 X96.0000 Y40.0000 
G01 Z-1.550000
G01 Z2.540000
G00 X4.0000 Y7.5000 
G01 Z-1.550000
G01 Z2.540000
G00 X96.0000 Y7.5000 
G01 Z-1.550000
G01 Z2.540000
G00 Z38.1000 
M05
M02
