(.../pcb-gcode-3.6.2.4/pcb-gcode.ulp)
(Copyright 2005 - 2012 by John Johnson)
(See readme.txt for licensing terms.)
(This file generated from the board:)
(.../Hardware/ControlPCB/ControlBoard.brd)
(Current profile is .../pcb-gcode-3.6.2.4/profiles/generic.pp  )
(This file generated 23.3.2016 15:39)
(Settings from pcb-machine.h)
(spindle on time = 0.0000)
(spindle speed = 25000.0000)
(text depth = -0.1270)
(tool change at 0.0000 0.0000 25.4000 )
(feed rate xy = F254.00 )
(feed rate z  = F254.00 )
(Z Axis Settings)
(  High     Up        Down     Drill)
(38.1000 	2.5400 	-0.2000 	-1.5500 )
(Settings from pcb-defaults.h)
(isolate min = 0.0254)
(isolate max = 0.5080)
(isolate step = 0.1270)
(Generated top outlines, top drill, )
(Unit of measure: mm)
(Metric Mode)
G21
(Absolute Coordinates)
G90
S25000
G00 Z38.1000 
G00 X0.0000 Y0.0000 
M03
G04 P0.000000
G00 Z2.5400 
G00 X86.4348 Y3.8862 
G01 Z-0.1270 F254.00 
G01 X88.0618 Y3.8862 F254.00 
G00 Z2.5400 
G00 X87.5195 Y3.8862 
G01 Z-0.1270 F254.00 
G01 X86.4348 Y4.9709 F254.00 
G00 Z2.5400 
G00 X87.2483 Y4.1574 
G01 Z-0.1270 F254.00 
G01 X88.0618 Y4.9709 F254.00 
G00 Z2.5400 
G00 X88.0618 Y6.3369 
G01 Z-0.1270 F254.00 
G01 X88.0618 Y5.7945 F254.00 
G01 X87.7906 Y5.5234 
G01 X87.2483 Y5.5234 
G01 X86.9771 Y5.7945 
G01 X86.9771 Y6.3369 
G01 X87.2483 Y6.6080 
G01 X87.5195 Y6.6080 
G01 X87.5195 Y5.5234 
G00 Z2.5400 
G00 X86.7060 Y7.4317 
G01 Z-0.1270 F254.00 
G01 X87.7906 Y7.4317 F254.00 
G01 X88.0618 Y7.7028 
G00 Z2.5400 
G00 X86.9771 Y7.1605 
G01 Z-0.1270 F254.00 
G01 X86.9771 Y7.7028 F254.00 
G00 Z2.5400 
G00 X86.7060 Y8.5231 
G01 Z-0.1270 F254.00 
G01 X87.7906 Y8.5231 F254.00 
G01 X88.0618 Y8.7943 
G00 Z2.5400 
G00 X86.9771 Y8.2520 
G01 Z-0.1270 F254.00 
G01 X86.9771 Y8.7943 F254.00 
G00 Z2.5400 
G00 X86.9771 Y9.3434 
G01 Z-0.1270 F254.00 
G01 X87.7906 Y9.3434 F254.00 
G01 X88.0618 Y9.6145 
G01 X88.0618 Y10.4280 
G01 X86.9771 Y10.4280 
G00 Z2.5400 
G00 X88.0618 Y10.9805 
G01 Z-0.1270 F254.00 
G01 X86.9771 Y10.9805 F254.00 
G00 Z2.5400 
G00 X87.5195 Y10.9805 
G01 Z-0.1270 F254.00 
G01 X86.9771 Y11.5229 F254.00 
G01 X86.9771 Y11.7940 
G00 Z2.5400 
G00 X86.9771 Y12.3448 
G01 Z-0.1270 F254.00 
G01 X86.9771 Y12.6160 F254.00 
G01 X88.0618 Y12.6160 
G00 Z2.5400 
G00 X88.0618 Y12.3448 
G01 Z-0.1270 F254.00 
G01 X88.0618 Y12.8872 F254.00 
G00 Z2.5400 
G00 X86.1636 Y12.6160 
G01 Z-0.1270 F254.00 
G01 X86.4348 Y12.6160 F254.00 
G00 Z2.5400 
G00 X86.4348 Y16.1581 
G01 Z-0.1270 F254.00 
G01 X86.4348 Y15.0734 F254.00 
G01 X88.0618 Y15.0734 
G01 X88.0618 Y16.1581 
G00 Z2.5400 
G00 X87.2483 Y15.0734 
G01 Z-0.1270 F254.00 
G01 X87.2483 Y15.6158 F254.00 
G00 Z2.5400 
G00 X86.4348 Y16.7106 
G01 Z-0.1270 F254.00 
G01 X86.4348 Y16.9818 F254.00 
G01 X88.0618 Y16.9818 
G00 Z2.5400 
G00 X88.0618 Y16.7106 
G01 Z-0.1270 F254.00 
G01 X88.0618 Y17.2529 F254.00 
G00 Z2.5400 
G00 X88.0618 Y18.6155 
G01 Z-0.1270 F254.00 
G01 X88.0618 Y18.0732 F254.00 
G01 X87.7906 Y17.8020 
G01 X87.2483 Y17.8020 
G01 X86.9771 Y18.0732 
G01 X86.9771 Y18.6155 
G01 X87.2483 Y18.8867 
G01 X87.5195 Y18.8867 
G01 X87.5195 Y17.8020 
G00 Z2.5400 
G00 X86.9771 Y20.5238 
G01 Z-0.1270 F254.00 
G01 X86.9771 Y19.7103 F254.00 
G01 X87.2483 Y19.4392 
G01 X87.7906 Y19.4392 
G01 X88.0618 Y19.7103 
G01 X88.0618 Y20.5238 
G00 Z2.5400 
G00 X86.7060 Y21.3475 
G01 Z-0.1270 F254.00 
G01 X87.7906 Y21.3475 F254.00 
G01 X88.0618 Y21.6187 
G00 Z2.5400 
G00 X86.9771 Y21.0763 
G01 Z-0.1270 F254.00 
G01 X86.9771 Y21.6187 F254.00 
G00 Z2.5400 
G00 X88.0618 Y22.1678 
G01 Z-0.1270 F254.00 
G01 X86.9771 Y22.1678 F254.00 
G00 Z2.5400 
G00 X87.5195 Y22.1678 
G01 Z-0.1270 F254.00 
G01 X86.9771 Y22.7101 F254.00 
G01 X86.9771 Y22.9813 
G00 Z2.5400 
G00 X88.0618 Y23.8032 
G01 Z-0.1270 F254.00 
G01 X88.0618 Y24.3456 F254.00 
G01 X87.7906 Y24.6167 
G01 X87.2483 Y24.6167 
G01 X86.9771 Y24.3456 
G01 X86.9771 Y23.8032 
G01 X87.2483 Y23.5321 
G01 X87.7906 Y23.5321 
G01 X88.0618 Y23.8032 
G00 Z2.5400 
G00 X88.0618 Y25.1692 
G01 Z-0.1270 F254.00 
G01 X86.9771 Y25.1692 F254.00 
G01 X86.9771 Y25.9827 
G01 X87.2483 Y26.2539 
G01 X88.0618 Y26.2539 
G00 Z2.5400 
G00 X86.9771 Y26.8064 
G01 Z-0.1270 F254.00 
G01 X86.9771 Y27.0775 F254.00 
G01 X88.0618 Y27.0775 
G00 Z2.5400 
G00 X88.0618 Y26.8064 
G01 Z-0.1270 F254.00 
G01 X88.0618 Y27.3487 F254.00 
G00 Z2.5400 
G00 X86.1636 Y27.0775 
G01 Z-0.1270 F254.00 
G01 X86.4348 Y27.0775 F254.00 
G00 Z2.5400 
G00 X86.9771 Y28.9825 
G01 Z-0.1270 F254.00 
G01 X86.9771 Y28.1690 F254.00 
G01 X87.2483 Y27.8978 
G01 X87.7906 Y27.8978 
G01 X88.0618 Y28.1690 
G01 X88.0618 Y28.9825 
G00 Z2.5400 
G00 X88.0618 Y29.5350 
G01 Z-0.1270 F254.00 
G01 X88.0618 Y30.3485 F254.00 
G01 X87.7906 Y30.6196 
G01 X87.5195 Y30.3485 
G01 X87.5195 Y29.8061 
G01 X87.2483 Y29.5350 
G01 X86.9771 Y29.8061 
G01 X86.9771 Y30.6196 
G00 Z2.5400 
G00 X90.7288 Y3.8862 
G01 Z-0.1270 F254.00 
G01 X89.1018 Y3.8862 F254.00 
G01 X89.1018 Y4.9709 
G00 Z2.5400 
G00 X89.9153 Y3.8862 
G01 Z-0.1270 F254.00 
G01 X89.9153 Y4.4285 F254.00 
G00 Z2.5400 
G00 X90.7288 Y5.7945 
G01 Z-0.1270 F254.00 
G01 X90.7288 Y6.3369 F254.00 
G01 X90.4576 Y6.6080 
G01 X89.9153 Y6.6080 
G01 X89.6441 Y6.3369 
G01 X89.6441 Y5.7945 
G01 X89.9153 Y5.5234 
G01 X90.4576 Y5.5234 
G01 X90.7288 Y5.7945 
G00 Z2.5400 
G00 X89.6441 Y7.1605 
G01 Z-0.1270 F254.00 
G01 X90.7288 Y8.2452 F254.00 
G00 Z2.5400 
G00 X90.7288 Y7.1605 
G01 Z-0.1270 F254.00 
G01 X89.6441 Y8.2452 F254.00 
G00 Z2.5400 
G00 X90.7288 Y8.7977 
G01 Z-0.1270 F254.00 
G01 X89.1018 Y8.7977 F254.00 
G01 X89.6441 Y9.3400 
G01 X89.1018 Y9.8823 
G01 X90.7288 Y9.8823 
G00 Z2.5400 
G00 X89.6441 Y10.7060 
G01 Z-0.1270 F254.00 
G01 X89.6441 Y11.2483 F254.00 
G01 X89.9153 Y11.5195 
G01 X90.7288 Y11.5195 
G01 X90.7288 Y10.7060 
G01 X90.4576 Y10.4348 
G01 X90.1865 Y10.7060 
G01 X90.1865 Y11.5195 
G00 Z2.5400 
G00 X89.3730 Y12.3431 
G01 Z-0.1270 F254.00 
G01 X90.4576 Y12.3431 F254.00 
G01 X90.7288 Y12.6143 
G00 Z2.5400 
G00 X89.6441 Y12.0720 
G01 Z-0.1270 F254.00 
G01 X89.6441 Y12.6143 F254.00 
G00 Z2.5400 
G00 X90.7288 Y13.1634 
G01 Z-0.1270 F254.00 
G01 X89.6441 Y13.1634 F254.00 
G00 Z2.5400 
G00 X90.1865 Y13.1634 
G01 Z-0.1270 F254.00 
G01 X89.6441 Y13.7057 F254.00 
G01 X89.6441 Y13.9769 
G00 Z2.5400 
G00 X89.6441 Y14.5277 
G01 Z-0.1270 F254.00 
G01 X89.6441 Y14.7989 F254.00 
G01 X90.7288 Y14.7989 
G00 Z2.5400 
G00 X90.7288 Y14.5277 
G01 Z-0.1270 F254.00 
G01 X90.7288 Y15.0700 F254.00 
G00 Z2.5400 
G00 X88.8306 Y14.7989 
G01 Z-0.1270 F254.00 
G01 X89.1018 Y14.7989 F254.00 
G00 Z2.5400 
G00 X89.6441 Y15.6192 
G01 Z-0.1270 F254.00 
G01 X90.7288 Y16.7038 F254.00 
G00 Z2.5400 
G00 X90.7288 Y15.6192 
G01 Z-0.1270 F254.00 
G01 X89.6441 Y16.7038 F254.00 
G00 Z2.5400 
G00 X90.7288 Y18.8935 
G01 Z-0.1270 F254.00 
G01 X89.1018 Y18.8935 F254.00 
G01 X89.1018 Y19.7070 
G01 X89.3730 Y19.9781 
G01 X89.9153 Y19.9781 
G01 X90.1865 Y19.7070 
G01 X90.1865 Y18.8935 
G00 Z2.5400 
G00 X90.1865 Y19.4358 
G01 Z-0.1270 F254.00 
G01 X90.7288 Y19.9781 F254.00 
G00 Z2.5400 
G00 X90.7288 Y21.3441 
G01 Z-0.1270 F254.00 
G01 X90.7288 Y20.8018 F254.00 
G01 X90.4576 Y20.5306 
G01 X89.9153 Y20.5306 
G01 X89.6441 Y20.8018 
G01 X89.6441 Y21.3441 
G01 X89.9153 Y21.6153 
G01 X90.1865 Y21.6153 
G01 X90.1865 Y20.5306 
G00 Z2.5400 
G00 X89.6441 Y22.1678 
G01 Z-0.1270 F254.00 
G01 X90.7288 Y22.7101 F254.00 
G01 X89.6441 Y23.2524 
G00 Z2.5400 
G00 X90.7288 Y23.8049 
G01 Z-0.1270 F254.00 
G01 X90.4576 Y23.8049 F254.00 
G01 X90.4576 Y24.0761 
G01 X90.7288 Y24.0761 
G01 X90.7288 Y23.8049 
G00 Z2.5400 
G00 X89.3730 Y27.3453 
G01 Z-0.1270 F254.00 
G01 X89.1018 Y27.0742 F254.00 
G01 X89.1018 Y26.5318 
G01 X89.3730 Y26.2607 
G01 X90.4576 Y26.2607 
G01 X90.7288 Y26.5318 
G01 X90.7288 Y27.0742 
G01 X90.4576 Y27.3453 
G00 Z2.5400 
G00 X7.0612 Y20.8788 
G01 Z-0.1270 F254.00 
G01 X8.6882 Y20.8788 F254.00 
G01 X8.6882 Y20.0653 
G01 X8.4170 Y19.7941 
G01 X7.8747 Y19.7941 
G01 X7.6035 Y20.0653 
G01 X7.6035 Y20.8788 
G00 Z2.5400 
G00 X7.6035 Y20.3365 
G01 Z-0.1270 F254.00 
G01 X7.0612 Y19.7941 F254.00 
G00 Z2.5400 
G00 X7.0612 Y18.4281 
G01 Z-0.1270 F254.00 
G01 X7.0612 Y18.9705 F254.00 
G01 X7.3324 Y19.2416 
G01 X7.8747 Y19.2416 
G01 X8.1459 Y18.9705 
G01 X8.1459 Y18.4281 
G01 X7.8747 Y18.1570 
G01 X7.6035 Y18.1570 
G01 X7.6035 Y19.2416 
G00 Z2.5400 
G00 X7.0612 Y17.6045 
G01 Z-0.1270 F254.00 
G01 X7.0612 Y16.7910 F254.00 
G01 X7.3324 Y16.5198 
G01 X7.6035 Y16.7910 
G01 X7.6035 Y17.3333 
G01 X7.8747 Y17.6045 
G01 X8.1459 Y17.3333 
G01 X8.1459 Y16.5198 
G00 Z2.5400 
G00 X7.0612 Y15.1538 
G01 Z-0.1270 F254.00 
G01 X7.0612 Y15.6962 F254.00 
G01 X7.3324 Y15.9673 
G01 X7.8747 Y15.9673 
G01 X8.1459 Y15.6962 
G01 X8.1459 Y15.1538 
G01 X7.8747 Y14.8827 
G01 X7.6035 Y14.8827 
G01 X7.6035 Y15.9673 
G00 Z2.5400 
G00 X8.4170 Y14.0590 
G01 Z-0.1270 F254.00 
G01 X7.3324 Y14.0590 F254.00 
G01 X7.0612 Y13.7878 
G00 Z2.5400 
G00 X8.1459 Y14.3302 
G01 Z-0.1270 F254.00 
G01 X8.1459 Y13.7878 F254.00 
G00 Z2.5400 
G00 X7.0612 Y30.4038 
G01 Z-0.1270 F254.00 
G01 X8.6882 Y30.4038 F254.00 
G01 X8.6882 Y29.5903 
G01 X8.4170 Y29.3191 
G01 X7.8747 Y29.3191 
G01 X7.6035 Y29.5903 
G01 X7.6035 Y30.4038 
G00 Z2.5400 
G00 X7.0612 Y28.7666 
G01 Z-0.1270 F254.00 
G01 X8.1459 Y28.7666 F254.00 
G00 Z2.5400 
G00 X7.6035 Y28.7666 
G01 Z-0.1270 F254.00 
G01 X8.1459 Y28.2243 F254.00 
G01 X8.1459 Y27.9532 
G00 Z2.5400 
G00 X7.0612 Y27.1312 
G01 Z-0.1270 F254.00 
G01 X7.0612 Y26.5889 F254.00 
G01 X7.3324 Y26.3177 
G01 X7.8747 Y26.3177 
G01 X8.1459 Y26.5889 
G01 X8.1459 Y27.1312 
G01 X7.8747 Y27.4023 
G01 X7.3324 Y27.4023 
G01 X7.0612 Y27.1312 
G00 Z2.5400 
G00 X6.5189 Y25.2229 
G01 Z-0.1270 F254.00 
G01 X6.5189 Y24.9517 F254.00 
G01 X6.7900 Y24.6805 
G01 X8.1459 Y24.6805 
G01 X8.1459 Y25.4940 
G01 X7.8747 Y25.7652 
G01 X7.3324 Y25.7652 
G01 X7.0612 Y25.4940 
G01 X7.0612 Y24.6805 
G00 Z2.5400 
G00 X7.0612 Y24.1280 
G01 Z-0.1270 F254.00 
G01 X7.3324 Y24.1280 F254.00 
G01 X7.3324 Y23.8569 
G01 X7.0612 Y23.8569 
G01 X7.0612 Y24.1280 
G00 Z2.5400 
G00 X18.1737 Y37.7394 
G01 Z-0.1270 F254.00 
G01 X18.1737 Y36.3836 F254.00 
G01 X18.4449 Y36.1125 
G01 X18.9872 Y36.1125 
G01 X19.2584 Y36.3836 
G01 X19.2584 Y37.7394 
G00 Z2.5400 
G00 X19.8109 Y36.1125 
G01 Z-0.1270 F254.00 
G01 X19.8109 Y37.1971 F254.00 
G01 X20.3532 Y37.7394 
G01 X20.8955 Y37.1971 
G01 X20.8955 Y36.1125 
G00 Z2.5400 
G00 X19.8109 Y36.9259 
G01 Z-0.1270 F254.00 
G01 X20.8955 Y36.9259 F254.00 
G00 Z2.5400 
G00 X21.4480 Y36.1125 
G01 Z-0.1270 F254.00 
G01 X21.4480 Y37.7394 F254.00 
G01 X22.2615 Y37.7394 
G01 X22.5327 Y37.4683 
G01 X22.5327 Y36.9259 
G01 X22.2615 Y36.6548 
G01 X21.4480 Y36.6548 
G00 Z2.5400 
G00 X21.9903 Y36.6548 
G01 Z-0.1270 F254.00 
G01 X22.5327 Y36.1125 F254.00 
G00 Z2.5400 
G00 X23.6275 Y36.1125 
G01 Z-0.1270 F254.00 
G01 X23.6275 Y37.7394 F254.00 
G00 Z2.5400 
G00 X23.0852 Y37.7394 
G01 Z-0.1270 F254.00 
G01 X24.1698 Y37.7394 F254.00 
G00 Z2.5400 
G00 X23.6968 Y18.3059 
G01 Z-0.1270 F254.00 
G01 X23.6968 Y17.2212 F254.00 
G01 X25.3238 Y17.2212 
G01 X25.3238 Y18.3059 
G00 Z2.5400 
G00 X24.5103 Y17.2212 
G01 Z-0.1270 F254.00 
G01 X24.5103 Y17.7635 F254.00 
G00 Z2.5400 
G00 X23.9680 Y19.9430 
G01 Z-0.1270 F254.00 
G01 X23.6968 Y19.6718 F254.00 
G01 X23.6968 Y19.1295 
G01 X23.9680 Y18.8584 
G01 X24.2391 Y18.8584 
G01 X24.5103 Y19.1295 
G01 X24.5103 Y19.6718 
G01 X24.7815 Y19.9430 
G01 X25.0526 Y19.9430 
G01 X25.3238 Y19.6718 
G01 X25.3238 Y19.1295 
G01 X25.0526 Y18.8584 
G00 Z2.5400 
G00 X25.3238 Y20.4955 
G01 Z-0.1270 F254.00 
G01 X23.6968 Y20.4955 F254.00 
G01 X23.6968 Y21.3090 
G01 X23.9680 Y21.5802 
G01 X24.5103 Y21.5802 
G01 X24.7815 Y21.3090 
G01 X24.7815 Y20.4955 
G00 Z2.5400 
G00 X24.5103 Y22.1327 
G01 Z-0.1270 F254.00 
G01 X24.5103 Y23.2173 F254.00 
G00 Z2.5400 
G00 X23.9680 Y23.7698 
G01 Z-0.1270 F254.00 
G01 X23.6968 Y24.0410 F254.00 
G01 X23.6968 Y24.5833 
G01 X23.9680 Y24.8545 
G01 X24.2391 Y24.8545 
G01 X24.5103 Y24.5833 
G01 X24.7815 Y24.8545 
G01 X25.0526 Y24.8545 
G01 X25.3238 Y24.5833 
G01 X25.3238 Y24.0410 
G01 X25.0526 Y23.7698 
G01 X24.7815 Y23.7698 
G01 X24.5103 Y24.0410 
G01 X24.2391 Y23.7698 
G01 X23.9680 Y23.7698 
G00 Z2.5400 
G00 X24.5103 Y24.0410 
G01 Z-0.1270 F254.00 
G01 X24.5103 Y24.5833 F254.00 
G00 Z2.5400 
G00 X25.3238 Y26.4916 
G01 Z-0.1270 F254.00 
G01 X25.3238 Y25.4070 F254.00 
G01 X24.2391 Y26.4916 
G01 X23.9680 Y26.4916 
G01 X23.6968 Y26.2205 
G01 X23.6968 Y25.6781 
G01 X23.9680 Y25.4070 
G00 Z2.5400 
G00 X23.6968 Y28.1288 
G01 Z-0.1270 F254.00 
G01 X23.9680 Y27.5865 F254.00 
G01 X24.5103 Y27.0441 
G01 X25.0526 Y27.0441 
G01 X25.3238 Y27.3153 
G01 X25.3238 Y27.8576 
G01 X25.0526 Y28.1288 
G01 X24.7815 Y28.1288 
G01 X24.5103 Y27.8576 
G01 X24.5103 Y27.0441 
G00 Z2.5400 
G00 X23.6968 Y29.7660 
G01 Z-0.1270 F254.00 
G01 X23.9680 Y29.2236 F254.00 
G01 X24.5103 Y28.6813 
G01 X25.0526 Y28.6813 
G01 X25.3238 Y28.9525 
G01 X25.3238 Y29.4948 
G01 X25.0526 Y29.7660 
G01 X24.7815 Y29.7660 
G01 X24.5103 Y29.4948 
G01 X24.5103 Y28.6813 
G00 Z38.1000 
M05
M02
