(.../pcb-gcode-3.6.2.4/pcb-gcode.ulp)
(Copyright 2005 - 2012 by John Johnson)
(See readme.txt for licensing terms.)
(This file generated from the board:)
(.../LedMatrixBoard/ControlBoard3.brd)
(Current profile is .../pcb-gcode-3.6.2.4/profiles/emc.pp  )
(This file generated 4.3.2016 15:23)
(Settings from pcb-machine.h)
(spindle on time = 0.0000)
(  Tool Size)
(0.2000 )
(spindle speed = 30000.0000)
(tool change at 0.0000 0.0000 25.4000 )
(feed rate xy = F508.00 )
(feed rate z  = F254.00 )
(Z Axis Settings)
(  High     Up        Down     Drill)
(12.7000 	2.5400 	-0.2000 	-0.8128 )
(Settings from pcb-defaults.h)
(isolate min = 0.0254)
(isolate max = 0.5080)
(isolate step = 0.1270)
(Generated top outlines, )
(Unit of measure: mm)
(Metric Mode)
G21
(Absolute Coordinates)
G90
S30000
G00 Z12.7000 
G00 X0.0000 Y0.0000 
M03
G04 P0.000000
G00 Z2.5400 
G00 X1.1595 Y1.2206 
G01 Z-0.2000 F254.00 
G01 X1.1162 Y1.2956 F508.00 
G01 X1.0938 Y1.3791 
G01 X1.0938 Y32.9767 
G01 X1.0938 Y33.0633 
G01 X1.1162 Y33.1468 
G01 X1.1595 Y33.2218 
G01 X1.2206 Y33.2829 
G01 X1.2956 Y33.3262 
G01 X1.3791 Y33.3486 
G01 X10.4664 Y33.3486 
G01 X10.4664 Y46.0343 
G01 X10.4664 Y46.1209 
G01 X10.4888 Y46.2044 
G01 X10.5320 Y46.2794 
G01 X10.5932 Y46.3405 
G01 X10.6682 Y46.3838 
G01 X10.7517 Y46.4062 
G01 X89.5783 Y46.4062 
G01 X89.6618 Y46.3838 
G01 X89.7368 Y46.3405 
G01 X89.7979 Y46.2794 
G01 X89.8412 Y46.2044 
G01 X89.8636 Y46.1209 
G01 X89.8636 Y33.3486 
G01 X98.6209 Y33.3486 
G01 X98.7044 Y33.3262 
G01 X98.7794 Y33.2829 
G01 X98.8405 Y33.2218 
G01 X98.8838 Y33.1468 
G01 X98.9062 Y33.0633 
G01 X98.9062 Y1.3791 
G01 X98.8838 Y1.2956 
G01 X98.8405 Y1.2206 
G01 X98.7794 Y1.1595 
G01 X98.7044 Y1.1162 
G01 X98.6209 Y1.0938 
G01 X1.3791 Y1.0938 
G01 X1.2956 Y1.1162 
G01 X1.2206 Y1.1595 
G01 X1.1595 Y1.2206 
G00 Z2.5400 
G00 X9.3713 Y7.4390 
G01 Z-0.2000 F254.00 
G01 X9.5586 Y7.3614 F508.00 
G01 X10.7614 Y7.3614 
G01 X10.9487 Y7.4390 
G01 X11.0920 Y7.5823 
G01 X11.0988 Y7.5986 
G01 X11.1044 Y7.6196 
G01 X11.1153 Y7.6384 
G01 X11.1236 Y7.6585 
G01 X11.1368 Y7.6757 
G01 X11.1477 Y7.6946 
G01 X11.1630 Y7.7099 
G01 X11.1762 Y7.7272 
G01 X11.1935 Y7.7404 
G01 X11.2088 Y7.7557 
G01 X11.2277 Y7.7666 
G01 X11.2449 Y7.7798 
G01 X11.2649 Y7.7881 
G01 X11.2838 Y7.7990 
G01 X11.3047 Y7.8046 
G01 X11.3248 Y7.8129 
G01 X11.3464 Y7.8158 
G01 X11.3673 Y7.8214 
G01 X11.3891 Y7.8214 
G01 X11.4106 Y7.8242 
G01 X11.4321 Y7.8214 
G01 X13.1501 Y7.8214 
G01 X13.2336 Y7.7990 
G01 X13.3086 Y7.7557 
G01 X13.4113 Y7.6530 
G01 X13.5986 Y7.5754 
G01 X14.0685 Y7.5754 
G01 X14.0901 Y7.5782 
G01 X14.1116 Y7.5754 
G01 X14.1333 Y7.5754 
G01 X14.1543 Y7.5698 
G01 X14.1759 Y7.5669 
G01 X14.1959 Y7.5586 
G01 X14.2169 Y7.5530 
G01 X14.2357 Y7.5421 
G01 X14.2558 Y7.5338 
G01 X14.2730 Y7.5206 
G01 X14.2918 Y7.5097 
G01 X14.3072 Y7.4944 
G01 X14.3244 Y7.4811 
G01 X14.3377 Y7.4639 
G01 X14.3530 Y7.4486 
G01 X14.3639 Y7.4297 
G01 X14.3771 Y7.4125 
G01 X14.3854 Y7.3924 
G01 X14.3963 Y7.3736 
G01 X14.4019 Y7.3526 
G01 X14.4102 Y7.3325 
G01 X14.4130 Y7.3110 
G01 X14.4187 Y7.2901 
G01 X14.4187 Y7.2683 
G01 X14.4215 Y7.2468 
G01 X14.4187 Y7.2252 
G01 X14.4187 Y7.2035 
G01 X14.4130 Y7.1825 
G01 X14.4106 Y7.1641 
G01 X14.4106 Y6.8380 
G01 X14.5346 Y6.5387 
G01 X15.1078 Y5.9655 
G01 X15.4137 Y5.6596 
G01 X15.7130 Y5.5356 
G01 X19.2120 Y5.5356 
G01 X19.5113 Y5.6596 
G01 X19.8955 Y6.0438 
G01 X19.9567 Y6.1049 
G01 X20.0316 Y6.1482 
G01 X20.1152 Y6.1706 
G01 X20.5611 Y6.1706 
G01 X20.6446 Y6.1482 
G01 X20.6888 Y6.1227 
G01 X20.7196 Y6.1049 
G01 X20.7807 Y6.0438 
G01 X20.8240 Y5.9688 
G01 X20.8454 Y5.8888 
G01 X20.8464 Y5.8853 
G01 X20.8464 Y5.7987 
G01 X20.8464 Y5.7604 
G01 X20.8496 Y5.7604 
G01 X20.8496 Y5.9599 
G01 X20.8687 Y6.0060 
G01 X20.9040 Y6.0413 
G01 X20.9501 Y6.0604 
G01 X23.4999 Y6.0604 
G01 X23.5460 Y6.0413 
G01 X23.5813 Y6.0060 
G01 X23.6004 Y5.9599 
G01 X23.6004 Y5.7604 
G01 X23.6036 Y5.7604 
G01 X23.6036 Y5.8853 
G01 X23.6260 Y5.9688 
G01 X23.6693 Y6.0438 
G01 X23.7304 Y6.1049 
G01 X23.8054 Y6.1482 
G01 X23.8889 Y6.1706 
G01 X66.8370 Y6.1706 
G01 X67.1363 Y6.2946 
G01 X74.6953 Y13.8536 
G01 X74.7565 Y13.9147 
G01 X74.8314 Y13.9580 
G01 X74.9150 Y13.9804 
G01 X77.4164 Y13.9804 
G01 X77.6037 Y14.0580 
G01 X77.7470 Y14.2013 
G01 X77.7687 Y14.2537 
G01 X77.7743 Y14.2746 
G01 X77.7852 Y14.2934 
G01 X77.7935 Y14.3135 
G01 X77.8067 Y14.3308 
G01 X77.8176 Y14.3496 
G01 X77.8329 Y14.3649 
G01 X77.8461 Y14.3822 
G01 X77.8634 Y14.3954 
G01 X77.8787 Y14.4107 
G01 X77.8976 Y14.4216 
G01 X77.9148 Y14.4348 
G01 X77.9349 Y14.4431 
G01 X77.9537 Y14.4540 
G01 X77.9747 Y14.4596 
G01 X77.9947 Y14.4679 
G01 X78.0163 Y14.4708 
G01 X78.0373 Y14.4764 
G01 X78.0590 Y14.4764 
G01 X78.0805 Y14.4792 
G01 X78.1020 Y14.4764 
G01 X81.3333 Y14.4764 
G01 X81.4086 Y14.5517 
G01 X81.4086 Y15.3461 
G01 X81.4310 Y15.4296 
G01 X81.4742 Y15.5046 
G01 X81.5354 Y15.5657 
G01 X81.6104 Y15.6090 
G01 X81.6939 Y15.6314 
G01 X82.4119 Y15.6314 
G01 X82.4446 Y15.6402 
G01 X82.4740 Y15.6571 
G01 X82.4979 Y15.6810 
G01 X82.5148 Y15.7104 
G01 X82.5236 Y15.7431 
G01 X82.5236 Y16.0096 
G01 X82.5204 Y16.0096 
G01 X82.5204 Y15.7351 
G01 X82.5013 Y15.6890 
G01 X82.4660 Y15.6537 
G01 X82.4199 Y15.6346 
G01 X78.8701 Y15.6346 
G01 X78.8240 Y15.6537 
G01 X78.7887 Y15.6890 
G01 X78.7696 Y15.7351 
G01 X78.7696 Y17.2849 
G01 X78.7887 Y17.3310 
G01 X78.8240 Y17.3663 
G01 X78.8701 Y17.3854 
G01 X82.4199 Y17.3854 
G01 X82.4660 Y17.3663 
G01 X82.5013 Y17.3310 
G01 X82.5204 Y17.2849 
G01 X82.5204 Y17.0104 
G01 X82.5236 Y17.0104 
G01 X82.5236 Y17.2769 
G01 X82.5148 Y17.3096 
G01 X82.4979 Y17.3390 
G01 X82.4740 Y17.3629 
G01 X82.4446 Y17.3798 
G01 X82.4119 Y17.3886 
G01 X81.6939 Y17.3886 
G01 X81.6104 Y17.4110 
G01 X81.5354 Y17.4542 
G01 X81.4742 Y17.5154 
G01 X81.4310 Y17.5904 
G01 X81.4086 Y17.6739 
G01 X81.4086 Y17.8861 
G01 X81.4310 Y17.9696 
G01 X81.4742 Y18.0446 
G01 X81.5354 Y18.1057 
G01 X81.6104 Y18.1490 
G01 X81.6939 Y18.1714 
G01 X82.4119 Y18.1714 
G01 X82.4446 Y18.1802 
G01 X82.4740 Y18.1971 
G01 X82.4979 Y18.2210 
G01 X82.5148 Y18.2504 
G01 X82.5236 Y18.2831 
G01 X82.5236 Y18.5496 
G01 X82.5204 Y18.5496 
G01 X82.5204 Y18.2751 
G01 X82.5013 Y18.2290 
G01 X82.4660 Y18.1937 
G01 X82.4199 Y18.1746 
G01 X78.8701 Y18.1746 
G01 X78.8240 Y18.1937 
G01 X78.7887 Y18.2290 
G01 X78.7696 Y18.2751 
G01 X78.7696 Y19.8249 
G01 X78.7887 Y19.8710 
G01 X78.8240 Y19.9063 
G01 X78.8701 Y19.9254 
G01 X82.4199 Y19.9254 
G01 X82.4660 Y19.9063 
G01 X82.5013 Y19.8710 
G01 X82.5204 Y19.8249 
G01 X82.5204 Y19.5504 
G01 X82.5236 Y19.5504 
G01 X82.5236 Y19.8169 
G01 X82.5148 Y19.8496 
G01 X82.4979 Y19.8790 
G01 X82.4740 Y19.9029 
G01 X82.4446 Y19.9198 
G01 X82.4119 Y19.9286 
G01 X81.6939 Y19.9286 
G01 X81.6104 Y19.9510 
G01 X81.5354 Y19.9943 
G01 X81.4742 Y20.0554 
G01 X81.4310 Y20.1304 
G01 X81.4086 Y20.2139 
G01 X81.4086 Y20.4261 
G01 X81.4310 Y20.5096 
G01 X81.4742 Y20.5846 
G01 X81.5354 Y20.6457 
G01 X81.6104 Y20.6890 
G01 X81.6939 Y20.7114 
G01 X82.4119 Y20.7114 
G01 X82.4446 Y20.7202 
G01 X82.4740 Y20.7371 
G01 X82.4979 Y20.7610 
G01 X82.5148 Y20.7904 
G01 X82.5236 Y20.8231 
G01 X82.5236 Y21.0896 
G01 X82.5204 Y21.0896 
G01 X82.5204 Y20.8151 
G01 X82.5013 Y20.7690 
G01 X82.4660 Y20.7337 
G01 X82.4199 Y20.7146 
G01 X78.8701 Y20.7146 
G01 X78.8240 Y20.7337 
G01 X78.7887 Y20.7690 
G01 X78.7696 Y20.8151 
G01 X78.7696 Y22.3649 
G01 X78.7887 Y22.4110 
G01 X78.8240 Y22.4463 
G01 X78.8701 Y22.4654 
G01 X82.4199 Y22.4654 
G01 X82.4660 Y22.4463 
G01 X82.5013 Y22.4110 
G01 X82.5204 Y22.3649 
G01 X82.5204 Y22.0904 
G01 X82.5236 Y22.0904 
G01 X82.5236 Y22.3569 
G01 X82.5148 Y22.3896 
G01 X82.4979 Y22.4190 
G01 X82.4740 Y22.4429 
G01 X82.4446 Y22.4598 
G01 X82.4119 Y22.4686 
G01 X81.6939 Y22.4686 
G01 X81.6104 Y22.4910 
G01 X81.5354 Y22.5343 
G01 X81.4742 Y22.5954 
G01 X81.4310 Y22.6704 
G01 X81.4086 Y22.7539 
G01 X81.4086 Y22.9661 
G01 X81.4310 Y23.0496 
G01 X81.4742 Y23.1246 
G01 X81.5354 Y23.1857 
G01 X81.6104 Y23.2290 
G01 X81.6939 Y23.2514 
G01 X82.4119 Y23.2514 
G01 X82.4446 Y23.2602 
G01 X82.4740 Y23.2771 
G01 X82.4979 Y23.3010 
G01 X82.5148 Y23.3304 
G01 X82.5236 Y23.3631 
G01 X82.5236 Y23.6296 
G01 X82.5204 Y23.6296 
G01 X82.5204 Y23.3551 
G01 X82.5013 Y23.3090 
G01 X82.4660 Y23.2737 
G01 X82.4199 Y23.2546 
G01 X78.8701 Y23.2546 
G01 X78.8240 Y23.2737 
G01 X78.7887 Y23.3090 
G01 X78.7696 Y23.3551 
G01 X78.7696 Y24.9049 
G01 X78.7887 Y24.9510 
G01 X78.8240 Y24.9863 
G01 X78.8701 Y25.0054 
G01 X82.4199 Y25.0054 
G01 X82.4660 Y24.9863 
G01 X82.5013 Y24.9510 
G01 X82.5204 Y24.9049 
G01 X82.5204 Y24.6304 
G01 X82.5236 Y24.6304 
G01 X82.5236 Y24.8969 
G01 X82.5148 Y24.9296 
G01 X82.4979 Y24.9590 
G01 X82.4740 Y24.9829 
G01 X82.4446 Y24.9998 
G01 X82.4119 Y25.0086 
G01 X81.6939 Y25.0086 
G01 X81.6104 Y25.0310 
G01 X81.5354 Y25.0742 
G01 X81.4742 Y25.1354 
G01 X81.4310 Y25.2104 
G01 X81.4086 Y25.2939 
G01 X81.4086 Y25.5061 
G01 X81.4310 Y25.5896 
G01 X81.4742 Y25.6646 
G01 X81.5354 Y25.7257 
G01 X81.6104 Y25.7690 
G01 X81.6939 Y25.7914 
G01 X82.4119 Y25.7914 
G01 X82.4446 Y25.8002 
G01 X82.4740 Y25.8171 
G01 X82.4979 Y25.8410 
G01 X82.5148 Y25.8704 
G01 X82.5236 Y25.9031 
G01 X82.5236 Y26.1696 
G01 X82.5204 Y26.1696 
G01 X82.5204 Y25.8951 
G01 X82.5013 Y25.8490 
G01 X82.4660 Y25.8137 
G01 X82.4199 Y25.7946 
G01 X78.8701 Y25.7946 
G01 X78.8240 Y25.8137 
G01 X78.7887 Y25.8490 
G01 X78.7696 Y25.8951 
G01 X78.7696 Y27.4449 
G01 X78.7887 Y27.4910 
G01 X78.8240 Y27.5263 
G01 X78.8701 Y27.5454 
G01 X82.4199 Y27.5454 
G01 X82.4660 Y27.5263 
G01 X82.5013 Y27.4910 
G01 X82.5204 Y27.4449 
G01 X82.5204 Y27.1704 
G01 X82.5236 Y27.1704 
G01 X82.5236 Y27.4369 
G01 X82.5148 Y27.4696 
G01 X82.4979 Y27.4990 
G01 X82.4740 Y27.5229 
G01 X82.4446 Y27.5398 
G01 X82.4119 Y27.5486 
G01 X81.6939 Y27.5486 
G01 X81.6104 Y27.5710 
G01 X81.5354 Y27.6142 
G01 X81.4742 Y27.6754 
G01 X81.4310 Y27.7504 
G01 X81.4086 Y27.8339 
G01 X81.4086 Y28.0461 
G01 X81.4310 Y28.1296 
G01 X81.4742 Y28.2046 
G01 X81.5354 Y28.2657 
G01 X81.6104 Y28.3090 
G01 X81.6939 Y28.3314 
G01 X82.4119 Y28.3314 
G01 X82.4446 Y28.3402 
G01 X82.4740 Y28.3571 
G01 X82.4979 Y28.3810 
G01 X82.5148 Y28.4104 
G01 X82.5236 Y28.4431 
G01 X82.5236 Y28.7096 
G01 X82.5204 Y28.7096 
G01 X82.5204 Y28.4351 
G01 X82.5013 Y28.3890 
G01 X82.4660 Y28.3537 
G01 X82.4199 Y28.3346 
G01 X78.8701 Y28.3346 
G01 X78.8240 Y28.3537 
G01 X78.7887 Y28.3890 
G01 X78.7696 Y28.4351 
G01 X78.7696 Y29.9849 
G01 X78.7887 Y30.0310 
G01 X78.8240 Y30.0663 
G01 X78.8701 Y30.0854 
G01 X82.4199 Y30.0854 
G01 X82.4660 Y30.0663 
G01 X82.5013 Y30.0310 
G01 X82.5204 Y29.9849 
G01 X82.5204 Y29.7104 
G01 X82.5236 Y29.7104 
G01 X82.5236 Y29.9769 
G01 X82.5148 Y30.0096 
G01 X82.4979 Y30.0390 
G01 X82.4740 Y30.0629 
G01 X82.4446 Y30.0798 
G01 X82.4119 Y30.0886 
G01 X81.6939 Y30.0886 
G01 X81.6104 Y30.1110 
G01 X81.5354 Y30.1543 
G01 X81.4742 Y30.2154 
G01 X81.4310 Y30.2904 
G01 X81.4086 Y30.3739 
G01 X81.4086 Y30.5861 
G01 X81.4310 Y30.6696 
G01 X81.4742 Y30.7446 
G01 X81.5354 Y30.8057 
G01 X81.6104 Y30.8490 
G01 X81.6939 Y30.8714 
G01 X82.4119 Y30.8714 
G01 X82.4446 Y30.8802 
G01 X82.4740 Y30.8971 
G01 X82.4979 Y30.9210 
G01 X82.5148 Y30.9504 
G01 X82.5236 Y30.9831 
G01 X82.5236 Y31.2496 
G01 X82.5204 Y31.2496 
G01 X82.5204 Y30.9751 
G01 X82.5013 Y30.9290 
G01 X82.4660 Y30.8937 
G01 X82.4199 Y30.8746 
G01 X78.8701 Y30.8746 
G01 X78.8240 Y30.8937 
G01 X78.7887 Y30.9290 
G01 X78.7696 Y30.9751 
G01 X78.7696 Y32.5249 
G01 X78.7887 Y32.5710 
G01 X78.8240 Y32.6063 
G01 X78.8701 Y32.6254 
G01 X82.4199 Y32.6254 
G01 X82.4660 Y32.6063 
G01 X82.5013 Y32.5710 
G01 X82.5204 Y32.5249 
G01 X82.5204 Y32.2504 
G01 X82.5236 Y32.2504 
G01 X82.5236 Y32.5169 
G01 X82.5148 Y32.5496 
G01 X82.4979 Y32.5790 
G01 X82.4845 Y32.6003 
G01 X82.4713 Y32.6175 
G01 X82.4630 Y32.6376 
G01 X82.4521 Y32.6564 
G01 X82.4465 Y32.6774 
G01 X82.4382 Y32.6975 
G01 X82.4354 Y32.7190 
G01 X82.4297 Y32.7400 
G01 X82.4297 Y32.7617 
G01 X82.4269 Y32.7832 
G01 X82.4297 Y32.8048 
G01 X82.4297 Y32.8265 
G01 X82.4354 Y32.8475 
G01 X82.4382 Y32.8690 
G01 X82.4465 Y32.8891 
G01 X82.4521 Y32.9101 
G01 X82.4630 Y32.9289 
G01 X82.4713 Y32.9490 
G01 X82.4845 Y32.9662 
G01 X82.4954 Y32.9850 
G01 X82.5107 Y33.0004 
G01 X82.5240 Y33.0176 
G01 X82.5412 Y33.0308 
G01 X82.5566 Y33.0462 
G01 X82.5754 Y33.0570 
G01 X82.5926 Y33.0703 
G01 X82.6127 Y33.0786 
G01 X82.6315 Y33.0894 
G01 X82.6525 Y33.0951 
G01 X82.6837 Y33.1080 
G01 X82.8270 Y33.2513 
G01 X82.8487 Y33.3037 
G01 X82.8543 Y33.3246 
G01 X82.8652 Y33.3434 
G01 X82.8735 Y33.3635 
G01 X82.8867 Y33.3808 
G01 X82.8976 Y33.3996 
G01 X82.9129 Y33.4149 
G01 X82.9262 Y33.4322 
G01 X82.9434 Y33.4454 
G01 X82.9587 Y33.4607 
G01 X82.9776 Y33.4716 
G01 X82.9948 Y33.4848 
G01 X83.0149 Y33.4931 
G01 X83.0337 Y33.5040 
G01 X83.0547 Y33.5096 
G01 X83.0747 Y33.5179 
G01 X83.0963 Y33.5208 
G01 X83.1172 Y33.5264 
G01 X83.1390 Y33.5264 
G01 X83.1605 Y33.5292 
G01 X83.1820 Y33.5264 
G01 X87.1469 Y33.5264 
G01 X87.4275 Y33.6427 
G01 X87.6580 Y33.8731 
G01 X88.9123 Y35.1274 
G01 X89.0286 Y35.4081 
G01 X89.0286 Y41.4269 
G01 X88.9123 Y41.7075 
G01 X88.6819 Y41.9380 
G01 X85.5225 Y45.0973 
G01 X85.2419 Y45.2136 
G01 X37.3131 Y45.2136 
G01 X37.0324 Y45.0973 
G01 X36.8020 Y44.8669 
G01 X25.0925 Y33.1574 
G01 X25.0314 Y33.0962 
G01 X24.9564 Y33.0530 
G01 X24.8729 Y33.0306 
G01 X23.1286 Y33.0306 
G01 X22.9413 Y32.9530 
G01 X22.7980 Y32.8097 
G01 X22.7204 Y32.6224 
G01 X22.7204 Y30.4260 
G01 X22.7252 Y30.4081 
G01 X22.7335 Y30.3880 
G01 X22.7363 Y30.3665 
G01 X22.7420 Y30.3455 
G01 X22.7420 Y30.3237 
G01 X22.7448 Y30.3022 
G01 X22.7420 Y30.2807 
G01 X22.7420 Y30.2589 
G01 X22.7363 Y30.2380 
G01 X22.7335 Y30.2164 
G01 X22.7252 Y30.1963 
G01 X22.7196 Y30.1754 
G01 X22.7087 Y30.1566 
G01 X22.7004 Y30.1365 
G01 X22.6872 Y30.1193 
G01 X22.6763 Y30.1004 
G01 X22.6610 Y30.0851 
G01 X22.6477 Y30.0678 
G01 X22.6305 Y30.0546 
G01 X22.6151 Y30.0392 
G01 X22.5963 Y30.0284 
G01 X22.5791 Y30.0152 
G01 X22.5590 Y30.0069 
G01 X22.5402 Y29.9960 
G01 X22.5192 Y29.9904 
G01 X22.4992 Y29.9821 
G01 X22.4776 Y29.9792 
G01 X22.4566 Y29.9736 
G01 X22.4349 Y29.9736 
G01 X22.4134 Y29.9708 
G01 X22.3918 Y29.9736 
G01 X12.6970 Y29.9736 
G01 X12.6755 Y29.9708 
G01 X12.6540 Y29.9736 
G01 X12.6323 Y29.9736 
G01 X12.6113 Y29.9792 
G01 X12.5897 Y29.9821 
G01 X12.5697 Y29.9904 
G01 X12.5487 Y29.9960 
G01 X12.5299 Y30.0069 
G01 X12.5098 Y30.0152 
G01 X12.4926 Y30.0284 
G01 X12.4737 Y30.0392 
G01 X12.4584 Y30.0546 
G01 X12.4412 Y30.0678 
G01 X12.4279 Y30.0851 
G01 X12.4126 Y30.1004 
G01 X12.4017 Y30.1192 
G01 X12.3885 Y30.1365 
G01 X12.3802 Y30.1566 
G01 X12.3693 Y30.1754 
G01 X12.3637 Y30.1963 
G01 X12.3420 Y30.2487 
G01 X12.1987 Y30.3920 
G01 X12.0114 Y30.4696 
G01 X8.3086 Y30.4696 
G01 X8.1213 Y30.3920 
G01 X7.9780 Y30.2487 
G01 X7.9563 Y30.1963 
G01 X7.9507 Y30.1754 
G01 X7.9398 Y30.1566 
G01 X7.9315 Y30.1365 
G01 X7.9183 Y30.1192 
G01 X7.9074 Y30.1004 
G01 X7.8921 Y30.0851 
G01 X7.8788 Y30.0678 
G01 X7.8616 Y30.0546 
G01 X7.8462 Y30.0392 
G01 X7.8274 Y30.0284 
G01 X7.8102 Y30.0152 
G01 X7.7901 Y30.0069 
G01 X7.7713 Y29.9960 
G01 X7.7503 Y29.9904 
G01 X7.7303 Y29.9821 
G01 X7.7087 Y29.9792 
G01 X7.6877 Y29.9736 
G01 X7.6660 Y29.9736 
G01 X7.6445 Y29.9708 
G01 X7.6230 Y29.9736 
G01 X5.0267 Y29.9736 
G01 X4.9514 Y29.8983 
G01 X4.9514 Y29.1039 
G01 X4.9290 Y29.0204 
G01 X4.8857 Y28.9454 
G01 X4.8246 Y28.8843 
G01 X4.7496 Y28.8410 
G01 X4.6661 Y28.8186 
G01 X3.3131 Y28.8186 
G01 X3.2804 Y28.8098 
G01 X3.2510 Y28.7929 
G01 X3.2271 Y28.7690 
G01 X3.2102 Y28.7396 
G01 X3.2014 Y28.7069 
G01 X3.2014 Y28.4404 
G01 X3.2046 Y28.4404 
G01 X3.2046 Y28.7149 
G01 X3.2237 Y28.7610 
G01 X3.2590 Y28.7963 
G01 X3.3051 Y28.8154 
G01 X6.8549 Y28.8154 
G01 X6.9010 Y28.7963 
G01 X6.9363 Y28.7610 
G01 X6.9554 Y28.7149 
G01 X6.9554 Y27.1651 
G01 X6.9363 Y27.1190 
G01 X6.9010 Y27.0837 
G01 X6.8549 Y27.0646 
G01 X3.3051 Y27.0646 
G01 X3.2590 Y27.0837 
G01 X3.2237 Y27.1190 
G01 X3.2046 Y27.1651 
G01 X3.2046 Y27.4396 
G01 X3.2014 Y27.4396 
G01 X3.2014 Y27.1731 
G01 X3.2102 Y27.1404 
G01 X3.2271 Y27.1110 
G01 X3.2510 Y27.0871 
G01 X3.2804 Y27.0702 
G01 X3.3131 Y27.0614 
G01 X4.6661 Y27.0614 
G01 X4.7496 Y27.0390 
G01 X4.8246 Y26.9957 
G01 X4.8857 Y26.9346 
G01 X4.9290 Y26.8596 
G01 X4.9514 Y26.7761 
G01 X4.9514 Y26.5639 
G01 X4.9290 Y26.4804 
G01 X4.8857 Y26.4054 
G01 X4.8246 Y26.3442 
G01 X4.7496 Y26.3010 
G01 X4.6661 Y26.2786 
G01 X3.3131 Y26.2786 
G01 X3.2804 Y26.2698 
G01 X3.2510 Y26.2529 
G01 X3.2271 Y26.2290 
G01 X3.2102 Y26.1996 
G01 X3.2014 Y26.1669 
G01 X3.2014 Y25.9004 
G01 X3.2046 Y25.9004 
G01 X3.2046 Y26.1749 
G01 X3.2237 Y26.2210 
G01 X3.2590 Y26.2563 
G01 X3.3051 Y26.2754 
G01 X6.8549 Y26.2754 
G01 X6.9010 Y26.2563 
G01 X6.9363 Y26.2210 
G01 X6.9554 Y26.1749 
G01 X6.9554 Y24.6251 
G01 X6.9363 Y24.5790 
G01 X6.9010 Y24.5437 
G01 X6.8549 Y24.5246 
G01 X5.4997 Y24.5246 
G01 X5.5029 Y24.5214 
G01 X6.8469 Y24.5214 
G01 X6.8796 Y24.5302 
G01 X6.9090 Y24.5471 
G01 X6.9326 Y24.5707 
G01 X7.0075 Y24.6140 
G01 X7.0911 Y24.6364 
G01 X10.2133 Y24.6364 
G01 X10.2886 Y24.7117 
G01 X10.2886 Y25.1251 
G01 X10.3110 Y25.2086 
G01 X10.3543 Y25.2836 
G01 X10.4154 Y25.3447 
G01 X10.4904 Y25.3880 
G01 X10.5739 Y25.4104 
G01 X12.0114 Y25.4104 
G01 X12.1987 Y25.4880 
G01 X12.3420 Y25.6313 
G01 X12.3637 Y25.6837 
G01 X12.3693 Y25.7046 
G01 X12.3802 Y25.7234 
G01 X12.3885 Y25.7435 
G01 X12.4017 Y25.7608 
G01 X12.4126 Y25.7796 
G01 X12.4279 Y25.7949 
G01 X12.4412 Y25.8122 
G01 X12.4584 Y25.8254 
G01 X12.4737 Y25.8407 
G01 X12.4926 Y25.8516 
G01 X12.5098 Y25.8648 
G01 X12.5299 Y25.8731 
G01 X12.5487 Y25.8840 
G01 X12.5697 Y25.8896 
G01 X12.5897 Y25.8979 
G01 X12.6113 Y25.9008 
G01 X12.6323 Y25.9064 
G01 X12.6540 Y25.9064 
G01 X12.6755 Y25.9092 
G01 X12.6970 Y25.9064 
G01 X22.4343 Y25.9064 
G01 X22.4558 Y25.9092 
G01 X22.4773 Y25.9064 
G01 X22.4990 Y25.9064 
G01 X22.5200 Y25.9008 
G01 X22.5416 Y25.8979 
G01 X22.5616 Y25.8896 
G01 X22.5826 Y25.8840 
G01 X22.6014 Y25.8731 
G01 X22.6215 Y25.8648 
G01 X22.6387 Y25.8516 
G01 X22.6575 Y25.8407 
G01 X22.6729 Y25.8254 
G01 X22.6901 Y25.8122 
G01 X22.7034 Y25.7949 
G01 X22.7187 Y25.7796 
G01 X22.7296 Y25.7607 
G01 X22.7428 Y25.7435 
G01 X22.7511 Y25.7234 
G01 X22.7620 Y25.7046 
G01 X22.7676 Y25.6836 
G01 X22.7980 Y25.6103 
G01 X22.9413 Y25.4670 
G01 X23.1286 Y25.3894 
G01 X25.1314 Y25.3894 
G01 X25.3187 Y25.4670 
G01 X25.4620 Y25.6103 
G01 X25.4924 Y25.6836 
G01 X25.4980 Y25.7046 
G01 X25.5089 Y25.7235 
G01 X25.5172 Y25.7435 
G01 X25.5304 Y25.7607 
G01 X25.5413 Y25.7796 
G01 X25.5566 Y25.7949 
G01 X25.5699 Y25.8122 
G01 X25.5871 Y25.8254 
G01 X25.6024 Y25.8407 
G01 X25.6213 Y25.8516 
G01 X25.6385 Y25.8648 
G01 X25.6586 Y25.8731 
G01 X25.6774 Y25.8840 
G01 X25.6984 Y25.8896 
G01 X25.7184 Y25.8979 
G01 X25.7400 Y25.9008 
G01 X25.7610 Y25.9064 
G01 X25.7827 Y25.9064 
G01 X25.8042 Y25.9092 
G01 X25.8257 Y25.9064 
G01 X30.0669 Y25.9064 
G01 X30.3475 Y26.0226 
G01 X30.5780 Y26.2531 
G01 X33.8067 Y29.4818 
G01 X33.8199 Y29.4990 
G01 X33.8372 Y29.5123 
G01 X33.8525 Y29.5276 
G01 X33.8713 Y29.5385 
G01 X33.8886 Y29.5517 
G01 X33.9086 Y29.5600 
G01 X33.9274 Y29.5709 
G01 X33.9484 Y29.5765 
G01 X33.9685 Y29.5848 
G01 X33.9900 Y29.5876 
G01 X34.0110 Y29.5933 
G01 X34.0327 Y29.5933 
G01 X34.0543 Y29.5961 
G01 X34.0758 Y29.5933 
G01 X34.0975 Y29.5933 
G01 X34.1185 Y29.5876 
G01 X34.1356 Y29.5854 
G01 X35.5414 Y29.5854 
G01 X35.6876 Y29.6460 
G01 X35.7542 Y29.6736 
G01 X35.8297 Y29.6835 
G01 X35.8400 Y29.6849 
G01 X35.8522 Y29.6832 
G01 X35.9258 Y29.6736 
G01 X36.0057 Y29.6405 
G01 X36.1386 Y29.5854 
G01 X37.5414 Y29.5854 
G01 X37.6876 Y29.6460 
G01 X37.7542 Y29.6736 
G01 X37.8297 Y29.6835 
G01 X37.8400 Y29.6849 
G01 X37.8522 Y29.6832 
G01 X37.9258 Y29.6736 
G01 X38.0057 Y29.6405 
G01 X38.1386 Y29.5854 
G01 X39.5414 Y29.5854 
G01 X39.6743 Y29.6404 
G01 X39.7542 Y29.6736 
G01 X39.8297 Y29.6835 
G01 X39.8400 Y29.6849 
G01 X39.8522 Y29.6832 
G01 X39.9258 Y29.6736 
G01 X39.9897 Y29.6471 
G01 X40.1386 Y29.5854 
G01 X41.5414 Y29.5854 
G01 X41.6021 Y29.6106 
G01 X41.6210 Y29.6214 
G01 X41.6419 Y29.6271 
G01 X41.6620 Y29.6354 
G01 X41.6836 Y29.6382 
G01 X41.7045 Y29.6438 
G01 X41.7263 Y29.6438 
G01 X41.7478 Y29.6467 
G01 X41.7693 Y29.6438 
G01 X41.7911 Y29.6438 
G01 X41.8120 Y29.6382 
G01 X41.8336 Y29.6354 
G01 X41.8536 Y29.6271 
G01 X41.8746 Y29.6214 
G01 X41.8935 Y29.6106 
G01 X41.9135 Y29.6023 
G01 X41.9307 Y29.5890 
G01 X41.9496 Y29.5782 
G01 X41.9649 Y29.5628 
G01 X41.9822 Y29.5496 
G01 X41.9954 Y29.5324 
G01 X42.0107 Y29.5170 
G01 X42.0216 Y29.4982 
G01 X42.0348 Y29.4810 
G01 X42.0431 Y29.4609 
G01 X42.0540 Y29.4421 
G01 X42.0596 Y29.4211 
G01 X42.0679 Y29.4010 
G01 X42.0708 Y29.3795 
G01 X42.0764 Y29.3585 
G01 X42.0764 Y29.3368 
G01 X42.0792 Y29.3152 
G01 X42.0764 Y29.2937 
G01 X42.0764 Y26.7391 
G01 X42.0540 Y26.6556 
G01 X42.0107 Y26.5806 
G01 X37.2755 Y21.8454 
G01 X37.2144 Y21.7843 
G01 X37.1394 Y21.7410 
G01 X37.0559 Y21.7186 
G01 X29.6931 Y21.7186 
G01 X29.4124 Y21.6023 
G01 X28.3855 Y20.5754 
G01 X28.3244 Y20.5143 
G01 X28.2494 Y20.4710 
G01 X28.1659 Y20.4486 
G01 X23.4099 Y20.4486 
G01 X23.3670 Y20.4486 
G01 X23.3240 Y20.4486 
G01 X23.2144 Y20.4491 
G01 X23.1142 Y20.4076 
G01 X23.0739 Y20.3909 
G01 X23.0348 Y20.3747 
G01 X22.9335 Y20.3334 
G01 X22.8565 Y20.2564 
G01 X22.8258 Y20.2257 
G01 X22.7957 Y20.1956 
G01 X20.6518 Y18.0674 
G01 X20.6216 Y18.0373 
G01 X20.5837 Y18.0153 
G01 X20.5467 Y17.9940 
G01 X20.5040 Y17.9825 
G01 X20.4631 Y17.9716 
G01 X20.4191 Y17.9716 
G01 X20.2221 Y17.9716 
G01 X20.1794 Y17.9715 
G01 X20.1370 Y17.9827 
G01 X20.0958 Y17.9937 
G01 X20.0579 Y18.0154 
G01 X20.0207 Y18.0367 
G01 X19.9900 Y18.0673 
G01 X16.7303 Y21.3098 
G01 X16.6994 Y21.3405 
G01 X16.6692 Y21.3705 
G01 X16.5918 Y21.4481 
G01 X16.4912 Y21.4894 
G01 X16.4515 Y21.5057 
G01 X16.4116 Y21.5222 
G01 X16.3109 Y21.5640 
G01 X16.2026 Y21.5637 
G01 X16.1589 Y21.5636 
G01 X16.1165 Y21.5635 
G01 X10.7949 Y21.5636 
G01 X10.7113 Y21.5860 
G01 X10.6671 Y21.6115 
G01 X10.6364 Y21.6292 
G01 X10.5752 Y21.6904 
G01 X10.4837 Y21.7820 
G01 X10.2964 Y21.8596 
G01 X9.3936 Y21.8596 
G01 X9.2063 Y21.7820 
G01 X9.0630 Y21.6387 
G01 X8.9854 Y21.4514 
G01 X8.9854 Y20.1486 
G01 X9.0630 Y19.9613 
G01 X9.2063 Y19.8180 
G01 X9.3936 Y19.7404 
G01 X10.2964 Y19.7404 
G01 X10.4837 Y19.8180 
G01 X10.5752 Y19.9096 
G01 X10.6364 Y19.9707 
G01 X10.6690 Y19.9896 
G01 X10.7113 Y20.0140 
G01 X10.7949 Y20.0364 
G01 X15.7090 Y20.0364 
G01 X15.7517 Y20.0365 
G01 X15.7941 Y20.0253 
G01 X15.8353 Y20.0143 
G01 X15.8732 Y19.9926 
G01 X15.9104 Y19.9713 
G01 X15.9411 Y19.9407 
G01 X18.7817 Y17.1151 
G01 X18.8126 Y17.0844 
G01 X18.8427 Y17.0544 
G01 X18.8649 Y17.0163 
G01 X18.8862 Y16.9796 
G01 X18.8976 Y16.9374 
G01 X18.9088 Y16.8961 
G01 X18.9089 Y16.8522 
G01 X18.9090 Y16.8096 
G01 X18.9089 Y16.2889 
G01 X18.8865 Y16.2054 
G01 X18.8432 Y16.1304 
G01 X18.7821 Y16.0693 
G01 X18.7071 Y16.0260 
G01 X18.6236 Y16.0036 
G01 X17.6281 Y16.0036 
G01 X17.3474 Y15.8873 
G01 X17.1170 Y15.6569 
G01 X15.8776 Y14.4175 
G01 X15.7614 Y14.1369 
G01 X15.7614 Y13.9189 
G01 X15.7390 Y13.8354 
G01 X15.6957 Y13.7604 
G01 X15.6346 Y13.6992 
G01 X15.5596 Y13.6560 
G01 X15.5536 Y13.6544 
G01 X15.5536 Y13.5787 
G01 X15.5563 Y13.5760 
G01 X15.5754 Y13.5299 
G01 X15.5754 Y12.4801 
G01 X15.5563 Y12.4340 
G01 X15.5536 Y12.4313 
G01 X15.5536 Y12.3938 
G01 X15.5749 Y12.3966 
G01 X15.5965 Y12.3937 
G01 X15.6182 Y12.3937 
G01 X15.6392 Y12.3881 
G01 X15.6607 Y12.3853 
G01 X15.6808 Y12.3770 
G01 X15.7018 Y12.3713 
G01 X15.7206 Y12.3605 
G01 X15.7407 Y12.3522 
G01 X15.7579 Y12.3390 
G01 X15.7767 Y12.3281 
G01 X15.7921 Y12.3127 
G01 X15.8093 Y12.2995 
G01 X15.8225 Y12.2823 
G01 X15.8379 Y12.2669 
G01 X15.8488 Y12.2481 
G01 X15.8620 Y12.2309 
G01 X15.8680 Y12.2163 
G01 X16.0113 Y12.0730 
G01 X16.1986 Y11.9954 
G01 X16.8514 Y11.9954 
G01 X17.0288 Y12.0689 
G01 X17.0892 Y12.0939 
G01 X17.1534 Y12.1024 
G01 X17.1750 Y12.1052 
G01 X17.1958 Y12.1025 
G01 X17.2608 Y12.0939 
G01 X17.3407 Y12.0608 
G01 X17.4986 Y11.9954 
G01 X18.1514 Y11.9954 
G01 X18.3387 Y12.0730 
G01 X18.4820 Y12.2163 
G01 X18.5596 Y12.4036 
G01 X18.5596 Y12.4062 
G01 X18.5779 Y12.4743 
G01 X18.5820 Y12.4897 
G01 X18.6142 Y12.5456 
G01 X18.6253 Y12.5647 
G01 X18.6864 Y12.6259 
G01 X18.7272 Y12.6494 
G01 X18.7614 Y12.6691 
G01 X18.7787 Y12.6738 
G01 X18.8449 Y12.6915 
G01 X18.9315 Y12.6915 
G01 X18.9996 Y12.6732 
G01 X19.0150 Y12.6691 
G01 X19.0708 Y12.6369 
G01 X19.0900 Y12.6259 
G01 X19.1298 Y12.5860 
G01 X19.3171 Y12.5084 
G01 X21.1761 Y12.5084 
G01 X21.2596 Y12.4860 
G01 X21.3346 Y12.4427 
G01 X21.3957 Y12.3816 
G01 X21.4390 Y12.3066 
G01 X21.4614 Y12.2231 
G01 X21.4614 Y10.0299 
G01 X21.4390 Y9.9464 
G01 X21.3957 Y9.8714 
G01 X21.3346 Y9.8102 
G01 X21.2596 Y9.7670 
G01 X21.1761 Y9.7446 
G01 X20.8736 Y9.7446 
G01 X20.6863 Y9.6670 
G01 X20.5430 Y9.5237 
G01 X20.5379 Y9.5115 
G01 X20.5247 Y9.4943 
G01 X20.5139 Y9.4754 
G01 X20.4985 Y9.4601 
G01 X20.4853 Y9.4428 
G01 X20.4680 Y9.4296 
G01 X20.4527 Y9.4142 
G01 X20.4339 Y9.4034 
G01 X20.4166 Y9.3902 
G01 X20.3966 Y9.3819 
G01 X20.3777 Y9.3710 
G01 X20.3568 Y9.3654 
G01 X20.3367 Y9.3571 
G01 X20.3152 Y9.3542 
G01 X20.2942 Y9.3486 
G01 X20.2724 Y9.3486 
G01 X20.2509 Y9.3458 
G01 X20.2294 Y9.3486 
G01 X18.5999 Y9.3486 
G01 X18.5164 Y9.3710 
G01 X18.4414 Y9.4142 
G01 X18.3387 Y9.5170 
G01 X18.1514 Y9.5946 
G01 X17.4986 Y9.5946 
G01 X17.3407 Y9.5292 
G01 X17.2608 Y9.4961 
G01 X17.1941 Y9.4873 
G01 X17.1750 Y9.4848 
G01 X17.1515 Y9.4879 
G01 X17.0892 Y9.4961 
G01 X17.0367 Y9.5178 
G01 X16.8514 Y9.5946 
G01 X16.1986 Y9.5946 
G01 X16.0212 Y9.5211 
G01 X15.9608 Y9.4961 
G01 X15.8966 Y9.4876 
G01 X15.8750 Y9.4848 
G01 X15.8542 Y9.4875 
G01 X15.7892 Y9.4961 
G01 X15.7093 Y9.5292 
G01 X15.5514 Y9.5946 
G01 X14.8986 Y9.5946 
G01 X14.7212 Y9.5211 
G01 X14.6608 Y9.4961 
G01 X14.5966 Y9.4876 
G01 X14.5750 Y9.4848 
G01 X14.5542 Y9.4875 
G01 X14.4892 Y9.4961 
G01 X14.4093 Y9.5292 
G01 X14.2514 Y9.5946 
G01 X13.5986 Y9.5946 
G01 X13.4113 Y9.5170 
G01 X13.3697 Y9.4754 
G01 X13.3086 Y9.4142 
G01 X13.2336 Y9.3710 
G01 X13.1501 Y9.3486 
G01 X11.1824 Y9.3486 
G01 X11.1390 Y9.3486 
G01 X11.0959 Y9.3486 
G01 X11.0515 Y9.3605 
G01 X11.0123 Y9.3710 
G01 X10.9936 Y9.3818 
G01 X10.9904 Y9.3827 
G01 X10.9715 Y9.3935 
G01 X10.9515 Y9.4018 
G01 X10.9343 Y9.4151 
G01 X10.9154 Y9.4259 
G01 X10.9001 Y9.4413 
G01 X10.8828 Y9.4545 
G01 X10.8696 Y9.4718 
G01 X10.8543 Y9.4871 
G01 X10.8434 Y9.5059 
G01 X10.8302 Y9.5231 
G01 X10.8219 Y9.5432 
G01 X10.8110 Y9.5620 
G01 X10.8054 Y9.5830 
G01 X10.7971 Y9.6031 
G01 X10.7942 Y9.6246 
G01 X10.7886 Y9.6456 
G01 X10.7886 Y9.6673 
G01 X10.7858 Y9.6889 
G01 X10.7886 Y9.7104 
G01 X10.7886 Y9.7456 
G01 X10.7854 Y9.7456 
G01 X10.7854 Y9.5461 
G01 X10.7663 Y9.5000 
G01 X10.7310 Y9.4647 
G01 X10.6849 Y9.4456 
G01 X9.6351 Y9.4456 
G01 X9.5890 Y9.4647 
G01 X9.5537 Y9.5000 
G01 X9.5346 Y9.5461 
G01 X9.5346 Y9.7456 
G01 X9.5314 Y9.7456 
G01 X9.5314 Y9.7104 
G01 X9.5342 Y9.6889 
G01 X9.5314 Y9.6673 
G01 X9.5314 Y9.6456 
G01 X9.5258 Y9.6246 
G01 X9.5229 Y9.6031 
G01 X9.5146 Y9.5830 
G01 X9.5090 Y9.5620 
G01 X9.4981 Y9.5432 
G01 X9.4898 Y9.5231 
G01 X9.4766 Y9.5059 
G01 X9.4657 Y9.4871 
G01 X9.4504 Y9.4718 
G01 X9.4372 Y9.4545 
G01 X9.4199 Y9.4413 
G01 X9.4046 Y9.4259 
G01 X9.3857 Y9.4151 
G01 X9.3756 Y9.4073 
G01 X9.2280 Y9.2597 
G01 X9.1504 Y9.0724 
G01 X9.1504 Y7.7696 
G01 X9.2280 Y7.5823 
G01 X9.3713 Y7.4390 
G00 Z2.5400 
G00 X9.5537 Y7.8000 
G01 Z-0.2000 F254.00 
G01 X9.5346 Y7.8461 F508.00 
G01 X9.5346 Y8.9959 
G01 X9.5537 Y9.0420 
G01 X9.5890 Y9.0773 
G01 X9.6351 Y9.0964 
G01 X10.6849 Y9.0964 
G01 X10.7310 Y9.0773 
G01 X10.7663 Y9.0420 
G01 X10.7854 Y8.9959 
G01 X10.7854 Y8.9644 
G01 X13.5746 Y8.9644 
G01 X13.5746 Y9.1099 
G01 X13.5937 Y9.1560 
G01 X13.6290 Y9.1913 
G01 X13.6751 Y9.2104 
G01 X14.1749 Y9.2104 
G01 X14.2210 Y9.1913 
G01 X14.2563 Y9.1560 
G01 X14.2754 Y9.1099 
G01 X14.2754 Y8.9644 
G01 X14.8746 Y8.9644 
G01 X14.8746 Y9.1099 
G01 X14.8937 Y9.1560 
G01 X14.9290 Y9.1913 
G01 X14.9751 Y9.2104 
G01 X15.4749 Y9.2104 
G01 X15.5210 Y9.1913 
G01 X15.5563 Y9.1560 
G01 X15.5754 Y9.1099 
G01 X15.5754 Y8.7369 
G01 X15.5785 Y8.7314 
G01 X15.6044 Y8.6349 
G01 X15.6044 Y7.2290 
G01 X16.0532 Y6.7802 
G01 X18.8718 Y6.7802 
G01 X19.3408 Y7.2491 
G01 X19.4209 Y7.3292 
G01 X19.5189 Y7.3859 
G01 X19.6284 Y7.4152 
G01 X66.4968 Y7.4152 
G01 X73.6896 Y14.6080 
G01 X73.6896 Y16.0149 
G01 X73.7087 Y16.0610 
G01 X73.7440 Y16.0963 
G01 X73.7901 Y16.1154 
G01 X77.3399 Y16.1154 
G01 X77.3860 Y16.0963 
G01 X77.4213 Y16.0610 
G01 X77.4404 Y16.0149 
G01 X77.4404 Y14.4651 
G01 X77.4213 Y14.4190 
G01 X77.3860 Y14.3837 
G01 X77.3399 Y14.3646 
G01 X74.6630 Y14.3646 
G01 X66.9391 Y6.6408 
G01 X66.8410 Y6.5841 
G01 X66.7316 Y6.5548 
G01 X19.8632 Y6.5548 
G01 X19.3141 Y6.0058 
G01 X19.2160 Y5.9491 
G01 X19.1066 Y5.9198 
G01 X15.8184 Y5.9198 
G01 X15.7089 Y5.9491 
G01 X15.6108 Y6.0058 
G01 X15.5308 Y6.0858 
G01 X14.8808 Y6.7359 
G01 X14.8241 Y6.8339 
G01 X14.7948 Y6.9434 
G01 X14.7948 Y7.0566 
G01 X14.8241 Y7.1661 
G01 X14.8456 Y7.2033 
G01 X14.8456 Y8.2056 
G01 X14.2754 Y8.2056 
G01 X14.2754 Y8.0601 
G01 X14.2563 Y8.0140 
G01 X14.2210 Y7.9787 
G01 X14.1749 Y7.9596 
G01 X13.6751 Y7.9596 
G01 X13.6290 Y7.9787 
G01 X13.5937 Y8.0140 
G01 X13.5746 Y8.0601 
G01 X13.5746 Y8.2056 
G01 X10.7854 Y8.2056 
G01 X10.7854 Y7.8461 
G01 X10.7663 Y7.8000 
G01 X10.7310 Y7.7647 
G01 X10.6849 Y7.7456 
G01 X9.6351 Y7.7456 
G01 X9.5890 Y7.7647 
G01 X9.5537 Y7.8000 
G00 Z2.5400 
G00 X9.5346 Y10.4964 
G01 Z-0.2000 F254.00 
G01 X9.5346 Y10.6959 F508.00 
G01 X9.5537 Y10.7420 
G01 X9.5890 Y10.7773 
G01 X9.6351 Y10.7964 
G01 X9.7846 Y10.7964 
G01 X9.7846 Y10.7996 
G01 X9.6431 Y10.7996 
G01 X9.6104 Y10.7908 
G01 X9.5810 Y10.7739 
G01 X9.5571 Y10.7500 
G01 X9.5402 Y10.7206 
G01 X9.5314 Y10.6879 
G01 X9.5314 Y10.4964 
G01 X9.5346 Y10.4964 
G00 Z2.5400 
G00 X10.7854 Y10.4964 
G01 Z-0.2000 F254.00 
G01 X10.7886 Y10.4964 F508.00 
G01 X10.7886 Y10.6879 
G01 X10.7798 Y10.7206 
G01 X10.7629 Y10.7500 
G01 X10.7390 Y10.7739 
G01 X10.7096 Y10.7908 
G01 X10.6769 Y10.7996 
G01 X10.5354 Y10.7996 
G01 X10.5354 Y10.7964 
G01 X10.6849 Y10.7964 
G01 X10.7310 Y10.7773 
G01 X10.7663 Y10.7420 
G01 X10.7854 Y10.6959 
G01 X10.7854 Y10.4964 
G00 Z2.5400 
G00 X13.5964 Y12.4273 
G01 Z-0.2000 F254.00 
G01 X13.5964 Y12.4313 F508.00 
G01 X13.5937 Y12.4340 
G01 X13.5746 Y12.4801 
G01 X13.5746 Y12.6764 
G01 X13.5714 Y12.6764 
G01 X13.5714 Y12.4881 
G01 X13.5802 Y12.4554 
G01 X13.5964 Y12.4273 
G00 Z2.5400 
G00 X14.2536 Y12.4273 
G01 Z-0.2000 F254.00 
G01 X14.3121 Y12.5285 F508.00 
G01 X14.3723 Y12.5887 
G01 X14.4482 Y12.6329 
G01 X14.4972 Y12.6461 
G01 X14.5317 Y12.6553 
G01 X14.6183 Y12.6553 
G01 X14.6502 Y12.6468 
G01 X14.7018 Y12.6329 
G01 X14.7098 Y12.6283 
G01 X14.7768 Y12.5897 
G01 X14.8370 Y12.5294 
G01 X14.8964 Y12.4273 
G01 X14.8964 Y12.4313 
G01 X14.8937 Y12.4340 
G01 X14.8746 Y12.4801 
G01 X14.8746 Y12.6764 
G01 X14.2754 Y12.6764 
G01 X14.2754 Y12.4801 
G01 X14.2563 Y12.4340 
G01 X14.2536 Y12.4313 
G01 X14.2536 Y12.4273 
G00 Z2.5400 
G00 X14.2754 Y13.3336 
G01 Z-0.2000 F254.00 
G01 X14.8746 Y13.3336 F508.00 
G01 X14.8746 Y13.5299 
G01 X14.8937 Y13.5760 
G01 X14.8964 Y13.5787 
G01 X14.8964 Y13.5827 
G01 X14.8379 Y13.4815 
G01 X14.7768 Y13.4203 
G01 X14.7086 Y13.3810 
G01 X14.7018 Y13.3771 
G01 X14.6476 Y13.3625 
G01 X14.6183 Y13.3547 
G01 X14.5317 Y13.3547 
G01 X14.4957 Y13.3643 
G01 X14.4482 Y13.3771 
G01 X14.3732 Y13.4203 
G01 X14.3121 Y13.4815 
G01 X14.2536 Y13.5827 
G01 X14.2536 Y13.5787 
G01 X14.2563 Y13.5760 
G01 X14.2754 Y13.5299 
G01 X14.2754 Y13.3336 
G00 Z2.5400 
G00 X13.5746 Y13.3336 
G01 Z-0.2000 F254.00 
G01 X13.5746 Y13.5299 F508.00 
G01 X13.5937 Y13.5760 
G01 X13.5964 Y13.5787 
G01 X13.5964 Y13.5827 
G01 X13.5802 Y13.5546 
G01 X13.5714 Y13.5219 
G01 X13.5714 Y13.3336 
G01 X13.5746 Y13.3336 
G00 Z2.5400 
G00 X16.1456 Y12.9550 
G01 Z-0.2000 F254.00 
G01 X16.1456 Y14.0350 F508.00 
G01 X16.1715 Y14.1314 
G01 X16.2214 Y14.2180 
G01 X17.4764 Y15.4730 
G01 X17.5470 Y15.5436 
G01 X17.6336 Y15.5935 
G01 X17.7300 Y15.6194 
G01 X34.1146 Y15.6194 
G01 X34.1146 Y16.7199 
G01 X34.1337 Y16.7660 
G01 X34.1690 Y16.8013 
G01 X34.2151 Y16.8204 
G01 X35.4649 Y16.8204 
G01 X35.5110 Y16.8013 
G01 X35.5463 Y16.7660 
G01 X35.5654 Y16.7199 
G01 X35.5654 Y13.6701 
G01 X35.5463 Y13.6240 
G01 X35.5110 Y13.5887 
G01 X35.4649 Y13.5696 
G01 X34.2151 Y13.5696 
G01 X34.1690 Y13.5887 
G01 X34.1337 Y13.6240 
G01 X34.1146 Y13.6701 
G01 X34.1146 Y14.8606 
G01 X17.9372 Y14.8606 
G01 X16.9044 Y13.8278 
G01 X16.9044 Y12.9550 
G01 X16.8785 Y12.8586 
G01 X16.8754 Y12.8531 
G01 X16.8754 Y12.4801 
G01 X16.8563 Y12.4340 
G01 X16.8210 Y12.3987 
G01 X16.7749 Y12.3796 
G01 X16.2751 Y12.3796 
G01 X16.2290 Y12.3987 
G01 X16.1937 Y12.4340 
G01 X16.1746 Y12.4801 
G01 X16.1746 Y12.8531 
G01 X16.1715 Y12.8586 
G01 X16.1456 Y12.9550 
G00 Z2.5400 
G00 X17.4746 Y12.4801 
G01 Z-0.2000 F254.00 
G01 X17.4746 Y13.5299 F508.00 
G01 X17.4937 Y13.5760 
G01 X17.5290 Y13.6113 
G01 X17.5751 Y13.6304 
G01 X18.0749 Y13.6304 
G01 X18.1210 Y13.6113 
G01 X18.1563 Y13.5760 
G01 X18.1754 Y13.5299 
G01 X18.1754 Y12.4801 
G01 X18.1563 Y12.4340 
G01 X18.1210 Y12.3987 
G01 X18.0749 Y12.3796 
G01 X17.5751 Y12.3796 
G01 X17.5290 Y12.3987 
G01 X17.4937 Y12.4340 
G01 X17.4746 Y12.4801 
G00 Z2.5400 
G00 X19.3122 Y12.9470 
G01 Z-0.2000 F254.00 
G01 X19.2931 Y12.9931 F508.00 
G01 X19.2931 Y14.6429 
G01 X19.3122 Y14.6890 
G01 X19.3475 Y14.7243 
G01 X19.3936 Y14.7434 
G01 X21.2464 Y14.7434 
G01 X21.2925 Y14.7243 
G01 X21.3278 Y14.6890 
G01 X21.3469 Y14.6429 
G01 X21.3469 Y14.1974 
G01 X23.1031 Y14.1974 
G01 X23.1031 Y14.6429 
G01 X23.1222 Y14.6890 
G01 X23.1575 Y14.7243 
G01 X23.2036 Y14.7434 
G01 X25.0564 Y14.7434 
G01 X25.1025 Y14.7243 
G01 X25.1378 Y14.6890 
G01 X25.1569 Y14.6429 
G01 X25.1569 Y12.9931 
G01 X25.1378 Y12.9470 
G01 X25.1025 Y12.9117 
G01 X25.0564 Y12.8926 
G01 X23.2036 Y12.8926 
G01 X23.1575 Y12.9117 
G01 X23.1222 Y12.9470 
G01 X23.1031 Y12.9931 
G01 X23.1031 Y13.4044 
G01 X22.6044 Y13.3879 
G01 X22.6044 Y9.3604 
G01 X23.4999 Y9.3604 
G01 X23.5460 Y9.3413 
G01 X23.5813 Y9.3060 
G01 X23.6004 Y9.2599 
G01 X23.6004 Y9.0144 
G01 X35.1478 Y9.0144 
G01 X38.3556 Y12.2222 
G01 X38.3556 Y13.5696 
G01 X38.2151 Y13.5696 
G01 X38.1690 Y13.5887 
G01 X38.1337 Y13.6240 
G01 X38.1146 Y13.6701 
G01 X38.1146 Y16.7199 
G01 X38.1337 Y16.7660 
G01 X38.1690 Y16.8013 
G01 X38.2151 Y16.8204 
G01 X38.4606 Y16.8204 
G01 X38.4606 Y17.2999 
G01 X38.4865 Y17.3964 
G01 X38.5364 Y17.4830 
G01 X39.7014 Y18.6480 
G01 X39.7720 Y18.7186 
G01 X39.8586 Y18.7685 
G01 X39.9550 Y18.7944 
G01 X47.6750 Y18.7944 
G01 X47.7714 Y18.7685 
G01 X47.8580 Y18.7186 
G01 X49.1280 Y17.4486 
G01 X49.1986 Y17.3780 
G01 X49.2485 Y17.2914 
G01 X49.2744 Y17.1949 
G01 X49.2744 Y16.8204 
G01 X49.4649 Y16.8204 
G01 X49.5110 Y16.8013 
G01 X49.5463 Y16.7660 
G01 X49.5654 Y16.7199 
G01 X49.5654 Y13.6701 
G01 X49.5463 Y13.6240 
G01 X49.5110 Y13.5887 
G01 X49.4649 Y13.5696 
G01 X48.2151 Y13.5696 
G01 X48.1690 Y13.5887 
G01 X48.1337 Y13.6240 
G01 X48.1146 Y13.6701 
G01 X48.1146 Y16.7199 
G01 X48.1337 Y16.7660 
G01 X48.1690 Y16.8013 
G01 X48.2151 Y16.8204 
G01 X48.5156 Y16.8204 
G01 X48.5156 Y16.9878 
G01 X47.4678 Y18.0356 
G01 X40.1622 Y18.0356 
G01 X39.2194 Y17.0928 
G01 X39.2194 Y16.8204 
G01 X39.4649 Y16.8204 
G01 X39.5110 Y16.8013 
G01 X39.5463 Y16.7660 
G01 X39.5654 Y16.7199 
G01 X39.5654 Y13.6701 
G01 X39.5463 Y13.6240 
G01 X39.5110 Y13.5887 
G01 X39.4649 Y13.5696 
G01 X39.1144 Y13.5696 
G01 X39.1144 Y12.0150 
G01 X39.0885 Y11.9186 
G01 X39.0386 Y11.8320 
G01 X38.9680 Y11.7614 
G01 X35.5380 Y8.3314 
G01 X35.4514 Y8.2815 
G01 X35.3550 Y8.2556 
G01 X23.6004 Y8.2556 
G01 X23.6004 Y8.0101 
G01 X23.5813 Y7.9640 
G01 X23.5460 Y7.9287 
G01 X23.4999 Y7.9096 
G01 X20.9501 Y7.9096 
G01 X20.9040 Y7.9287 
G01 X20.8687 Y7.9640 
G01 X20.8496 Y8.0101 
G01 X20.8496 Y8.2056 
G01 X18.1754 Y8.2056 
G01 X18.1754 Y8.0601 
G01 X18.1563 Y8.0140 
G01 X18.1210 Y7.9787 
G01 X18.0749 Y7.9596 
G01 X17.5751 Y7.9596 
G01 X17.5290 Y7.9787 
G01 X17.4937 Y8.0140 
G01 X17.4746 Y8.0601 
G01 X17.4746 Y8.2056 
G01 X16.8754 Y8.2056 
G01 X16.8754 Y8.0601 
G01 X16.8563 Y8.0140 
G01 X16.8210 Y7.9787 
G01 X16.7749 Y7.9596 
G01 X16.2751 Y7.9596 
G01 X16.2290 Y7.9787 
G01 X16.1937 Y8.0140 
G01 X16.1746 Y8.0601 
G01 X16.1746 Y8.4331 
G01 X16.1715 Y8.4386 
G01 X16.1456 Y8.5350 
G01 X16.1456 Y8.6349 
G01 X16.1715 Y8.7314 
G01 X16.1746 Y8.7369 
G01 X16.1746 Y9.1099 
G01 X16.1937 Y9.1560 
G01 X16.2290 Y9.1913 
G01 X16.2751 Y9.2104 
G01 X16.7749 Y9.2104 
G01 X16.8210 Y9.1913 
G01 X16.8563 Y9.1560 
G01 X16.8754 Y9.1099 
G01 X16.8754 Y8.9644 
G01 X17.4746 Y8.9644 
G01 X17.4746 Y9.1099 
G01 X17.4937 Y9.1560 
G01 X17.5290 Y9.1913 
G01 X17.5751 Y9.2104 
G01 X18.0749 Y9.2104 
G01 X18.1210 Y9.1913 
G01 X18.1563 Y9.1560 
G01 X18.1754 Y9.1099 
G01 X18.1754 Y8.9644 
G01 X20.8496 Y8.9644 
G01 X20.8496 Y9.2599 
G01 X20.8687 Y9.3060 
G01 X20.9040 Y9.3413 
G01 X20.9501 Y9.3604 
G01 X21.8456 Y9.3604 
G01 X21.8456 Y13.4386 
G01 X21.3469 Y13.4386 
G01 X21.3469 Y12.9931 
G01 X21.3278 Y12.9470 
G01 X21.2925 Y12.9117 
G01 X21.2464 Y12.8926 
G01 X19.3936 Y12.8926 
G01 X19.3475 Y12.9117 
G01 X19.3122 Y12.9470 
G00 Z2.5400 
G00 X19.3122 Y15.7910 
G01 Z-0.2000 F254.00 
G01 X19.2931 Y15.8371 F508.00 
G01 X19.2931 Y17.1483 
G01 X16.0034 Y20.4206 
G01 X10.3204 Y20.4206 
G01 X10.3204 Y20.2251 
G01 X10.3013 Y20.1790 
G01 X10.2660 Y20.1437 
G01 X10.2199 Y20.1246 
G01 X9.4701 Y20.1246 
G01 X9.4240 Y20.1437 
G01 X9.3887 Y20.1790 
G01 X9.3696 Y20.2251 
G01 X9.3696 Y21.3749 
G01 X9.3887 Y21.4210 
G01 X9.4240 Y21.4563 
G01 X9.4701 Y21.4754 
G01 X10.2199 Y21.4754 
G01 X10.2660 Y21.4563 
G01 X10.3013 Y21.4210 
G01 X10.3204 Y21.3749 
G01 X10.3204 Y21.1794 
G01 X16.1596 Y21.1794 
G01 X16.2089 Y21.1795 
G01 X16.2576 Y21.1666 
G01 X16.3055 Y21.1539 
G01 X16.3493 Y21.1288 
G01 X16.3922 Y21.1042 
G01 X16.4282 Y21.0683 
G01 X19.9277 Y17.5874 
G01 X20.7136 Y17.5874 
G01 X23.0968 Y19.9534 
G01 X23.1320 Y19.9886 
G01 X23.1757 Y20.0138 
G01 X23.2186 Y20.0385 
G01 X23.2673 Y20.0516 
G01 X23.3150 Y20.0644 
G01 X23.3655 Y20.0644 
G01 X28.4178 Y20.0644 
G01 X29.6120 Y21.2586 
G01 X29.6986 Y21.3085 
G01 X29.7950 Y21.3344 
G01 X37.3078 Y21.3344 
G01 X42.4606 Y26.4872 
G01 X42.4606 Y29.9696 
G01 X42.2151 Y29.9696 
G01 X42.1690 Y29.9887 
G01 X42.1337 Y30.0240 
G01 X42.1146 Y30.0701 
G01 X42.1146 Y33.1199 
G01 X42.1337 Y33.1660 
G01 X42.1690 Y33.2013 
G01 X42.2151 Y33.2204 
G01 X42.4606 Y33.2204 
G01 X42.4606 Y33.9999 
G01 X42.4865 Y34.0964 
G01 X42.5364 Y34.1830 
G01 X45.4870 Y37.1336 
G01 X45.5736 Y37.1835 
G01 X45.6700 Y37.2094 
G01 X47.4678 Y37.2094 
G01 X48.5914 Y38.3330 
G01 X48.6620 Y38.4036 
G01 X48.7486 Y38.4535 
G01 X48.8450 Y38.4794 
G01 X59.9600 Y38.4794 
G01 X59.9600 Y38.9467 
G01 X59.9791 Y38.9928 
G01 X60.0144 Y39.0281 
G01 X60.0605 Y39.0472 
G01 X61.9103 Y39.0472 
G01 X61.9564 Y39.0281 
G01 X61.9917 Y38.9928 
G01 X62.0108 Y38.9467 
G01 X62.0108 Y36.8969 
G01 X61.9917 Y36.8508 
G01 X61.9564 Y36.8155 
G01 X61.9103 Y36.7964 
G01 X60.0605 Y36.7964 
G01 X60.0144 Y36.8155 
G01 X59.9791 Y36.8508 
G01 X59.9600 Y36.8969 
G01 X59.9600 Y37.7206 
G01 X49.0521 Y37.7206 
G01 X47.8580 Y36.5264 
G01 X47.7714 Y36.4765 
G01 X47.6750 Y36.4506 
G01 X45.8772 Y36.4506 
G01 X43.2194 Y33.7928 
G01 X43.2194 Y33.2204 
G01 X43.4649 Y33.2204 
G01 X43.5110 Y33.2013 
G01 X43.5463 Y33.1660 
G01 X43.5654 Y33.1199 
G01 X43.5654 Y30.0701 
G01 X43.5463 Y30.0240 
G01 X43.5110 Y29.9887 
G01 X43.4649 Y29.9696 
G01 X43.2194 Y29.9696 
G01 X43.2194 Y26.2800 
G01 X43.1935 Y26.1836 
G01 X43.1436 Y26.0970 
G01 X37.7686 Y20.7220 
G01 X37.6980 Y20.6514 
G01 X37.6114 Y20.6015 
G01 X37.5149 Y20.5756 
G01 X30.0022 Y20.5756 
G01 X28.8786 Y19.4520 
G01 X28.8080 Y19.3814 
G01 X28.7214 Y19.3315 
G01 X28.6249 Y19.3056 
G01 X23.5213 Y19.3056 
G01 X21.3469 Y17.1469 
G01 X21.3469 Y15.8371 
G01 X21.3278 Y15.7910 
G01 X21.2925 Y15.7557 
G01 X21.2464 Y15.7366 
G01 X19.3936 Y15.7366 
G01 X19.3475 Y15.7557 
G01 X19.3122 Y15.7910 
G00 Z2.5400 
G00 X23.1222 Y15.7910 
G01 Z-0.2000 F254.00 
G01 X23.1031 Y15.8371 F508.00 
G01 X23.1031 Y17.4869 
G01 X23.1222 Y17.5330 
G01 X23.1575 Y17.5683 
G01 X23.2036 Y17.5874 
G01 X25.0564 Y17.5874 
G01 X25.1025 Y17.5683 
G01 X25.1378 Y17.5330 
G01 X25.1569 Y17.4869 
G01 X25.1569 Y17.0371 
G01 X29.1835 Y17.0201 
G01 X30.8114 Y18.6480 
G01 X30.8820 Y18.7186 
G01 X30.9686 Y18.7685 
G01 X31.0650 Y18.7944 
G01 X37.9428 Y18.7944 
G01 X44.7056 Y25.5572 
G01 X44.7056 Y29.9696 
G01 X44.2151 Y29.9696 
G01 X44.1690 Y29.9887 
G01 X44.1337 Y30.0240 
G01 X44.1146 Y30.0701 
G01 X44.1146 Y33.1199 
G01 X44.1337 Y33.1660 
G01 X44.1690 Y33.2013 
G01 X44.2151 Y33.2204 
G01 X44.7056 Y33.2204 
G01 X44.7056 Y33.7049 
G01 X44.7315 Y33.8014 
G01 X44.7814 Y33.8880 
G01 X46.6864 Y35.7930 
G01 X46.7570 Y35.8636 
G01 X46.8436 Y35.9135 
G01 X46.9400 Y35.9394 
G01 X66.9941 Y35.9394 
G01 X66.9941 Y36.2199 
G01 X67.0132 Y36.2660 
G01 X67.0485 Y36.3013 
G01 X67.0946 Y36.3204 
G01 X67.7794 Y36.3204 
G01 X67.8255 Y36.3013 
G01 X67.8608 Y36.2660 
G01 X67.8799 Y36.2199 
G01 X67.8799 Y35.7870 
G01 X68.0101 Y35.7870 
G01 X68.0101 Y36.2199 
G01 X68.0292 Y36.2660 
G01 X68.0645 Y36.3013 
G01 X68.1106 Y36.3204 
G01 X68.7954 Y36.3204 
G01 X68.8415 Y36.3013 
G01 X68.8768 Y36.2660 
G01 X68.8959 Y36.2199 
G01 X68.8959 Y35.9394 
G01 X73.6896 Y35.9394 
G01 X73.6896 Y36.3349 
G01 X73.7087 Y36.3810 
G01 X73.7440 Y36.4163 
G01 X73.7901 Y36.4354 
G01 X77.3399 Y36.4354 
G01 X77.3860 Y36.4163 
G01 X77.4213 Y36.3810 
G01 X77.4404 Y36.3349 
G01 X77.4404 Y34.7851 
G01 X77.4213 Y34.7390 
G01 X77.3860 Y34.7037 
G01 X77.3399 Y34.6846 
G01 X73.7901 Y34.6846 
G01 X73.7440 Y34.7037 
G01 X73.7087 Y34.7390 
G01 X73.6896 Y34.7851 
G01 X73.6896 Y35.1806 
G01 X68.8959 Y35.1806 
G01 X68.8959 Y34.9001 
G01 X68.8768 Y34.8540 
G01 X68.8415 Y34.8187 
G01 X68.7954 Y34.7996 
G01 X68.1106 Y34.7996 
G01 X68.0645 Y34.8187 
G01 X68.0292 Y34.8540 
G01 X68.0101 Y34.9001 
G01 X68.0101 Y35.3330 
G01 X67.8799 Y35.3330 
G01 X67.8799 Y34.9001 
G01 X67.8608 Y34.8540 
G01 X67.8255 Y34.8187 
G01 X67.7794 Y34.7996 
G01 X67.0946 Y34.7996 
G01 X67.0485 Y34.8187 
G01 X67.0132 Y34.8540 
G01 X66.9941 Y34.9001 
G01 X66.9941 Y35.1806 
G01 X47.1472 Y35.1806 
G01 X45.4644 Y33.4978 
G01 X45.4644 Y33.2204 
G01 X45.5110 Y33.2013 
G01 X45.5463 Y33.1660 
G01 X45.5654 Y33.1199 
G01 X45.5654 Y30.0701 
G01 X45.5463 Y30.0240 
G01 X45.5110 Y29.9887 
G01 X45.4649 Y29.9696 
G01 X45.4644 Y25.3500 
G01 X45.4385 Y25.2536 
G01 X45.3886 Y25.1670 
G01 X45.3180 Y25.0964 
G01 X38.3330 Y18.1114 
G01 X38.2464 Y18.0615 
G01 X38.1499 Y18.0356 
G01 X31.2722 Y18.0356 
G01 X29.6430 Y16.4065 
G01 X29.6079 Y16.3713 
G01 X29.5730 Y16.3364 
G01 X29.5289 Y16.3110 
G01 X29.4864 Y16.2865 
G01 X29.4375 Y16.2734 
G01 X29.3899 Y16.2606 
G01 X29.3395 Y16.2606 
G01 X29.2900 Y16.2606 
G01 X25.1569 Y16.2783 
G01 X25.1569 Y15.8371 
G01 X25.1378 Y15.7910 
G01 X25.1025 Y15.7557 
G01 X25.0564 Y15.7366 
G01 X23.2036 Y15.7366 
G01 X23.1575 Y15.7557 
G01 X23.1222 Y15.7910 
G00 Z2.5400 
G00 X23.1237 Y25.8280 
G01 Z-0.2000 F254.00 
G01 X23.1046 Y25.8741 F508.00 
G01 X23.1046 Y26.2906 
G01 X12.0354 Y26.2906 
G01 X12.0354 Y25.8951 
G01 X12.0163 Y25.8490 
G01 X11.9810 Y25.8137 
G01 X11.9349 Y25.7946 
G01 X8.3851 Y25.7946 
G01 X8.3390 Y25.8137 
G01 X8.3037 Y25.8490 
G01 X8.2846 Y25.8951 
G01 X8.2846 Y27.4449 
G01 X8.3037 Y27.4910 
G01 X8.3390 Y27.5263 
G01 X8.3851 Y27.5454 
G01 X11.9349 Y27.5454 
G01 X11.9810 Y27.5263 
G01 X12.0163 Y27.4910 
G01 X12.0354 Y27.4449 
G01 X12.0354 Y27.0494 
G01 X23.1046 Y27.0494 
G01 X23.1046 Y27.9239 
G01 X23.1237 Y27.9700 
G01 X23.1590 Y28.0053 
G01 X23.2051 Y28.0244 
G01 X25.0549 Y28.0244 
G01 X25.1010 Y28.0053 
G01 X25.1363 Y27.9700 
G01 X25.1554 Y27.9239 
G01 X25.1554 Y27.0494 
G01 X29.7578 Y27.0494 
G01 X34.1146 Y31.4062 
G01 X34.1146 Y33.1199 
G01 X34.1337 Y33.1660 
G01 X34.1690 Y33.2013 
G01 X34.2151 Y33.2204 
G01 X35.4649 Y33.2204 
G01 X35.5110 Y33.2013 
G01 X35.5463 Y33.1660 
G01 X35.5654 Y33.1199 
G01 X35.5654 Y30.0701 
G01 X35.5463 Y30.0240 
G01 X35.5110 Y29.9887 
G01 X35.4649 Y29.9696 
G01 X34.2151 Y29.9696 
G01 X34.1690 Y29.9887 
G01 X34.1337 Y30.0240 
G01 X34.1146 Y30.0701 
G01 X34.1146 Y30.3331 
G01 X30.2186 Y26.4370 
G01 X30.1480 Y26.3664 
G01 X30.0614 Y26.3165 
G01 X29.9650 Y26.2906 
G01 X25.1554 Y26.2906 
G01 X25.1554 Y25.8741 
G01 X25.1363 Y25.8280 
G01 X25.1010 Y25.7927 
G01 X25.0549 Y25.7736 
G01 X23.2051 Y25.7736 
G01 X23.1590 Y25.7927 
G01 X23.1237 Y25.8280 
G00 Z2.5400 
G00 X23.1237 Y30.4500 
G01 Z-0.2000 F254.00 
G01 X23.1046 Y30.4961 F508.00 
G01 X23.1046 Y32.5459 
G01 X23.1237 Y32.5920 
G01 X23.1590 Y32.6273 
G01 X23.2051 Y32.6464 
G01 X25.0549 Y32.6464 
G01 X25.1010 Y32.6273 
G01 X37.1614 Y44.6830 
G01 X37.2320 Y44.7536 
G01 X37.3186 Y44.8035 
G01 X37.4150 Y44.8294 
G01 X85.1399 Y44.8294 
G01 X85.2364 Y44.8035 
G01 X85.3230 Y44.7536 
G01 X88.4980 Y41.5786 
G01 X88.5686 Y41.5080 
G01 X88.6185 Y41.4214 
G01 X88.6444 Y41.3250 
G01 X88.6444 Y35.5100 
G01 X88.6185 Y35.4136 
G01 X88.5686 Y35.3270 
G01 X87.2986 Y34.0570 
G01 X87.2280 Y33.9864 
G01 X87.1414 Y33.9365 
G01 X87.0450 Y33.9106 
G01 X82.5204 Y33.9106 
G01 X82.5204 Y33.5151 
G01 X82.5013 Y33.4690 
G01 X82.4660 Y33.4337 
G01 X82.4199 Y33.4146 
G01 X78.8701 Y33.4146 
G01 X78.8240 Y33.4337 
G01 X78.7887 Y33.4690 
G01 X78.7696 Y33.5151 
G01 X78.7696 Y35.0649 
G01 X78.7887 Y35.1110 
G01 X78.8240 Y35.1463 
G01 X78.8701 Y35.1654 
G01 X82.4199 Y35.1654 
G01 X82.4660 Y35.1463 
G01 X82.5013 Y35.1110 
G01 X82.5204 Y35.0649 
G01 X82.5204 Y34.6694 
G01 X86.8378 Y34.6694 
G01 X87.8856 Y35.7172 
G01 X87.8856 Y41.1178 
G01 X84.9328 Y44.0706 
G01 X37.6222 Y44.0706 
G01 X25.1554 Y31.6038 
G01 X25.1554 Y30.4961 
G01 X25.1363 Y30.4500 
G01 X25.1010 Y30.4147 
G01 X25.0549 Y30.3956 
G01 X23.2051 Y30.3956 
G01 X23.1590 Y30.4147 
G01 X23.1237 Y30.4500 
G00 Z2.5400 
G00 X27.7828 Y29.5894 
G01 Z-0.2000 F254.00 
G01 X33.3514 Y35.1580 F508.00 
G01 X33.4220 Y35.2286 
G01 X33.5086 Y35.2785 
G01 X33.6050 Y35.3044 
G01 X34.1328 Y35.3044 
G01 X34.1646 Y35.3362 
G01 X34.1646 Y35.3944 
G01 X34.1837 Y35.4405 
G01 X34.2190 Y35.4758 
G01 X34.2651 Y35.4949 
G01 X34.6980 Y35.4949 
G01 X34.6980 Y35.6251 
G01 X34.2651 Y35.6251 
G01 X34.2190 Y35.6442 
G01 X34.1837 Y35.6795 
G01 X34.1646 Y35.7256 
G01 X34.1646 Y36.4104 
G01 X34.1837 Y36.4565 
G01 X34.2190 Y36.4918 
G01 X34.2651 Y36.5109 
G01 X34.8313 Y36.5109 
G01 X40.5340 Y42.2136 
G01 X40.6206 Y42.2635 
G01 X40.7170 Y42.2894 
G01 X83.8700 Y42.2894 
G01 X83.9664 Y42.2635 
G01 X84.0530 Y42.2136 
G01 X84.1236 Y42.1430 
G01 X85.3936 Y40.8730 
G01 X85.4435 Y40.7864 
G01 X85.4694 Y40.6900 
G01 X85.4694 Y37.4150 
G01 X85.4435 Y37.3186 
G01 X85.3936 Y37.2320 
G01 X85.3230 Y37.1614 
G01 X84.6880 Y36.5264 
G01 X84.6014 Y36.4765 
G01 X84.5049 Y36.4506 
G01 X82.5204 Y36.4506 
G01 X82.5204 Y36.0551 
G01 X82.5013 Y36.0090 
G01 X82.4660 Y35.9737 
G01 X82.4199 Y35.9546 
G01 X78.8701 Y35.9546 
G01 X78.8240 Y35.9737 
G01 X78.7887 Y36.0090 
G01 X78.7696 Y36.0551 
G01 X78.7696 Y37.6049 
G01 X78.7887 Y37.6510 
G01 X78.8240 Y37.6863 
G01 X78.8701 Y37.7054 
G01 X82.4199 Y37.7054 
G01 X82.4660 Y37.6863 
G01 X82.5013 Y37.6510 
G01 X82.5204 Y37.6049 
G01 X82.5204 Y37.2094 
G01 X84.2978 Y37.2094 
G01 X84.7106 Y37.6222 
G01 X84.7106 Y40.4828 
G01 X83.6628 Y41.5306 
G01 X40.9242 Y41.5306 
G01 X35.6854 Y36.2918 
G01 X35.6854 Y35.7256 
G01 X35.6663 Y35.6795 
G01 X35.6310 Y35.6442 
G01 X35.5849 Y35.6251 
G01 X35.1520 Y35.6251 
G01 X35.1520 Y35.4949 
G01 X35.5849 Y35.4949 
G01 X35.6310 Y35.4758 
G01 X35.6663 Y35.4405 
G01 X35.6854 Y35.3944 
G01 X35.6854 Y35.3044 
G01 X36.2450 Y35.3044 
G01 X36.3414 Y35.2785 
G01 X36.4280 Y35.2286 
G01 X37.0630 Y34.5936 
G01 X37.1336 Y34.5230 
G01 X37.1835 Y34.4364 
G01 X37.2094 Y34.3400 
G01 X37.2094 Y33.2204 
G01 X37.4649 Y33.2204 
G01 X37.5110 Y33.2013 
G01 X37.5463 Y33.1660 
G01 X37.5654 Y33.1199 
G01 X37.5654 Y30.0701 
G01 X37.5463 Y30.0240 
G01 X37.5110 Y29.9887 
G01 X37.4649 Y29.9696 
G01 X36.2151 Y29.9696 
G01 X36.1690 Y29.9887 
G01 X36.1337 Y30.0240 
G01 X36.1146 Y30.0701 
G01 X36.1146 Y33.1199 
G01 X36.1337 Y33.1660 
G01 X36.1690 Y33.2013 
G01 X36.2151 Y33.2204 
G01 X36.4506 Y33.2204 
G01 X36.4506 Y34.1328 
G01 X36.0378 Y34.5456 
G01 X33.8122 Y34.5456 
G01 X28.1730 Y28.9064 
G01 X28.0864 Y28.8565 
G01 X27.9900 Y28.8306 
G01 X12.0354 Y28.8306 
G01 X12.0354 Y28.4351 
G01 X12.0163 Y28.3890 
G01 X11.9810 Y28.3537 
G01 X11.9349 Y28.3346 
G01 X8.3851 Y28.3346 
G01 X8.3390 Y28.3537 
G01 X8.3037 Y28.3890 
G01 X8.2846 Y28.4351 
G01 X8.2846 Y29.9849 
G01 X8.3037 Y30.0310 
G01 X8.3390 Y30.0663 
G01 X8.3851 Y30.0854 
G01 X11.9349 Y30.0854 
G01 X11.9810 Y30.0663 
G01 X12.0163 Y30.0310 
G01 X12.0354 Y29.9849 
G01 X12.0354 Y29.5894 
G01 X27.7828 Y29.5894 
G00 Z2.5400 
G00 X38.1337 Y30.0240 
G01 Z-0.2000 F254.00 
G01 X38.1146 Y30.0701 F508.00 
G01 X38.1146 Y33.1199 
G01 X38.1337 Y33.1660 
G01 X38.1690 Y33.2013 
G01 X38.2151 Y33.2204 
G01 X38.4606 Y33.2204 
G01 X38.4606 Y36.3499 
G01 X38.4865 Y36.4464 
G01 X38.5364 Y36.5330 
G01 X39.1103 Y37.1069 
G01 X39.0784 Y37.1839 
G01 X39.0414 Y37.3701 
G01 X39.0414 Y37.5599 
G01 X39.0784 Y37.7461 
G01 X39.1511 Y37.9214 
G01 X39.2565 Y38.0793 
G01 X40.6607 Y39.4835 
G01 X40.8186 Y39.5889 
G01 X40.9939 Y39.6616 
G01 X41.1801 Y39.6986 
G01 X41.3699 Y39.6986 
G01 X41.5561 Y39.6616 
G01 X41.7314 Y39.5889 
G01 X41.8893 Y39.4835 
G01 X42.0235 Y39.3493 
G01 X42.1289 Y39.1914 
G01 X42.2016 Y39.0161 
G01 X42.2386 Y38.8299 
G01 X42.2386 Y38.6401 
G01 X42.2016 Y38.4539 
G01 X42.1289 Y38.2786 
G01 X42.0235 Y38.1207 
G01 X40.6193 Y36.7165 
G01 X40.4614 Y36.6111 
G01 X40.2861 Y36.5384 
G01 X40.0999 Y36.5014 
G01 X39.9101 Y36.5014 
G01 X39.7239 Y36.5384 
G01 X39.6469 Y36.5703 
G01 X39.2194 Y36.1428 
G01 X39.2194 Y33.2204 
G01 X39.4649 Y33.2204 
G01 X39.5110 Y33.2013 
G01 X39.5463 Y33.1660 
G01 X39.5654 Y33.1199 
G01 X39.5654 Y30.0701 
G01 X39.5463 Y30.0240 
G01 X39.5110 Y29.9887 
G01 X39.4649 Y29.9696 
G01 X38.2151 Y29.9696 
G01 X38.1690 Y29.9887 
G01 X38.1337 Y30.0240 
G00 Z2.5400 
G00 X40.1337 Y30.0240 
G01 Z-0.2000 F254.00 
G01 X40.1146 Y30.0701 F508.00 
G01 X40.1146 Y33.1199 
G01 X40.1337 Y33.1660 
G01 X40.1690 Y33.2013 
G01 X40.2151 Y33.2204 
G01 X40.4098 Y33.2204 
G01 X40.4098 Y35.1816 
G01 X40.4391 Y35.2910 
G01 X40.4958 Y35.3891 
G01 X44.1693 Y39.0627 
G01 X44.1584 Y39.0889 
G01 X44.1214 Y39.2751 
G01 X44.1214 Y39.4649 
G01 X44.1584 Y39.6511 
G01 X44.2311 Y39.8264 
G01 X44.3365 Y39.9843 
G01 X44.4707 Y40.1185 
G01 X44.6286 Y40.2239 
G01 X44.8039 Y40.2966 
G01 X44.9901 Y40.3336 
G01 X47.0849 Y40.3336 
G01 X47.2711 Y40.2966 
G01 X47.4464 Y40.2239 
G01 X47.6043 Y40.1185 
G01 X47.7385 Y39.9843 
G01 X47.8439 Y39.8264 
G01 X47.9166 Y39.6511 
G01 X47.9536 Y39.4649 
G01 X47.9536 Y39.2751 
G01 X47.9166 Y39.0889 
G01 X47.8439 Y38.9136 
G01 X47.7385 Y38.7557 
G01 X47.6043 Y38.6215 
G01 X47.4464 Y38.5161 
G01 X47.2711 Y38.4434 
G01 X47.0849 Y38.4064 
G01 X44.9901 Y38.4064 
G01 X44.8039 Y38.4434 
G01 X44.7777 Y38.4543 
G01 X41.2702 Y34.9468 
G01 X41.2702 Y33.2204 
G01 X41.4649 Y33.2204 
G01 X41.5110 Y33.2013 
G01 X41.5463 Y33.1660 
G01 X41.5654 Y33.1199 
G01 X41.5654 Y30.0701 
G01 X41.5463 Y30.0240 
G01 X41.5110 Y29.9887 
G01 X41.4649 Y29.9696 
G01 X40.2151 Y29.9696 
G01 X40.1690 Y29.9887 
G01 X40.1337 Y30.0240 
G00 Z2.5400 
G00 X46.1337 Y30.0240 
G01 Z-0.2000 F254.00 
G01 X46.1146 Y30.0701 F508.00 
G01 X46.1146 Y33.1199 
G01 X46.1337 Y33.1660 
G01 X46.1690 Y33.2013 
G01 X46.2151 Y33.2204 
G01 X46.4606 Y33.2204 
G01 X46.4606 Y33.5549 
G01 X46.4865 Y33.6514 
G01 X46.5364 Y33.7380 
G01 X47.3214 Y34.5230 
G01 X47.3920 Y34.5936 
G01 X47.4786 Y34.6435 
G01 X47.5750 Y34.6694 
G01 X55.2950 Y34.6694 
G01 X55.3914 Y34.6435 
G01 X55.4780 Y34.5936 
G01 X56.7480 Y33.3236 
G01 X56.8186 Y33.2530 
G01 X56.8685 Y33.1664 
G01 X56.8944 Y33.0699 
G01 X56.8944 Y30.2244 
G01 X58.0281 Y30.2244 
G01 X58.0281 Y30.8219 
G01 X58.0472 Y30.8680 
G01 X58.0825 Y30.9033 
G01 X58.1286 Y30.9224 
G01 X59.9814 Y30.9224 
G01 X60.0275 Y30.9033 
G01 X60.0628 Y30.8680 
G01 X60.0819 Y30.8219 
G01 X60.0819 Y30.3764 
G01 X73.6896 Y30.3764 
G01 X73.6896 Y31.2549 
G01 X73.7087 Y31.3010 
G01 X73.7440 Y31.3363 
G01 X73.7901 Y31.3554 
G01 X77.3399 Y31.3554 
G01 X77.3860 Y31.3363 
G01 X77.4213 Y31.3010 
G01 X77.4404 Y31.2549 
G01 X77.4404 Y29.7051 
G01 X77.4213 Y29.6590 
G01 X77.3860 Y29.6237 
G01 X77.3399 Y29.6046 
G01 X73.7901 Y29.6046 
G01 X73.7587 Y29.6176 
G01 X60.0819 Y29.6176 
G01 X60.0819 Y29.1721 
G01 X60.0628 Y29.1260 
G01 X60.0275 Y29.0907 
G01 X59.9814 Y29.0716 
G01 X58.1286 Y29.0716 
G01 X58.0825 Y29.0907 
G01 X58.0472 Y29.1260 
G01 X58.0281 Y29.1721 
G01 X58.0281 Y29.4656 
G01 X56.4650 Y29.4656 
G01 X56.3686 Y29.4915 
G01 X56.2820 Y29.5414 
G01 X56.2114 Y29.6120 
G01 X56.1615 Y29.6986 
G01 X56.1356 Y29.7950 
G01 X56.1356 Y32.8628 
G01 X55.0878 Y33.9106 
G01 X47.7822 Y33.9106 
G01 X47.2194 Y33.3478 
G01 X47.2194 Y33.2204 
G01 X47.4649 Y33.2204 
G01 X47.5110 Y33.2013 
G01 X47.5463 Y33.1660 
G01 X47.5654 Y33.1199 
G01 X47.5654 Y30.0701 
G01 X47.5463 Y30.0240 
G01 X47.5110 Y29.9887 
G01 X47.4649 Y29.9696 
G01 X46.2151 Y29.9696 
G01 X46.1690 Y29.9887 
G01 X46.1337 Y30.0240 
G00 Z2.5400 
G00 X48.1337 Y30.0240 
G01 Z-0.2000 F254.00 
G01 X48.1146 Y30.0701 F508.00 
G01 X48.1146 Y33.1199 
G01 X48.1337 Y33.1660 
G01 X48.1690 Y33.2013 
G01 X48.2151 Y33.2204 
G01 X49.4649 Y33.2204 
G01 X49.5110 Y33.2013 
G01 X49.5463 Y33.1660 
G01 X49.5654 Y33.1199 
G01 X49.5654 Y32.0204 
G01 X49.5686 Y32.0204 
G01 X49.5686 Y33.1119 
G01 X49.5572 Y33.1545 
G01 X49.5572 Y33.2411 
G01 X49.5677 Y33.2804 
G01 X49.5796 Y33.3246 
G01 X49.6037 Y33.3664 
G01 X49.6228 Y33.3996 
G01 X49.6840 Y33.4607 
G01 X49.7320 Y33.4884 
G01 X49.7589 Y33.5040 
G01 X49.7726 Y33.5077 
G01 X49.8425 Y33.5264 
G01 X54.8359 Y33.5264 
G01 X54.9194 Y33.5040 
G01 X54.9944 Y33.4607 
G01 X55.6246 Y32.8305 
G01 X55.6857 Y32.7694 
G01 X55.7290 Y32.6944 
G01 X55.7514 Y32.6109 
G01 X55.7514 Y29.6931 
G01 X55.8676 Y29.4124 
G01 X56.0824 Y29.1976 
G01 X56.3631 Y29.0814 
G01 X57.4087 Y29.0814 
G01 X57.4302 Y29.0842 
G01 X57.4518 Y29.0814 
G01 X57.4735 Y29.0814 
G01 X57.4945 Y29.0758 
G01 X57.5160 Y29.0729 
G01 X57.5361 Y29.0646 
G01 X57.5571 Y29.0590 
G01 X57.5759 Y29.0481 
G01 X57.5960 Y29.0398 
G01 X57.6132 Y29.0266 
G01 X57.6320 Y29.0157 
G01 X57.6474 Y29.0004 
G01 X57.6646 Y28.9871 
G01 X57.6778 Y28.9699 
G01 X57.6932 Y28.9546 
G01 X57.7040 Y28.9357 
G01 X57.7173 Y28.9185 
G01 X57.7215 Y28.9083 
G01 X57.8648 Y28.7650 
G01 X58.0665 Y28.6814 
G01 X58.0875 Y28.6758 
G01 X58.1063 Y28.6649 
G01 X58.1264 Y28.6566 
G01 X58.1436 Y28.6434 
G01 X58.1624 Y28.6325 
G01 X58.1778 Y28.6172 
G01 X58.1950 Y28.6040 
G01 X58.2083 Y28.5867 
G01 X58.2236 Y28.5714 
G01 X58.2345 Y28.5526 
G01 X58.2477 Y28.5353 
G01 X58.2560 Y28.5153 
G01 X58.2669 Y28.4964 
G01 X58.2725 Y28.4754 
G01 X58.2808 Y28.4554 
G01 X58.2837 Y28.4339 
G01 X58.2893 Y28.4129 
G01 X58.2893 Y28.3911 
G01 X58.2921 Y28.3696 
G01 X58.2893 Y28.3481 
G01 X58.2893 Y28.3263 
G01 X58.2837 Y28.3054 
G01 X58.2808 Y28.2838 
G01 X58.2725 Y28.2638 
G01 X58.2669 Y28.2428 
G01 X58.2560 Y28.2239 
G01 X58.2477 Y28.2039 
G01 X58.2345 Y28.1867 
G01 X58.2236 Y28.1678 
G01 X58.2083 Y28.1525 
G01 X58.1950 Y28.1352 
G01 X58.1778 Y28.1220 
G01 X58.1624 Y28.1067 
G01 X58.1436 Y28.0958 
G01 X58.1264 Y28.0826 
G01 X58.1063 Y28.0743 
G01 X58.0745 Y28.0559 
G01 X58.0506 Y28.0320 
G01 X58.0337 Y28.0026 
G01 X58.0249 Y27.9699 
G01 X58.0249 Y27.6784 
G01 X58.0281 Y27.6784 
G01 X58.0281 Y27.9779 
G01 X58.0472 Y28.0240 
G01 X58.0825 Y28.0593 
G01 X58.1286 Y28.0784 
G01 X59.9814 Y28.0784 
G01 X60.0275 Y28.0593 
G01 X60.0628 Y28.0240 
G01 X60.0819 Y27.9779 
G01 X60.0819 Y27.6784 
G01 X60.0851 Y27.6784 
G01 X60.0851 Y27.9699 
G01 X60.0763 Y28.0026 
G01 X60.0594 Y28.0320 
G01 X60.0355 Y28.0559 
G01 X60.0037 Y28.0743 
G01 X59.9836 Y28.0826 
G01 X59.9664 Y28.0958 
G01 X59.9475 Y28.1067 
G01 X59.9322 Y28.1220 
G01 X59.9149 Y28.1352 
G01 X59.9017 Y28.1525 
G01 X59.8864 Y28.1678 
G01 X59.8755 Y28.1867 
G01 X59.8623 Y28.2039 
G01 X59.8540 Y28.2239 
G01 X59.8431 Y28.2428 
G01 X59.8375 Y28.2638 
G01 X59.8292 Y28.2838 
G01 X59.8263 Y28.3054 
G01 X59.8207 Y28.3263 
G01 X59.8207 Y28.3481 
G01 X59.8179 Y28.3696 
G01 X59.8207 Y28.3911 
G01 X59.8207 Y28.4129 
G01 X59.8263 Y28.4339 
G01 X59.8292 Y28.4554 
G01 X59.8375 Y28.4754 
G01 X59.8431 Y28.4964 
G01 X59.8540 Y28.5153 
G01 X59.8623 Y28.5353 
G01 X59.8755 Y28.5526 
G01 X59.8864 Y28.5714 
G01 X59.9017 Y28.5867 
G01 X59.9149 Y28.6040 
G01 X59.9322 Y28.6172 
G01 X59.9475 Y28.6325 
G01 X59.9664 Y28.6434 
G01 X59.9836 Y28.6566 
G01 X60.0037 Y28.6649 
G01 X60.0225 Y28.6758 
G01 X60.0435 Y28.6814 
G01 X60.2452 Y28.7650 
G01 X60.3885 Y28.9083 
G01 X60.4309 Y29.0107 
G01 X60.4365 Y29.0316 
G01 X60.4474 Y29.0504 
G01 X60.4557 Y29.0705 
G01 X60.4689 Y29.0878 
G01 X60.4798 Y29.1066 
G01 X60.4951 Y29.1219 
G01 X60.5084 Y29.1392 
G01 X60.5256 Y29.1524 
G01 X60.5410 Y29.1677 
G01 X60.5598 Y29.1786 
G01 X60.5770 Y29.1918 
G01 X60.5971 Y29.2001 
G01 X60.6159 Y29.2110 
G01 X60.6369 Y29.2166 
G01 X60.6569 Y29.2249 
G01 X60.6785 Y29.2278 
G01 X60.6995 Y29.2334 
G01 X60.7212 Y29.2334 
G01 X60.7427 Y29.2362 
G01 X60.7643 Y29.2334 
G01 X67.1308 Y29.2334 
G01 X67.1745 Y29.2334 
G01 X67.2173 Y29.2334 
G01 X67.2674 Y29.2200 
G01 X67.3008 Y29.2110 
G01 X67.3383 Y29.1894 
G01 X67.3758 Y29.1677 
G01 X67.4066 Y29.1369 
G01 X67.4370 Y29.1066 
G01 X67.4561 Y29.0734 
G01 X67.4802 Y29.0316 
G01 X67.4902 Y28.9945 
G01 X67.5026 Y28.9481 
G01 X67.5026 Y28.9043 
G01 X67.5026 Y28.8615 
G01 X67.4892 Y28.8114 
G01 X67.4802 Y28.7780 
G01 X67.4586 Y28.7405 
G01 X67.4378 Y28.7046 
G01 X67.2322 Y28.2081 
G01 X67.2322 Y27.6719 
G01 X67.4374 Y27.1765 
G01 X67.8165 Y26.7974 
G01 X68.3119 Y26.5922 
G01 X69.2123 Y26.5922 
G01 X69.2958 Y26.5698 
G01 X69.3708 Y26.5265 
G01 X69.4319 Y26.4654 
G01 X69.4752 Y26.3904 
G01 X69.4966 Y26.3104 
G01 X69.4976 Y26.3069 
G01 X69.4976 Y26.2203 
G01 X69.4752 Y26.1368 
G01 X69.4319 Y26.0618 
G01 X69.4272 Y26.0571 
G01 X69.3708 Y26.0007 
G01 X69.1306 Y25.7605 
G01 X64.1226 Y20.7525 
G01 X64.0064 Y20.4719 
G01 X64.0064 Y15.0141 
G01 X63.9840 Y14.9306 
G01 X63.9407 Y14.8556 
G01 X61.4055 Y12.3204 
G01 X61.3444 Y12.2592 
G01 X61.2694 Y12.2160 
G01 X61.1859 Y12.1936 
G01 X48.6691 Y12.1936 
G01 X48.6656 Y12.1945 
G01 X48.5856 Y12.2160 
G01 X48.5123 Y12.2583 
G01 X48.1760 Y12.5939 
G01 X48.1148 Y12.6550 
G01 X48.0716 Y12.7300 
G01 X48.0706 Y12.7335 
G01 X48.0492 Y12.8135 
G01 X48.0492 Y12.9001 
G01 X48.0716 Y12.9836 
G01 X48.1148 Y13.0586 
G01 X48.1760 Y13.1197 
G01 X48.2510 Y13.1630 
G01 X48.2545 Y13.1640 
G01 X48.3345 Y13.1854 
G01 X49.5414 Y13.1854 
G01 X49.7287 Y13.2630 
G01 X49.8720 Y13.4063 
G01 X49.9496 Y13.5936 
G01 X49.9496 Y16.7964 
G01 X49.8720 Y16.9837 
G01 X49.8006 Y17.0550 
G01 X49.7574 Y17.1300 
G01 X49.7467 Y17.1697 
G01 X49.7350 Y17.2135 
G01 X49.7350 Y17.3001 
G01 X49.7435 Y17.3319 
G01 X49.7574 Y17.3836 
G01 X49.7699 Y17.4054 
G01 X49.8006 Y17.4586 
G01 X49.8618 Y17.5197 
G01 X49.9367 Y17.5630 
G01 X49.9765 Y17.5737 
G01 X50.0203 Y17.5854 
G01 X52.5414 Y17.5854 
G01 X52.7287 Y17.6630 
G01 X52.8720 Y17.8063 
G01 X52.9496 Y17.9936 
G01 X52.9496 Y19.3964 
G01 X52.8945 Y19.5293 
G01 X52.8725 Y19.5824 
G01 X52.8614 Y19.6092 
G01 X52.8545 Y19.6621 
G01 X52.8501 Y19.6950 
G01 X52.8547 Y19.7298 
G01 X52.8614 Y19.7808 
G01 X52.8721 Y19.8064 
G01 X52.8945 Y19.8607 
G01 X52.9496 Y19.9936 
G01 X52.9496 Y21.3964 
G01 X52.8945 Y21.5293 
G01 X52.8725 Y21.5824 
G01 X52.8614 Y21.6092 
G01 X52.8545 Y21.6621 
G01 X52.8501 Y21.6950 
G01 X52.8547 Y21.7298 
G01 X52.8614 Y21.7808 
G01 X52.8721 Y21.8064 
G01 X52.8945 Y21.8607 
G01 X52.9496 Y21.9936 
G01 X52.9496 Y23.3964 
G01 X52.8945 Y23.5293 
G01 X52.8725 Y23.5824 
G01 X52.8614 Y23.6092 
G01 X52.8545 Y23.6621 
G01 X52.8501 Y23.6950 
G01 X52.8547 Y23.7298 
G01 X52.8614 Y23.7808 
G01 X52.8721 Y23.8064 
G01 X52.8945 Y23.8607 
G01 X52.9496 Y23.9936 
G01 X52.9496 Y25.3964 
G01 X52.8945 Y25.5293 
G01 X52.8725 Y25.5824 
G01 X52.8614 Y25.6092 
G01 X52.8545 Y25.6621 
G01 X52.8501 Y25.6950 
G01 X52.8547 Y25.7298 
G01 X52.8614 Y25.7808 
G01 X52.8721 Y25.8064 
G01 X52.8945 Y25.8607 
G01 X52.9496 Y25.9936 
G01 X52.9496 Y27.3964 
G01 X52.8945 Y27.5293 
G01 X52.8711 Y27.5860 
G01 X52.8614 Y27.6092 
G01 X52.8545 Y27.6621 
G01 X52.8501 Y27.6950 
G01 X52.8547 Y27.7298 
G01 X52.8614 Y27.7808 
G01 X52.8737 Y27.8104 
G01 X52.8945 Y27.8607 
G01 X52.9496 Y27.9936 
G01 X52.9496 Y29.3964 
G01 X52.8720 Y29.5837 
G01 X52.7287 Y29.7270 
G01 X52.5414 Y29.8046 
G01 X49.8539 Y29.8046 
G01 X49.7704 Y29.8270 
G01 X49.6954 Y29.8702 
G01 X49.6343 Y29.9314 
G01 X49.5910 Y30.0064 
G01 X49.5686 Y30.0899 
G01 X49.5686 Y31.1696 
G01 X49.5654 Y31.1696 
G01 X49.5654 Y30.0701 
G01 X49.5463 Y30.0240 
G01 X49.5110 Y29.9887 
G01 X49.4649 Y29.9696 
G01 X48.2151 Y29.9696 
G01 X48.1690 Y29.9887 
G01 X48.1337 Y30.0240 
G00 Z2.5400 
G00 X49.3690 Y29.4013 
G01 Z-0.2000 F254.00 
G01 X49.4151 Y29.4204 F508.00 
G01 X52.4649 Y29.4204 
G01 X52.5110 Y29.4013 
G01 X52.5463 Y29.3660 
G01 X52.5654 Y29.3199 
G01 X52.5654 Y28.0701 
G01 X52.5463 Y28.0240 
G01 X52.5110 Y27.9887 
G01 X52.4649 Y27.9696 
G01 X49.4151 Y27.9696 
G01 X49.3690 Y27.9887 
G01 X49.3337 Y28.0240 
G01 X49.3146 Y28.0701 
G01 X49.3146 Y29.3199 
G01 X49.3337 Y29.3660 
G01 X49.3690 Y29.4013 
G00 Z2.5400 
G00 X49.3690 Y27.4013 
G01 Z-0.2000 F254.00 
G01 X49.4151 Y27.4204 F508.00 
G01 X52.4649 Y27.4204 
G01 X52.5110 Y27.4013 
G01 X52.5463 Y27.3660 
G01 X52.5654 Y27.3199 
G01 X52.5654 Y26.0701 
G01 X52.5463 Y26.0240 
G01 X52.5110 Y25.9887 
G01 X52.4649 Y25.9696 
G01 X49.4151 Y25.9696 
G01 X49.3690 Y25.9887 
G01 X49.3337 Y26.0240 
G01 X49.3146 Y26.0701 
G01 X49.3146 Y27.3199 
G01 X49.3337 Y27.3660 
G01 X49.3690 Y27.4013 
G00 Z2.5400 
G00 X49.3690 Y25.4013 
G01 Z-0.2000 F254.00 
G01 X49.4151 Y25.4204 F508.00 
G01 X52.4649 Y25.4204 
G01 X52.5110 Y25.4013 
G01 X52.5463 Y25.3660 
G01 X52.5654 Y25.3199 
G01 X52.5654 Y24.0701 
G01 X52.5463 Y24.0240 
G01 X52.5110 Y23.9887 
G01 X52.4649 Y23.9696 
G01 X49.4151 Y23.9696 
G01 X49.3690 Y23.9887 
G01 X49.3337 Y24.0240 
G01 X49.3146 Y24.0701 
G01 X49.3146 Y25.3199 
G01 X49.3337 Y25.3660 
G01 X49.3690 Y25.4013 
G00 Z2.5400 
G00 X49.3690 Y23.4013 
G01 Z-0.2000 F254.00 
G01 X49.4151 Y23.4204 F508.00 
G01 X52.4649 Y23.4204 
G01 X52.5110 Y23.4013 
G01 X52.5463 Y23.3660 
G01 X52.5654 Y23.3199 
G01 X52.5654 Y22.0701 
G01 X52.5463 Y22.0240 
G01 X52.5110 Y21.9887 
G01 X52.4649 Y21.9696 
G01 X49.4151 Y21.9696 
G01 X49.3690 Y21.9887 
G01 X49.3337 Y22.0240 
G01 X49.3146 Y22.0701 
G01 X49.3146 Y23.3199 
G01 X49.3337 Y23.3660 
G01 X49.3690 Y23.4013 
G00 Z2.5400 
G00 X49.3690 Y21.4013 
G01 Z-0.2000 F254.00 
G01 X49.4151 Y21.4204 F508.00 
G01 X52.4649 Y21.4204 
G01 X52.5110 Y21.4013 
G01 X52.5463 Y21.3660 
G01 X52.5654 Y21.3199 
G01 X52.5654 Y20.0701 
G01 X52.5463 Y20.0240 
G01 X52.5110 Y19.9887 
G01 X52.4649 Y19.9696 
G01 X49.4151 Y19.9696 
G01 X49.3690 Y19.9887 
G01 X49.3337 Y20.0240 
G01 X49.3146 Y20.0701 
G01 X49.3146 Y21.3199 
G01 X49.3337 Y21.3660 
G01 X49.3690 Y21.4013 
G00 Z2.5400 
G00 X49.3690 Y19.4013 
G01 Z-0.2000 F254.00 
G01 X49.4151 Y19.4204 F508.00 
G01 X52.4649 Y19.4204 
G01 X52.5110 Y19.4013 
G01 X52.5463 Y19.3660 
G01 X52.5654 Y19.3199 
G01 X52.5654 Y18.0701 
G01 X52.5463 Y18.0240 
G01 X52.5110 Y17.9887 
G01 X52.4649 Y17.9696 
G01 X49.4151 Y17.9696 
G01 X49.3690 Y17.9887 
G01 X49.3337 Y18.0240 
G01 X49.3146 Y18.0701 
G01 X49.3146 Y19.3199 
G01 X49.3337 Y19.3660 
G01 X49.3690 Y19.4013 
G00 Z2.5400 
G00 X47.5463 Y16.7660 
G01 Z-0.2000 F254.00 
G01 X47.5654 Y16.7199 F508.00 
G01 X47.5654 Y13.6701 
G01 X47.5463 Y13.6240 
G01 X47.5110 Y13.5887 
G01 X47.4649 Y13.5696 
G01 X47.2194 Y13.5696 
G01 X47.2194 Y13.0072 
G01 X48.4172 Y11.8094 
G01 X61.4378 Y11.8094 
G01 X64.3906 Y14.7622 
G01 X64.3906 Y20.3699 
G01 X64.4165 Y20.4664 
G01 X64.4664 Y20.5530 
G01 X69.5464 Y25.6330 
G01 X69.6170 Y25.7036 
G01 X69.7036 Y25.7535 
G01 X69.8000 Y25.7794 
G01 X73.6896 Y25.7794 
G01 X73.6896 Y26.1749 
G01 X73.7087 Y26.2210 
G01 X73.7440 Y26.2563 
G01 X73.7901 Y26.2754 
G01 X77.3399 Y26.2754 
G01 X77.3860 Y26.2563 
G01 X77.4213 Y26.2210 
G01 X77.4404 Y26.1749 
G01 X77.4404 Y24.6251 
G01 X77.4213 Y24.5790 
G01 X77.3860 Y24.5437 
G01 X77.3399 Y24.5246 
G01 X73.7901 Y24.5246 
G01 X73.7440 Y24.5437 
G01 X73.7087 Y24.5790 
G01 X73.6896 Y24.6251 
G01 X73.6896 Y25.0206 
G01 X70.0072 Y25.0206 
G01 X65.1494 Y20.1628 
G01 X65.1494 Y14.5550 
G01 X65.1235 Y14.4586 
G01 X65.0736 Y14.3720 
G01 X65.0030 Y14.3014 
G01 X61.8280 Y11.1264 
G01 X61.7414 Y11.0765 
G01 X61.6450 Y11.0506 
G01 X48.2100 Y11.0506 
G01 X48.1136 Y11.0765 
G01 X48.0270 Y11.1264 
G01 X47.9564 Y11.1970 
G01 X46.5364 Y12.6170 
G01 X46.4865 Y12.7036 
G01 X46.4606 Y12.8000 
G01 X46.4606 Y13.5696 
G01 X46.2151 Y13.5696 
G01 X46.1690 Y13.5887 
G01 X46.1337 Y13.6240 
G01 X46.1146 Y13.6701 
G01 X46.1146 Y16.7199 
G01 X46.1337 Y16.7660 
G01 X46.1690 Y16.8013 
G01 X46.2151 Y16.8204 
G01 X47.4649 Y16.8204 
G01 X47.5110 Y16.8013 
G01 X47.5463 Y16.7660 
G00 Z2.5400 
G00 X45.5463 Y16.7660 
G01 Z-0.2000 F254.00 
G01 X45.5654 Y16.7199 F508.00 
G01 X45.5654 Y13.6701 
G01 X45.5463 Y13.6240 
G01 X45.5110 Y13.5887 
G01 X45.4649 Y13.5696 
G01 X44.2151 Y13.5696 
G01 X44.1690 Y13.5887 
G01 X44.1337 Y13.6240 
G01 X44.1146 Y13.6701 
G01 X44.1146 Y16.7199 
G01 X44.1337 Y16.7660 
G01 X44.1690 Y16.8013 
G01 X44.2151 Y16.8204 
G01 X45.4649 Y16.8204 
G01 X45.5110 Y16.8013 
G01 X45.5463 Y16.7660 
G00 Z2.5400 
G00 X43.5463 Y16.7660 
G01 Z-0.2000 F254.00 
G01 X43.5654 Y16.7199 F508.00 
G01 X43.5654 Y13.6701 
G01 X43.5463 Y13.6240 
G01 X43.5110 Y13.5887 
G01 X43.4649 Y13.5696 
G01 X43.2194 Y13.5696 
G01 X43.2194 Y11.2922 
G01 X44.6072 Y9.9044 
G01 X62.7078 Y9.9044 
G01 X66.2956 Y13.4922 
G01 X66.2956 Y19.0999 
G01 X66.3215 Y19.1964 
G01 X66.3714 Y19.2830 
G01 X66.4420 Y19.3536 
G01 X70.1814 Y23.0930 
G01 X70.2520 Y23.1636 
G01 X70.3386 Y23.2135 
G01 X70.4350 Y23.2394 
G01 X73.6896 Y23.2394 
G01 X73.6896 Y23.6349 
G01 X73.7087 Y23.6810 
G01 X73.7440 Y23.7163 
G01 X73.7901 Y23.7354 
G01 X77.3399 Y23.7354 
G01 X77.3860 Y23.7163 
G01 X77.4213 Y23.6810 
G01 X77.4404 Y23.6349 
G01 X77.4404 Y22.0851 
G01 X77.4213 Y22.0390 
G01 X77.3860 Y22.0037 
G01 X77.3399 Y21.9846 
G01 X73.7901 Y21.9846 
G01 X73.7440 Y22.0037 
G01 X73.7087 Y22.0390 
G01 X73.6896 Y22.0851 
G01 X73.6896 Y22.4806 
G01 X70.6422 Y22.4806 
G01 X67.0544 Y18.8928 
G01 X67.0544 Y13.2850 
G01 X67.0285 Y13.1886 
G01 X66.9786 Y13.1020 
G01 X66.9080 Y13.0314 
G01 X63.0980 Y9.2214 
G01 X63.0114 Y9.1715 
G01 X62.9149 Y9.1456 
G01 X44.4000 Y9.1456 
G01 X44.3036 Y9.1715 
G01 X44.2170 Y9.2214 
G01 X44.1464 Y9.2920 
G01 X42.5364 Y10.9020 
G01 X42.4865 Y10.9886 
G01 X42.4606 Y11.0850 
G01 X42.4606 Y13.5696 
G01 X42.2151 Y13.5696 
G01 X42.1690 Y13.5887 
G01 X42.1337 Y13.6240 
G01 X42.1146 Y13.6701 
G01 X42.1146 Y16.7199 
G01 X42.1337 Y16.7660 
G01 X42.1690 Y16.8013 
G01 X42.2151 Y16.8204 
G01 X43.4649 Y16.8204 
G01 X43.5110 Y16.8013 
G01 X43.5463 Y16.7660 
G00 Z2.5400 
G00 X41.5463 Y16.7660 
G01 Z-0.2000 F254.00 
G01 X41.5654 Y16.7199 F508.00 
G01 X41.5654 Y13.6701 
G01 X41.5463 Y13.6240 
G01 X41.5110 Y13.5887 
G01 X41.4649 Y13.5696 
G01 X40.2151 Y13.5696 
G01 X40.1690 Y13.5887 
G01 X40.1337 Y13.6240 
G01 X40.1146 Y13.6701 
G01 X40.1146 Y16.7199 
G01 X40.1337 Y16.7660 
G01 X40.1690 Y16.8013 
G01 X40.2151 Y16.8204 
G01 X41.4649 Y16.8204 
G01 X41.5110 Y16.8013 
G01 X41.5463 Y16.7660 
G00 Z2.5400 
G00 X37.5463 Y16.7660 
G01 Z-0.2000 F254.00 
G01 X37.5654 Y16.7199 F508.00 
G01 X37.5654 Y13.6701 
G01 X37.5463 Y13.6240 
G01 X37.5110 Y13.5887 
G01 X37.4649 Y13.5696 
G01 X36.2151 Y13.5696 
G01 X36.1690 Y13.5887 
G01 X36.1337 Y13.6240 
G01 X36.1146 Y13.6701 
G01 X36.1146 Y16.7199 
G01 X36.1337 Y16.7660 
G01 X36.1690 Y16.8013 
G01 X36.2151 Y16.8204 
G01 X37.4649 Y16.8204 
G01 X37.5110 Y16.8013 
G01 X37.5463 Y16.7660 
G00 Z2.5400 
G00 X23.6036 Y4.9096 
G01 Z-0.2000 F254.00 
G01 X23.6004 Y4.9096 F508.00 
G01 X23.6004 Y4.7101 
G01 X23.5813 Y4.6640 
G01 X23.5460 Y4.6287 
G01 X23.4999 Y4.6096 
G01 X22.6504 Y4.6096 
G01 X22.6504 Y4.6064 
G01 X23.4919 Y4.6064 
G01 X23.5246 Y4.6152 
G01 X23.5540 Y4.6321 
G01 X23.5779 Y4.6560 
G01 X23.5948 Y4.6854 
G01 X23.6036 Y4.7181 
G01 X23.6036 Y4.9096 
G00 Z2.5400 
G00 X21.7996 Y4.6096 
G01 Z-0.2000 F254.00 
G01 X20.9501 Y4.6096 F508.00 
G01 X20.9040 Y4.6287 
G01 X20.8687 Y4.6640 
G01 X20.8496 Y4.7101 
G01 X20.8496 Y4.9096 
G01 X20.8464 Y4.9096 
G01 X20.8464 Y4.7181 
G01 X20.8552 Y4.6854 
G01 X20.8721 Y4.6560 
G01 X20.8960 Y4.6321 
G01 X20.9254 Y4.6152 
G01 X20.9581 Y4.6064 
G01 X21.7996 Y4.6064 
G01 X21.7996 Y4.6096 
G00 Z2.5400 
G00 X10.2979 Y16.6710 
G01 Z-0.2000 F254.00 
G01 X10.3148 Y16.7004 F508.00 
G01 X10.3236 Y16.7331 
G01 X10.3236 Y16.9714 
G01 X10.3204 Y16.9714 
G01 X10.3204 Y16.7251 
G01 X10.3013 Y16.6790 
G01 X10.2660 Y16.6437 
G01 X10.2199 Y16.6246 
G01 X10.1736 Y16.6246 
G01 X10.1736 Y16.6214 
G01 X10.2119 Y16.6214 
G01 X10.2446 Y16.6302 
G01 X10.2740 Y16.6471 
G01 X10.2979 Y16.6710 
G00 Z2.5400 
G00 X9.5164 Y16.6246 
G01 Z-0.2000 F254.00 
G01 X9.4701 Y16.6246 F508.00 
G01 X9.4240 Y16.6437 
G01 X9.3887 Y16.6790 
G01 X9.3696 Y16.7251 
G01 X9.3696 Y16.9714 
G01 X9.3664 Y16.9714 
G01 X9.3664 Y16.7331 
G01 X9.3752 Y16.7004 
G01 X9.3921 Y16.6710 
G01 X9.4160 Y16.6471 
G01 X9.4454 Y16.6302 
G01 X9.4781 Y16.6214 
G01 X9.5164 Y16.6214 
G01 X9.5164 Y16.6246 
G00 Z2.5400 
G00 X9.3696 Y17.6286 
G01 Z-0.2000 F254.00 
G01 X9.3696 Y17.8749 F508.00 
G01 X9.3887 Y17.9210 
G01 X9.4240 Y17.9563 
G01 X9.4701 Y17.9754 
G01 X9.5164 Y17.9754 
G01 X9.5164 Y17.9786 
G01 X9.4781 Y17.9786 
G01 X9.4454 Y17.9698 
G01 X9.4160 Y17.9529 
G01 X9.3921 Y17.9290 
G01 X9.3752 Y17.8996 
G01 X9.3664 Y17.8669 
G01 X9.3664 Y17.6286 
G01 X9.3696 Y17.6286 
G00 Z2.5400 
G00 X10.3204 Y17.6286 
G01 Z-0.2000 F254.00 
G01 X10.3236 Y17.6286 F508.00 
G01 X10.3236 Y17.8669 
G01 X10.3148 Y17.8996 
G01 X10.2979 Y17.9290 
G01 X10.2740 Y17.9529 
G01 X10.2446 Y17.9698 
G01 X10.2119 Y17.9786 
G01 X10.1736 Y17.9786 
G01 X10.1736 Y17.9754 
G01 X10.2199 Y17.9754 
G01 X10.2660 Y17.9563 
G01 X10.3013 Y17.9210 
G01 X10.3204 Y17.8749 
G01 X10.3204 Y17.6286 
G00 Z2.5400 
G00 X6.2546 Y17.9514 
G01 Z-0.2000 F254.00 
G01 X6.1770 Y18.1387 F508.00 
G01 X6.0337 Y18.2820 
G01 X5.8464 Y18.3596 
G01 X4.9436 Y18.3596 
G01 X4.7563 Y18.2820 
G01 X4.6130 Y18.1387 
G01 X4.5354 Y17.9514 
G01 X4.5354 Y16.6486 
G01 X4.6130 Y16.4613 
G01 X4.7563 Y16.3180 
G01 X4.9436 Y16.2404 
G01 X5.8464 Y16.2404 
G01 X6.0337 Y16.3180 
G01 X6.1770 Y16.4613 
G01 X6.2546 Y16.6486 
G01 X6.2546 Y17.9514 
G00 Z2.5400 
G00 X5.8513 Y17.9210 
G01 Z-0.2000 F254.00 
G01 X5.8704 Y17.8749 F508.00 
G01 X5.8704 Y16.7251 
G01 X5.8513 Y16.6790 
G01 X5.8160 Y16.6437 
G01 X5.7699 Y16.6246 
G01 X5.0201 Y16.6246 
G01 X4.9740 Y16.6437 
G01 X4.9387 Y16.6790 
G01 X4.9196 Y16.7251 
G01 X4.9196 Y17.8749 
G01 X4.9387 Y17.9210 
G01 X4.9740 Y17.9563 
G01 X5.0201 Y17.9754 
G01 X5.7699 Y17.9754 
G01 X5.8160 Y17.9563 
G01 X5.8513 Y17.9210 
G00 Z2.5400 
G00 X5.8464 Y19.7404 
G01 Z-0.2000 F254.00 
G01 X6.0337 Y19.8180 F508.00 
G01 X6.1770 Y19.9613 
G01 X6.2546 Y20.1486 
G01 X6.2546 Y21.4514 
G01 X6.1770 Y21.6387 
G01 X6.0337 Y21.7820 
G01 X5.8464 Y21.8596 
G01 X4.9436 Y21.8596 
G01 X4.7563 Y21.7820 
G01 X4.6130 Y21.6387 
G01 X4.5354 Y21.4514 
G01 X4.5354 Y20.1486 
G01 X4.6130 Y19.9613 
G01 X4.7563 Y19.8180 
G01 X4.9436 Y19.7404 
G01 X5.8464 Y19.7404 
G00 Z2.5400 
G00 X5.8160 Y20.1437 
G01 Z-0.2000 F254.00 
G01 X5.7699 Y20.1246 F508.00 
G01 X5.0201 Y20.1246 
G01 X4.9740 Y20.1437 
G01 X4.9387 Y20.1790 
G01 X4.9196 Y20.2251 
G01 X4.9196 Y21.3749 
G01 X4.9387 Y21.4210 
G01 X4.9740 Y21.4563 
G01 X5.0201 Y21.4754 
G01 X5.7699 Y21.4754 
G01 X5.8160 Y21.4563 
G01 X5.8513 Y21.4210 
G01 X5.8704 Y21.3749 
G01 X5.8704 Y20.2251 
G01 X5.8513 Y20.1790 
G01 X5.8160 Y20.1437 
G00 Z2.5400 
G00 X4.6603 Y24.5246 
G01 Z-0.2000 F254.00 
G01 X3.3051 Y24.5246 F508.00 
G01 X3.2590 Y24.5437 
G01 X3.2237 Y24.5790 
G01 X3.2046 Y24.6251 
G01 X3.2046 Y24.8996 
G01 X3.2014 Y24.8996 
G01 X3.2014 Y24.6331 
G01 X3.2102 Y24.6004 
G01 X3.2271 Y24.5710 
G01 X3.2510 Y24.5471 
G01 X3.2804 Y24.5302 
G01 X3.3131 Y24.5214 
G01 X4.6571 Y24.5214 
G01 X4.6603 Y24.5246 
G00 Z2.5400 
G00 X58.0745 Y26.2501 
G01 Z-0.2000 F254.00 
G01 X58.1039 Y26.2332 F508.00 
G01 X58.1366 Y26.2244 
G01 X58.5296 Y26.2244 
G01 X58.5296 Y26.2276 
G01 X58.1286 Y26.2276 
G01 X58.0825 Y26.2467 
G01 X58.0472 Y26.2820 
G01 X58.0281 Y26.3281 
G01 X58.0281 Y26.6276 
G01 X58.0249 Y26.6276 
G01 X58.0249 Y26.3361 
G01 X58.0337 Y26.3034 
G01 X58.0506 Y26.2740 
G01 X58.0745 Y26.2501 
G00 Z2.5400 
G00 X59.5804 Y26.2276 
G01 Z-0.2000 F254.00 
G01 X59.5804 Y26.2244 F508.00 
G01 X59.9734 Y26.2244 
G01 X60.0061 Y26.2332 
G01 X60.0355 Y26.2501 
G01 X60.0594 Y26.2740 
G01 X60.0763 Y26.3034 
G01 X60.0851 Y26.3361 
G01 X60.0851 Y26.6276 
G01 X60.0819 Y26.6276 
G01 X60.0819 Y26.3281 
G01 X60.0628 Y26.2820 
G01 X60.0275 Y26.2467 
G01 X59.9814 Y26.2276 
G01 X59.5804 Y26.2276 
G00 Z2.5400 
G00 X59.9791 Y32.2288 
G01 Z-0.2000 F254.00 
G01 X59.9600 Y32.2749 F508.00 
G01 X59.9600 Y34.3247 
G01 X59.9791 Y34.3708 
G01 X60.0144 Y34.4061 
G01 X60.0605 Y34.4252 
G01 X61.9103 Y34.4252 
G01 X61.9564 Y34.4061 
G01 X61.9917 Y34.3708 
G01 X62.0108 Y34.3247 
G01 X62.0108 Y33.3994 
G01 X73.6896 Y33.3994 
G01 X73.6896 Y33.7949 
G01 X73.7087 Y33.8410 
G01 X73.7440 Y33.8763 
G01 X73.7901 Y33.8954 
G01 X77.3399 Y33.8954 
G01 X77.3860 Y33.8763 
G01 X77.4213 Y33.8410 
G01 X77.4404 Y33.7949 
G01 X77.4404 Y32.2451 
G01 X77.4213 Y32.1990 
G01 X77.3860 Y32.1637 
G01 X77.3399 Y32.1446 
G01 X73.7901 Y32.1446 
G01 X73.7440 Y32.1637 
G01 X73.7087 Y32.1990 
G01 X73.6896 Y32.2451 
G01 X73.6896 Y32.6406 
G01 X62.0108 Y32.6406 
G01 X62.0108 Y32.2749 
G01 X61.9917 Y32.2288 
G01 X61.9564 Y32.1935 
G01 X61.9103 Y32.1744 
G01 X60.0605 Y32.1744 
G01 X60.0144 Y32.1935 
G01 X59.9791 Y32.2288 
G00 Z2.5400 
G00 X67.9657 Y28.6885 
G01 Z-0.2000 F254.00 
G01 X68.1236 Y28.7939 F508.00 
G01 X68.2989 Y28.8666 
G01 X68.4851 Y28.9036 
G01 X70.5799 Y28.9036 
G01 X70.7661 Y28.8666 
G01 X70.9414 Y28.7939 
G01 X71.0993 Y28.6885 
G01 X71.2335 Y28.5543 
G01 X71.3389 Y28.3964 
G01 X71.3708 Y28.3194 
G01 X73.6896 Y28.3194 
G01 X73.6896 Y28.7149 
G01 X73.7087 Y28.7610 
G01 X73.7440 Y28.7963 
G01 X73.7901 Y28.8154 
G01 X77.3399 Y28.8154 
G01 X77.3860 Y28.7963 
G01 X77.4213 Y28.7610 
G01 X77.4404 Y28.7149 
G01 X77.4404 Y27.1651 
G01 X77.4213 Y27.1190 
G01 X77.3860 Y27.0837 
G01 X77.3399 Y27.0646 
G01 X73.7901 Y27.0646 
G01 X73.7440 Y27.0837 
G01 X73.7087 Y27.1190 
G01 X73.6896 Y27.1651 
G01 X73.6896 Y27.5606 
G01 X71.3708 Y27.5606 
G01 X71.3389 Y27.4836 
G01 X71.2335 Y27.3257 
G01 X71.0993 Y27.1915 
G01 X70.9414 Y27.0861 
G01 X70.7661 Y27.0134 
G01 X70.5799 Y26.9764 
G01 X68.4851 Y26.9764 
G01 X68.2989 Y27.0134 
G01 X68.1236 Y27.0861 
G01 X67.9657 Y27.1915 
G01 X67.8315 Y27.3257 
G01 X67.7261 Y27.4836 
G01 X67.6534 Y27.6589 
G01 X67.6164 Y27.8451 
G01 X67.6164 Y28.0349 
G01 X67.6534 Y28.2211 
G01 X67.7261 Y28.3964 
G01 X67.8315 Y28.5543 
G01 X67.9657 Y28.6885 
G00 Z2.5400 
G00 X69.2357 Y18.5285 
G01 Z-0.2000 F254.00 
G01 X69.3936 Y18.6339 F508.00 
G01 X69.5689 Y18.7066 
G01 X69.7551 Y18.7436 
G01 X71.8499 Y18.7436 
G01 X72.0361 Y18.7066 
G01 X72.2114 Y18.6339 
G01 X72.3693 Y18.5285 
G01 X72.5035 Y18.3943 
G01 X72.6089 Y18.2364 
G01 X72.6408 Y18.1594 
G01 X73.6896 Y18.1594 
G01 X73.6896 Y18.5549 
G01 X73.7087 Y18.6010 
G01 X73.7440 Y18.6363 
G01 X73.7901 Y18.6554 
G01 X77.3399 Y18.6554 
G01 X77.3860 Y18.6363 
G01 X77.4213 Y18.6010 
G01 X77.4404 Y18.5549 
G01 X77.4404 Y17.0051 
G01 X77.4213 Y16.9590 
G01 X77.3860 Y16.9237 
G01 X77.3399 Y16.9046 
G01 X73.7901 Y16.9046 
G01 X73.7440 Y16.9237 
G01 X73.7087 Y16.9590 
G01 X73.6896 Y17.0051 
G01 X73.6896 Y17.4006 
G01 X72.6408 Y17.4006 
G01 X72.6089 Y17.3236 
G01 X72.5035 Y17.1657 
G01 X72.3693 Y17.0315 
G01 X72.2114 Y16.9261 
G01 X72.0361 Y16.8534 
G01 X71.8499 Y16.8164 
G01 X69.7551 Y16.8164 
G01 X69.5689 Y16.8534 
G01 X69.3936 Y16.9261 
G01 X69.2357 Y17.0315 
G01 X69.1015 Y17.1657 
G01 X68.9961 Y17.3236 
G01 X68.9234 Y17.4989 
G01 X68.8864 Y17.6851 
G01 X68.8864 Y17.8749 
G01 X68.9234 Y18.0611 
G01 X68.9961 Y18.2364 
G01 X69.1015 Y18.3943 
G01 X69.2357 Y18.5285 
G00 Z2.5400 
G00 X73.7087 Y19.4990 
G01 Z-0.2000 F254.00 
G01 X73.6896 Y19.5451 F508.00 
G01 X73.6896 Y21.0949 
G01 X73.7087 Y21.1410 
G01 X73.7440 Y21.1763 
G01 X73.7901 Y21.1954 
G01 X77.3399 Y21.1954 
G01 X77.3860 Y21.1763 
G01 X77.4213 Y21.1410 
G01 X77.4404 Y21.0949 
G01 X77.4404 Y19.5451 
G01 X77.4213 Y19.4990 
G01 X77.3860 Y19.4637 
G01 X77.3399 Y19.4446 
G01 X73.7901 Y19.4446 
G01 X73.7440 Y19.4637 
G01 X73.7087 Y19.4990 
G00 Z2.5400 
G00 X73.7087 Y37.2790 
G01 Z-0.2000 F254.00 
G01 X73.6896 Y37.3251 F508.00 
G01 X73.6896 Y38.8749 
G01 X73.7087 Y38.9210 
G01 X73.7440 Y38.9563 
G01 X73.7901 Y38.9754 
G01 X77.3399 Y38.9754 
G01 X77.3860 Y38.9563 
G01 X77.4213 Y38.9210 
G01 X77.4404 Y38.8749 
G01 X77.4404 Y37.3251 
G01 X77.4213 Y37.2790 
G01 X77.3860 Y37.2437 
G01 X77.3399 Y37.2246 
G01 X73.7901 Y37.2246 
G01 X73.7440 Y37.2437 
G01 X73.7087 Y37.2790 
G00 Z2.5400 
G00 X78.7887 Y38.5490 
G01 Z-0.2000 F254.00 
G01 X78.7696 Y38.5951 F508.00 
G01 X78.7696 Y40.1449 
G01 X78.7887 Y40.1910 
G01 X78.8240 Y40.2263 
G01 X78.8701 Y40.2454 
G01 X82.4199 Y40.2454 
G01 X82.4660 Y40.2263 
G01 X82.5013 Y40.1910 
G01 X82.5204 Y40.1449 
G01 X82.5204 Y38.5951 
G01 X82.5013 Y38.5490 
G01 X82.4660 Y38.5137 
G01 X82.4199 Y38.4946 
G01 X78.8701 Y38.4946 
G01 X78.8240 Y38.5137 
G01 X78.7887 Y38.5490 
G00 Z2.5400 
G00 X1.0578 Y1.1426 
G01 Z-0.2000 F254.00 
G01 X0.9978 Y1.2465 F508.00 
G01 X0.9668 Y1.3624 
G01 X0.9668 Y32.9600 
G01 X0.9668 Y33.0800 
G01 X0.9978 Y33.1959 
G01 X1.0578 Y33.2997 
G01 X1.1426 Y33.3846 
G01 X1.2465 Y33.4445 
G01 X1.3624 Y33.4756 
G01 X10.3394 Y33.4756 
G01 X10.3394 Y46.0176 
G01 X10.3394 Y46.1376 
G01 X10.3704 Y46.2535 
G01 X10.4304 Y46.3573 
G01 X10.5152 Y46.4422 
G01 X10.6191 Y46.5022 
G01 X10.7350 Y46.5332 
G01 X89.5950 Y46.5332 
G01 X89.7109 Y46.5022 
G01 X89.8147 Y46.4422 
G01 X89.8996 Y46.3573 
G01 X89.9595 Y46.2535 
G01 X89.9906 Y46.1376 
G01 X89.9906 Y33.4756 
G01 X98.6376 Y33.4756 
G01 X98.7535 Y33.4445 
G01 X98.8573 Y33.3846 
G01 X98.9422 Y33.2997 
G01 X99.0022 Y33.1959 
G01 X99.0332 Y33.0800 
G01 X99.0332 Y1.3624 
G01 X99.0022 Y1.2465 
G01 X98.9422 Y1.1426 
G01 X98.8573 Y1.0578 
G01 X98.7535 Y0.9978 
G01 X98.6376 Y0.9668 
G01 X1.3624 Y0.9668 
G01 X1.2465 Y0.9978 
G01 X1.1426 Y1.0578 
G01 X1.0578 Y1.1426 
G00 Z2.5400 
G00 X9.4433 Y7.5466 
G01 Z-0.2000 F254.00 
G01 X9.5839 Y7.4884 F508.00 
G01 X10.7361 Y7.4884 
G01 X10.8767 Y7.5466 
G01 X10.9814 Y7.6513 
G01 X10.9860 Y7.6687 
G01 X11.0011 Y7.6947 
G01 X11.0126 Y7.7226 
G01 X11.0310 Y7.7464 
G01 X11.0460 Y7.7725 
G01 X11.0673 Y7.7938 
G01 X11.0857 Y7.8177 
G01 X11.1096 Y7.8361 
G01 X11.1309 Y7.8574 
G01 X11.1569 Y7.8724 
G01 X11.1808 Y7.8908 
G01 X11.2087 Y7.9023 
G01 X11.2347 Y7.9173 
G01 X11.2638 Y7.9251 
G01 X11.2917 Y7.9367 
G01 X11.3215 Y7.9406 
G01 X11.3506 Y7.9484 
G01 X11.3807 Y7.9484 
G01 X11.4106 Y7.9523 
G01 X11.4405 Y7.9484 
G01 X13.1668 Y7.9484 
G01 X13.2827 Y7.9173 
G01 X13.3865 Y7.8574 
G01 X13.4833 Y7.7606 
G01 X13.6239 Y7.7024 
G01 X14.0602 Y7.7024 
G01 X14.0901 Y7.7063 
G01 X14.1199 Y7.7024 
G01 X14.1500 Y7.7024 
G01 X14.1792 Y7.6946 
G01 X14.2090 Y7.6907 
G01 X14.2368 Y7.6791 
G01 X14.2659 Y7.6714 
G01 X14.2920 Y7.6563 
G01 X14.3199 Y7.6447 
G01 X14.3437 Y7.6264 
G01 X14.3698 Y7.6114 
G01 X14.3911 Y7.5900 
G01 X14.4150 Y7.5717 
G01 X14.4333 Y7.5478 
G01 X14.4546 Y7.5265 
G01 X14.4697 Y7.5004 
G01 X14.4880 Y7.4765 
G01 X14.4996 Y7.4487 
G01 X14.5146 Y7.4227 
G01 X14.5224 Y7.3935 
G01 X14.5339 Y7.3657 
G01 X14.5379 Y7.3359 
G01 X14.5457 Y7.3068 
G01 X14.5457 Y7.2766 
G01 X14.5496 Y7.2467 
G01 X14.5457 Y7.2169 
G01 X14.5457 Y7.1868 
G01 X14.5378 Y7.1577 
G01 X14.5376 Y6.8633 
G01 X14.6422 Y6.6106 
G01 X15.1858 Y6.0671 
G01 X15.4856 Y5.7672 
G01 X15.7383 Y5.6626 
G01 X19.1867 Y5.6626 
G01 X19.4394 Y5.7672 
G01 X19.7939 Y6.1217 
G01 X19.8787 Y6.2066 
G01 X19.9826 Y6.2665 
G01 X20.0985 Y6.2976 
G01 X20.5778 Y6.2976 
G01 X20.6102 Y6.2889 
G01 X20.6937 Y6.2665 
G01 X20.7975 Y6.2066 
G01 X20.8484 Y6.1557 
G01 X20.9248 Y6.1874 
G01 X23.5252 Y6.1874 
G01 X23.6016 Y6.1557 
G01 X23.6525 Y6.2066 
G01 X23.7563 Y6.2665 
G01 X23.8722 Y6.2976 
G01 X66.8117 Y6.2976 
G01 X67.0644 Y6.4022 
G01 X74.5937 Y13.9315 
G01 X74.6785 Y14.0164 
G01 X74.7824 Y14.0763 
G01 X74.8983 Y14.1074 
G01 X77.3911 Y14.1074 
G01 X77.5317 Y14.1656 
G01 X77.6393 Y14.2733 
G01 X77.6482 Y14.2946 
G01 X77.6560 Y14.3237 
G01 X77.6710 Y14.3497 
G01 X77.6825 Y14.3776 
G01 X77.7009 Y14.4015 
G01 X77.7159 Y14.4275 
G01 X77.7372 Y14.4488 
G01 X77.7556 Y14.4727 
G01 X77.7795 Y14.4911 
G01 X77.8008 Y14.5124 
G01 X77.8269 Y14.5274 
G01 X77.8507 Y14.5458 
G01 X77.8786 Y14.5573 
G01 X77.9047 Y14.5724 
G01 X77.9338 Y14.5801 
G01 X77.9616 Y14.5917 
G01 X77.9914 Y14.5956 
G01 X78.0205 Y14.6034 
G01 X78.0507 Y14.6034 
G01 X78.0805 Y14.6073 
G01 X78.1104 Y14.6034 
G01 X81.2807 Y14.6034 
G01 X81.2816 Y15.3628 
G01 X81.3126 Y15.4787 
G01 X81.3294 Y15.5076 
G01 X78.8448 Y15.5076 
G01 X78.7520 Y15.5460 
G01 X78.6810 Y15.6170 
G01 X78.6426 Y15.7098 
G01 X78.6426 Y17.3102 
G01 X78.6810 Y17.4030 
G01 X78.7520 Y17.4740 
G01 X78.8448 Y17.5124 
G01 X81.3294 Y17.5124 
G01 X81.3126 Y17.5413 
G01 X81.2816 Y17.6572 
G01 X81.2816 Y17.9028 
G01 X81.3126 Y18.0187 
G01 X81.3294 Y18.0476 
G01 X78.8448 Y18.0476 
G01 X78.7520 Y18.0860 
G01 X78.6810 Y18.1570 
G01 X78.6426 Y18.2498 
G01 X78.6426 Y19.8502 
G01 X78.6810 Y19.9430 
G01 X78.7520 Y20.0140 
G01 X78.8448 Y20.0524 
G01 X81.3294 Y20.0524 
G01 X81.3126 Y20.0813 
G01 X81.2816 Y20.1972 
G01 X81.2816 Y20.4428 
G01 X81.3126 Y20.5587 
G01 X81.3294 Y20.5876 
G01 X78.8448 Y20.5876 
G01 X78.7520 Y20.6260 
G01 X78.6810 Y20.6970 
G01 X78.6426 Y20.7898 
G01 X78.6426 Y22.3902 
G01 X78.6810 Y22.4830 
G01 X78.7520 Y22.5540 
G01 X78.8448 Y22.5924 
G01 X81.3294 Y22.5924 
G01 X81.3126 Y22.6213 
G01 X81.2816 Y22.7372 
G01 X81.2816 Y22.9828 
G01 X81.3126 Y23.0987 
G01 X81.3294 Y23.1276 
G01 X78.8448 Y23.1276 
G01 X78.7520 Y23.1660 
G01 X78.6810 Y23.2370 
G01 X78.6426 Y23.3298 
G01 X78.6426 Y24.9302 
G01 X78.6810 Y25.0230 
G01 X78.7520 Y25.0940 
G01 X78.8448 Y25.1324 
G01 X81.3294 Y25.1324 
G01 X81.3126 Y25.1613 
G01 X81.2816 Y25.2772 
G01 X81.2816 Y25.5228 
G01 X81.3126 Y25.6387 
G01 X81.3294 Y25.6676 
G01 X78.8448 Y25.6676 
G01 X78.7520 Y25.7060 
G01 X78.6810 Y25.7770 
G01 X78.6426 Y25.8698 
G01 X78.6426 Y27.4702 
G01 X78.6810 Y27.5630 
G01 X78.7520 Y27.6340 
G01 X78.8448 Y27.6724 
G01 X81.3294 Y27.6724 
G01 X81.3126 Y27.7013 
G01 X81.2816 Y27.8172 
G01 X81.2816 Y28.0628 
G01 X81.3126 Y28.1787 
G01 X81.3294 Y28.2076 
G01 X78.8448 Y28.2076 
G01 X78.7520 Y28.2460 
G01 X78.6810 Y28.3170 
G01 X78.6426 Y28.4098 
G01 X78.6426 Y30.0102 
G01 X78.6810 Y30.1030 
G01 X78.7520 Y30.1740 
G01 X78.8448 Y30.2124 
G01 X81.3294 Y30.2124 
G01 X81.3126 Y30.2413 
G01 X81.2816 Y30.3572 
G01 X81.2816 Y30.6028 
G01 X81.3126 Y30.7187 
G01 X81.3294 Y30.7476 
G01 X78.8448 Y30.7476 
G01 X78.7520 Y30.7860 
G01 X78.6810 Y30.8570 
G01 X78.6426 Y30.9498 
G01 X78.6426 Y32.5502 
G01 X78.6810 Y32.6430 
G01 X78.7520 Y32.7140 
G01 X78.8448 Y32.7524 
G01 X82.3027 Y32.7524 
G01 X82.2988 Y32.7832 
G01 X82.3027 Y32.8131 
G01 X82.3027 Y32.8432 
G01 X82.3105 Y32.8723 
G01 X82.3145 Y32.9022 
G01 X82.3260 Y32.9300 
G01 X82.3338 Y32.9591 
G01 X82.3488 Y32.9852 
G01 X82.3604 Y33.0130 
G01 X82.3787 Y33.0369 
G01 X82.3938 Y33.0630 
G01 X82.4151 Y33.0843 
G01 X82.4334 Y33.1082 
G01 X82.4573 Y33.1265 
G01 X82.4786 Y33.1478 
G01 X82.5047 Y33.1629 
G01 X82.5286 Y33.1812 
G01 X82.5564 Y33.1927 
G01 X82.5825 Y33.2078 
G01 X82.6116 Y33.2156 
G01 X82.7193 Y33.3233 
G01 X82.7282 Y33.3446 
G01 X82.7360 Y33.3737 
G01 X82.7510 Y33.3997 
G01 X82.7625 Y33.4276 
G01 X82.7809 Y33.4515 
G01 X82.7959 Y33.4775 
G01 X82.8172 Y33.4988 
G01 X82.8356 Y33.5227 
G01 X82.8595 Y33.5411 
G01 X82.8808 Y33.5624 
G01 X82.9069 Y33.5774 
G01 X82.9307 Y33.5958 
G01 X82.9586 Y33.6073 
G01 X82.9847 Y33.6223 
G01 X83.0138 Y33.6301 
G01 X83.0416 Y33.6417 
G01 X83.0714 Y33.6456 
G01 X83.1005 Y33.6534 
G01 X83.1307 Y33.6534 
G01 X83.1605 Y33.6573 
G01 X83.1904 Y33.6534 
G01 X87.1216 Y33.6534 
G01 X87.3556 Y33.7503 
G01 X87.5563 Y33.9511 
G01 X88.8047 Y35.1994 
G01 X88.9016 Y35.4334 
G01 X88.9016 Y41.4016 
G01 X88.8047 Y41.6356 
G01 X88.6039 Y41.8363 
G01 X85.4506 Y44.9897 
G01 X85.2166 Y45.0866 
G01 X37.3384 Y45.0866 
G01 X37.1044 Y44.9897 
G01 X36.9036 Y44.7889 
G01 X25.1942 Y33.0795 
G01 X25.1093 Y32.9946 
G01 X25.0054 Y32.9346 
G01 X24.8896 Y32.9036 
G01 X23.1539 Y32.9036 
G01 X23.0133 Y32.8454 
G01 X22.9056 Y32.7377 
G01 X22.8474 Y32.5971 
G01 X22.8474 Y30.4449 
G01 X22.8572 Y30.4212 
G01 X22.8612 Y30.3913 
G01 X22.8690 Y30.3622 
G01 X22.8690 Y30.3321 
G01 X22.8729 Y30.3022 
G01 X22.8690 Y30.2723 
G01 X22.8690 Y30.2422 
G01 X22.8612 Y30.2131 
G01 X22.8572 Y30.1833 
G01 X22.8457 Y30.1555 
G01 X22.8379 Y30.1263 
G01 X22.8229 Y30.1003 
G01 X22.8113 Y30.0724 
G01 X22.7930 Y30.0486 
G01 X22.7779 Y30.0224 
G01 X22.7566 Y30.0011 
G01 X22.7383 Y29.9773 
G01 X22.7144 Y29.9589 
G01 X22.6931 Y29.9376 
G01 X22.6670 Y29.9226 
G01 X22.6432 Y29.9042 
G01 X22.6153 Y29.8927 
G01 X22.5892 Y29.8776 
G01 X22.5601 Y29.8699 
G01 X22.5323 Y29.8583 
G01 X22.5024 Y29.8544 
G01 X22.4734 Y29.8466 
G01 X22.4432 Y29.8466 
G01 X22.4134 Y29.8427 
G01 X22.3835 Y29.8466 
G01 X12.7054 Y29.8466 
G01 X12.6755 Y29.8427 
G01 X12.6456 Y29.8466 
G01 X12.6155 Y29.8466 
G01 X12.5864 Y29.8544 
G01 X12.5566 Y29.8583 
G01 X12.5288 Y29.8698 
G01 X12.4997 Y29.8776 
G01 X12.4736 Y29.8927 
G01 X12.4457 Y29.9042 
G01 X12.4219 Y29.9226 
G01 X12.3958 Y29.9376 
G01 X12.3745 Y29.9589 
G01 X12.3506 Y29.9773 
G01 X12.3322 Y30.0012 
G01 X12.3109 Y30.0224 
G01 X12.2959 Y30.0485 
G01 X12.2775 Y30.0724 
G01 X12.2660 Y30.1003 
G01 X12.2510 Y30.1263 
G01 X12.2432 Y30.1554 
G01 X12.2343 Y30.1767 
G01 X12.1267 Y30.2843 
G01 X11.9861 Y30.3426 
G01 X8.3339 Y30.3426 
G01 X8.1933 Y30.2843 
G01 X8.0856 Y30.1767 
G01 X8.0768 Y30.1554 
G01 X8.0690 Y30.1263 
G01 X8.0540 Y30.1003 
G01 X8.0425 Y30.0724 
G01 X8.0241 Y30.0485 
G01 X8.0091 Y30.0224 
G01 X7.9878 Y30.0012 
G01 X7.9694 Y29.9773 
G01 X7.9455 Y29.9589 
G01 X7.9242 Y29.9376 
G01 X7.8981 Y29.9226 
G01 X7.8742 Y29.9042 
G01 X7.8464 Y29.8927 
G01 X7.8203 Y29.8776 
G01 X7.7912 Y29.8698 
G01 X7.7634 Y29.8583 
G01 X7.7336 Y29.8544 
G01 X7.7045 Y29.8466 
G01 X7.6743 Y29.8466 
G01 X7.6445 Y29.8427 
G01 X7.6146 Y29.8466 
G01 X5.0793 Y29.8466 
G01 X5.0784 Y29.0872 
G01 X5.0473 Y28.9713 
G01 X5.0306 Y28.9424 
G01 X6.8802 Y28.9424 
G01 X6.9730 Y28.9040 
G01 X7.0440 Y28.8330 
G01 X7.0824 Y28.7402 
G01 X7.0824 Y27.1398 
G01 X7.0440 Y27.0470 
G01 X6.9730 Y26.9760 
G01 X6.8802 Y26.9376 
G01 X5.0306 Y26.9376 
G01 X5.0473 Y26.9087 
G01 X5.0784 Y26.7928 
G01 X5.0784 Y26.5472 
G01 X5.0473 Y26.4313 
G01 X5.0306 Y26.4024 
G01 X6.8802 Y26.4024 
G01 X6.9730 Y26.3640 
G01 X7.0440 Y26.2930 
G01 X7.0824 Y26.2002 
G01 X7.0824 Y24.7634 
G01 X10.1607 Y24.7634 
G01 X10.1616 Y25.1418 
G01 X10.1926 Y25.2577 
G01 X10.2526 Y25.3615 
G01 X10.3375 Y25.4464 
G01 X10.4413 Y25.5064 
G01 X10.5572 Y25.5374 
G01 X11.9861 Y25.5374 
G01 X12.1267 Y25.5956 
G01 X12.2343 Y25.7033 
G01 X12.2432 Y25.7246 
G01 X12.2510 Y25.7537 
G01 X12.2660 Y25.7797 
G01 X12.2775 Y25.8076 
G01 X12.2959 Y25.8315 
G01 X12.3109 Y25.8575 
G01 X12.3322 Y25.8788 
G01 X12.3506 Y25.9027 
G01 X12.3745 Y25.9211 
G01 X12.3958 Y25.9424 
G01 X12.4219 Y25.9574 
G01 X12.4457 Y25.9758 
G01 X12.4736 Y25.9873 
G01 X12.4997 Y26.0023 
G01 X12.5288 Y26.0101 
G01 X12.5566 Y26.0217 
G01 X12.5864 Y26.0256 
G01 X12.6155 Y26.0334 
G01 X12.6456 Y26.0334 
G01 X12.6755 Y26.0373 
G01 X12.7054 Y26.0334 
G01 X22.4259 Y26.0334 
G01 X22.4558 Y26.0373 
G01 X22.4856 Y26.0334 
G01 X22.5158 Y26.0334 
G01 X22.5449 Y26.0256 
G01 X22.5747 Y26.0217 
G01 X22.6025 Y26.0101 
G01 X22.6316 Y26.0023 
G01 X22.6577 Y25.9873 
G01 X22.6855 Y25.9758 
G01 X22.7094 Y25.9574 
G01 X22.7355 Y25.9424 
G01 X22.7568 Y25.9211 
G01 X22.7807 Y25.9027 
G01 X22.7991 Y25.8788 
G01 X22.8204 Y25.8575 
G01 X22.8354 Y25.8315 
G01 X22.8537 Y25.8076 
G01 X22.8653 Y25.7797 
G01 X22.8803 Y25.7537 
G01 X22.8881 Y25.7246 
G01 X22.9056 Y25.6823 
G01 X23.0133 Y25.5746 
G01 X23.1539 Y25.5164 
G01 X25.1061 Y25.5164 
G01 X25.2467 Y25.5746 
G01 X25.3544 Y25.6823 
G01 X25.3719 Y25.7246 
G01 X25.3797 Y25.7537 
G01 X25.3947 Y25.7797 
G01 X25.4062 Y25.8076 
G01 X25.4246 Y25.8315 
G01 X25.4396 Y25.8575 
G01 X25.4609 Y25.8788 
G01 X25.4793 Y25.9027 
G01 X25.5032 Y25.9211 
G01 X25.5245 Y25.9424 
G01 X25.5506 Y25.9574 
G01 X25.5744 Y25.9758 
G01 X25.6023 Y25.9873 
G01 X25.6284 Y26.0023 
G01 X25.6575 Y26.0101 
G01 X25.6853 Y26.0217 
G01 X25.7151 Y26.0256 
G01 X25.7442 Y26.0334 
G01 X25.7743 Y26.0334 
G01 X25.8042 Y26.0373 
G01 X25.8341 Y26.0334 
G01 X30.0416 Y26.0334 
G01 X30.2756 Y26.1303 
G01 X30.4763 Y26.3311 
G01 X33.7110 Y29.5657 
G01 X33.7293 Y29.5896 
G01 X33.7532 Y29.6079 
G01 X33.7745 Y29.6292 
G01 X33.8006 Y29.6443 
G01 X33.8245 Y29.6626 
G01 X33.8523 Y29.6742 
G01 X33.8784 Y29.6892 
G01 X33.9075 Y29.6970 
G01 X33.9353 Y29.7085 
G01 X33.9652 Y29.7125 
G01 X33.9943 Y29.7203 
G01 X34.0244 Y29.7203 
G01 X34.0543 Y29.7242 
G01 X34.0841 Y29.7203 
G01 X34.1143 Y29.7203 
G01 X34.1434 Y29.7125 
G01 X35.5161 Y29.7124 
G01 X35.6322 Y29.7605 
G01 X35.7211 Y29.7973 
G01 X35.8257 Y29.8111 
G01 X35.8400 Y29.8130 
G01 X35.8570 Y29.8107 
G01 X35.9589 Y29.7973 
G01 X36.0698 Y29.7514 
G01 X36.1639 Y29.7124 
G01 X37.5161 Y29.7124 
G01 X37.6322 Y29.7605 
G01 X37.7211 Y29.7973 
G01 X37.8257 Y29.8111 
G01 X37.8400 Y29.8130 
G01 X37.8570 Y29.8107 
G01 X37.9589 Y29.7973 
G01 X38.0698 Y29.7514 
G01 X38.1639 Y29.7124 
G01 X39.5161 Y29.7124 
G01 X39.6102 Y29.7514 
G01 X39.7211 Y29.7973 
G01 X39.8257 Y29.8111 
G01 X39.8400 Y29.8130 
G01 X39.8570 Y29.8107 
G01 X39.9589 Y29.7973 
G01 X40.0443 Y29.7619 
G01 X40.1639 Y29.7124 
G01 X41.5161 Y29.7124 
G01 X41.5459 Y29.7247 
G01 X41.5719 Y29.7398 
G01 X41.6010 Y29.7476 
G01 X41.6289 Y29.7591 
G01 X41.6587 Y29.7630 
G01 X41.6878 Y29.7708 
G01 X41.7179 Y29.7708 
G01 X41.7478 Y29.7748 
G01 X41.7777 Y29.7708 
G01 X41.8078 Y29.7708 
G01 X41.8369 Y29.7630 
G01 X41.8667 Y29.7591 
G01 X41.8945 Y29.7476 
G01 X41.9237 Y29.7398 
G01 X41.9497 Y29.7247 
G01 X41.9776 Y29.7132 
G01 X42.0015 Y29.6949 
G01 X42.0275 Y29.6798 
G01 X42.0488 Y29.6585 
G01 X42.0727 Y29.6402 
G01 X42.0911 Y29.6163 
G01 X42.1124 Y29.5950 
G01 X42.1274 Y29.5689 
G01 X42.1458 Y29.5450 
G01 X42.1573 Y29.5172 
G01 X42.1724 Y29.4911 
G01 X42.1801 Y29.4620 
G01 X42.1917 Y29.4342 
G01 X42.1956 Y29.4043 
G01 X42.2034 Y29.3752 
G01 X42.2034 Y29.3451 
G01 X42.2073 Y29.3152 
G01 X42.2034 Y29.2854 
G01 X42.2034 Y26.7224 
G01 X42.1724 Y26.6065 
G01 X42.1124 Y26.5027 
G01 X37.3772 Y21.7675 
G01 X37.2923 Y21.6826 
G01 X37.1884 Y21.6226 
G01 X37.0726 Y21.5916 
G01 X29.7184 Y21.5916 
G01 X29.4844 Y21.4947 
G01 X28.4872 Y20.4975 
G01 X28.4023 Y20.4126 
G01 X28.2984 Y20.3526 
G01 X28.1826 Y20.3216 
G01 X23.4264 Y20.3216 
G01 X23.3662 Y20.3216 
G01 X23.3073 Y20.3216 
G01 X23.2395 Y20.3221 
G01 X23.1780 Y20.2966 
G01 X23.1225 Y20.2736 
G01 X23.0680 Y20.2510 
G01 X23.0052 Y20.2255 
G01 X22.9579 Y20.1782 
G01 X22.9159 Y20.1362 
G01 X22.8737 Y20.0940 
G01 X20.7416 Y17.9776 
G01 X20.6996 Y17.9356 
G01 X20.6470 Y17.9053 
G01 X20.5957 Y17.8756 
G01 X20.5370 Y17.8599 
G01 X20.4799 Y17.8446 
G01 X20.4191 Y17.8446 
G01 X20.2224 Y17.8446 
G01 X20.1630 Y17.8444 
G01 X20.1039 Y17.8601 
G01 X20.0471 Y17.8752 
G01 X19.9943 Y17.9055 
G01 X19.9430 Y17.9349 
G01 X19.8999 Y17.9778 
G01 X16.6524 Y21.2081 
G01 X16.6098 Y21.2505 
G01 X16.5678 Y21.2922 
G01 X16.5200 Y21.3403 
G01 X16.4583 Y21.3657 
G01 X16.4029 Y21.3884 
G01 X16.3479 Y21.4111 
G01 X16.2858 Y21.4369 
G01 X16.2195 Y21.4368 
G01 X16.1592 Y21.4366 
G01 X16.1001 Y21.4364 
G01 X10.7782 Y21.4366 
G01 X10.7458 Y21.4453 
G01 X10.6623 Y21.4676 
G01 X10.5584 Y21.5276 
G01 X10.5545 Y21.5316 
G01 X10.4736 Y21.6124 
G01 X10.4117 Y21.6744 
G01 X10.2711 Y21.7326 
G01 X9.4189 Y21.7326 
G01 X9.2783 Y21.6744 
G01 X9.1706 Y21.5667 
G01 X9.1124 Y21.4261 
G01 X9.1124 Y20.1739 
G01 X9.1706 Y20.0333 
G01 X9.2783 Y19.9256 
G01 X9.4189 Y19.8674 
G01 X10.2711 Y19.8674 
G01 X10.4117 Y19.9256 
G01 X10.4736 Y19.9875 
G01 X10.5584 Y20.0724 
G01 X10.6623 Y20.1323 
G01 X10.7485 Y20.1554 
G01 X10.7782 Y20.1634 
G01 X15.7087 Y20.1634 
G01 X15.7681 Y20.1636 
G01 X15.8272 Y20.1479 
G01 X15.8840 Y20.1328 
G01 X15.9368 Y20.1025 
G01 X15.9881 Y20.0731 
G01 X16.0312 Y20.0302 
G01 X18.8595 Y17.2169 
G01 X18.9022 Y17.1744 
G01 X18.9441 Y17.1327 
G01 X18.9747 Y17.0800 
G01 X19.0044 Y17.0290 
G01 X19.0202 Y16.9704 
G01 X19.0357 Y16.9132 
G01 X19.0359 Y16.8526 
G01 X19.0361 Y16.7932 
G01 X19.0359 Y16.2722 
G01 X19.0049 Y16.1563 
G01 X18.9449 Y16.0525 
G01 X18.8600 Y15.9676 
G01 X18.7562 Y15.9076 
G01 X18.6403 Y15.8766 
G01 X17.6534 Y15.8766 
G01 X17.4194 Y15.7797 
G01 X17.2186 Y15.5789 
G01 X15.9853 Y14.3456 
G01 X15.8884 Y14.1116 
G01 X15.8884 Y13.9022 
G01 X15.8574 Y13.7863 
G01 X15.7974 Y13.6824 
G01 X15.7125 Y13.5976 
G01 X15.6902 Y13.5847 
G01 X15.7024 Y13.5552 
G01 X15.7024 Y12.5055 
G01 X15.7217 Y12.4975 
G01 X15.7508 Y12.4897 
G01 X15.7769 Y12.4746 
G01 X15.8047 Y12.4631 
G01 X15.8286 Y12.4448 
G01 X15.8547 Y12.4297 
G01 X15.8760 Y12.4084 
G01 X15.8999 Y12.3901 
G01 X15.9182 Y12.3662 
G01 X15.9395 Y12.3449 
G01 X15.9546 Y12.3188 
G01 X15.9729 Y12.2949 
G01 X15.9756 Y12.2883 
G01 X16.0833 Y12.1806 
G01 X16.2239 Y12.1224 
G01 X16.8261 Y12.1224 
G01 X16.9452 Y12.1717 
G01 X17.0561 Y12.2177 
G01 X17.1450 Y12.2294 
G01 X17.1750 Y12.2333 
G01 X17.2076 Y12.2290 
G01 X17.2939 Y12.2177 
G01 X17.4048 Y12.1717 
G01 X17.5239 Y12.1224 
G01 X18.1261 Y12.1224 
G01 X18.2667 Y12.1806 
G01 X18.3743 Y12.2883 
G01 X18.4371 Y12.4399 
G01 X18.4636 Y12.5388 
G01 X18.4759 Y12.5600 
G01 X18.5236 Y12.6427 
G01 X18.6085 Y12.7275 
G01 X18.7123 Y12.7875 
G01 X18.8282 Y12.8185 
G01 X18.8889 Y12.8185 
G01 X18.9482 Y12.8185 
G01 X18.9578 Y12.8159 
G01 X19.0641 Y12.7875 
G01 X19.0853 Y12.7752 
G01 X19.1679 Y12.7275 
G01 X19.2018 Y12.6936 
G01 X19.3424 Y12.6354 
G01 X21.1928 Y12.6354 
G01 X21.3087 Y12.6044 
G01 X21.4125 Y12.5444 
G01 X21.4974 Y12.4595 
G01 X21.5573 Y12.3557 
G01 X21.5884 Y12.2398 
G01 X21.5884 Y10.0132 
G01 X21.5573 Y9.8973 
G01 X21.4974 Y9.7934 
G01 X21.4125 Y9.7086 
G01 X21.3087 Y9.6486 
G01 X21.1928 Y9.6176 
G01 X20.8989 Y9.6176 
G01 X20.7583 Y9.5594 
G01 X20.6506 Y9.4517 
G01 X20.6489 Y9.4474 
G01 X20.6305 Y9.4236 
G01 X20.6155 Y9.3974 
G01 X20.5942 Y9.3762 
G01 X20.5759 Y9.3523 
G01 X20.5520 Y9.3339 
G01 X20.5307 Y9.3126 
G01 X20.5046 Y9.2976 
G01 X20.4807 Y9.2792 
G01 X20.4529 Y9.2677 
G01 X20.4268 Y9.2526 
G01 X20.3977 Y9.2448 
G01 X20.3699 Y9.2333 
G01 X20.3400 Y9.2294 
G01 X20.3109 Y9.2216 
G01 X20.2808 Y9.2216 
G01 X20.2509 Y9.2177 
G01 X20.2211 Y9.2216 
G01 X18.5832 Y9.2216 
G01 X18.4673 Y9.2526 
G01 X18.3634 Y9.3126 
G01 X18.2667 Y9.4093 
G01 X18.1261 Y9.4676 
G01 X17.5239 Y9.4676 
G01 X17.4048 Y9.4183 
G01 X17.2939 Y9.3723 
G01 X17.2050 Y9.3606 
G01 X17.1750 Y9.3567 
G01 X17.1424 Y9.3610 
G01 X17.0561 Y9.3723 
G01 X16.9452 Y9.4182 
G01 X16.8261 Y9.4676 
G01 X16.2239 Y9.4676 
G01 X16.1048 Y9.4183 
G01 X15.9939 Y9.3723 
G01 X15.9050 Y9.3606 
G01 X15.8750 Y9.3567 
G01 X15.8424 Y9.3610 
G01 X15.7561 Y9.3723 
G01 X15.6452 Y9.4182 
G01 X15.5261 Y9.4676 
G01 X14.9239 Y9.4676 
G01 X14.8048 Y9.4183 
G01 X14.6939 Y9.3723 
G01 X14.6050 Y9.3606 
G01 X14.5750 Y9.3567 
G01 X14.5424 Y9.3610 
G01 X14.4561 Y9.3723 
G01 X14.3452 Y9.4182 
G01 X14.2261 Y9.4676 
G01 X13.6239 Y9.4676 
G01 X13.4833 Y9.4093 
G01 X13.4714 Y9.3974 
G01 X13.3865 Y9.3126 
G01 X13.2827 Y9.2526 
G01 X13.1668 Y9.2216 
G01 X11.1991 Y9.2216 
G01 X11.1389 Y9.2216 
G01 X11.0792 Y9.2216 
G01 X11.0221 Y9.2369 
G01 X11.0159 Y9.2377 
G01 X11.0100 Y9.2401 
G01 X10.9633 Y9.2526 
G01 X10.9446 Y9.2635 
G01 X10.9413 Y9.2643 
G01 X10.9153 Y9.2794 
G01 X10.8874 Y9.2909 
G01 X10.8636 Y9.3092 
G01 X10.8375 Y9.3243 
G01 X10.8162 Y9.3456 
G01 X10.8019 Y9.3566 
G01 X10.7102 Y9.3186 
G01 X9.6098 Y9.3186 
G01 X9.5181 Y9.3566 
G01 X9.5038 Y9.3456 
G01 X9.4825 Y9.3243 
G01 X9.4581 Y9.3102 
G01 X9.3356 Y9.1877 
G01 X9.2774 Y9.0471 
G01 X9.2774 Y7.7949 
G01 X9.3356 Y7.6543 
G01 X9.4433 Y7.5466 
G00 Z2.5400 
G00 X9.4460 Y7.7280 
G01 Z-0.2000 F254.00 
G01 X9.4076 Y7.8208 F508.00 
G01 X9.4076 Y9.0212 
G01 X9.4460 Y9.1140 
G01 X9.5170 Y9.1850 
G01 X9.6098 Y9.2234 
G01 X10.7102 Y9.2234 
G01 X10.8030 Y9.1850 
G01 X10.8740 Y9.1140 
G01 X10.8833 Y9.0914 
G01 X13.4476 Y9.0914 
G01 X13.4476 Y9.1352 
G01 X13.4860 Y9.2280 
G01 X13.5570 Y9.2990 
G01 X13.6498 Y9.3374 
G01 X14.2002 Y9.3374 
G01 X14.2930 Y9.2990 
G01 X14.3640 Y9.2280 
G01 X14.4024 Y9.1352 
G01 X14.4024 Y9.0914 
G01 X14.7476 Y9.0914 
G01 X14.7476 Y9.1352 
G01 X14.7860 Y9.2280 
G01 X14.8570 Y9.2990 
G01 X14.9498 Y9.3374 
G01 X15.5002 Y9.3374 
G01 X15.5930 Y9.2990 
G01 X15.6640 Y9.2280 
G01 X15.7024 Y9.1352 
G01 X15.7024 Y8.7599 
G01 X15.7314 Y8.6517 
G01 X15.7314 Y7.2816 
G01 X16.1058 Y6.9072 
G01 X18.8192 Y6.9072 
G01 X19.2391 Y7.3271 
G01 X19.3429 Y7.4309 
G01 X19.4699 Y7.5042 
G01 X19.6116 Y7.5422 
G01 X66.4442 Y7.5422 
G01 X73.5626 Y14.6606 
G01 X73.5626 Y16.0402 
G01 X73.6010 Y16.1330 
G01 X73.6720 Y16.2040 
G01 X73.7648 Y16.2424 
G01 X77.3652 Y16.2424 
G01 X77.4580 Y16.2040 
G01 X77.5290 Y16.1330 
G01 X77.5674 Y16.0402 
G01 X77.5674 Y14.4398 
G01 X77.5290 Y14.3470 
G01 X77.4580 Y14.2760 
G01 X77.3652 Y14.2376 
G01 X74.7156 Y14.2376 
G01 X67.0171 Y6.5391 
G01 X66.8901 Y6.4658 
G01 X66.7484 Y6.4278 
G01 X19.9158 Y6.4278 
G01 X19.3921 Y5.9041 
G01 X19.2651 Y5.8308 
G01 X19.1234 Y5.7928 
G01 X15.8016 Y5.7928 
G01 X15.6599 Y5.8308 
G01 X15.5329 Y5.9041 
G01 X15.4291 Y6.0079 
G01 X14.7791 Y6.6579 
G01 X14.7058 Y6.7849 
G01 X14.6678 Y6.9266 
G01 X14.6678 Y7.0734 
G01 X14.7058 Y7.2151 
G01 X14.7186 Y7.2373 
G01 X14.7186 Y8.0786 
G01 X14.4024 Y8.0786 
G01 X14.4024 Y8.0348 
G01 X14.3640 Y7.9420 
G01 X14.2930 Y7.8710 
G01 X14.2002 Y7.8326 
G01 X13.6498 Y7.8326 
G01 X13.5570 Y7.8710 
G01 X13.4860 Y7.9420 
G01 X13.4476 Y8.0348 
G01 X13.4476 Y8.0786 
G01 X10.9124 Y8.0786 
G01 X10.9124 Y7.8208 
G01 X10.8740 Y7.7280 
G01 X10.8030 Y7.6570 
G01 X10.7102 Y7.6186 
G01 X9.6098 Y7.6186 
G01 X9.5170 Y7.6570 
G01 X9.4460 Y7.7280 
G00 Z2.5400 
G00 X16.0860 Y7.9420 
G01 Z-0.2000 F254.00 
G01 X16.0476 Y8.0348 F508.00 
G01 X16.0476 Y8.4101 
G01 X16.0186 Y8.5183 
G01 X16.0186 Y8.6517 
G01 X16.0476 Y8.7599 
G01 X16.0476 Y9.1352 
G01 X16.0860 Y9.2280 
G01 X16.1570 Y9.2990 
G01 X16.2498 Y9.3374 
G01 X16.8002 Y9.3374 
G01 X16.8930 Y9.2990 
G01 X16.9640 Y9.2280 
G01 X17.0024 Y9.1352 
G01 X17.0024 Y9.0914 
G01 X17.3476 Y9.0914 
G01 X17.3476 Y9.1352 
G01 X17.3860 Y9.2280 
G01 X17.4570 Y9.2990 
G01 X17.5498 Y9.3374 
G01 X18.1002 Y9.3374 
G01 X18.1930 Y9.2990 
G01 X18.2640 Y9.2280 
G01 X18.3024 Y9.1352 
G01 X18.3024 Y9.0914 
G01 X20.7226 Y9.0914 
G01 X20.7226 Y9.2852 
G01 X20.7610 Y9.3780 
G01 X20.8320 Y9.4490 
G01 X20.9248 Y9.4874 
G01 X21.7186 Y9.4874 
G01 X21.7186 Y13.3116 
G01 X21.4739 Y13.3116 
G01 X21.4739 Y12.9678 
G01 X21.4355 Y12.8750 
G01 X21.3645 Y12.8040 
G01 X21.2717 Y12.7656 
G01 X19.3683 Y12.7656 
G01 X19.2755 Y12.8040 
G01 X19.2045 Y12.8750 
G01 X19.1661 Y12.9678 
G01 X19.1661 Y14.6682 
G01 X19.1932 Y14.7336 
G01 X17.9898 Y14.7336 
G01 X17.0314 Y13.7752 
G01 X17.0314 Y12.9383 
G01 X17.0024 Y12.8301 
G01 X17.0024 Y12.4548 
G01 X16.9640 Y12.3620 
G01 X16.8930 Y12.2910 
G01 X16.8002 Y12.2526 
G01 X16.2498 Y12.2526 
G01 X16.1570 Y12.2910 
G01 X16.0860 Y12.3620 
G01 X16.0476 Y12.4548 
G01 X16.0476 Y12.8301 
G01 X16.0186 Y12.9383 
G01 X16.0186 Y14.0517 
G01 X16.0531 Y14.1805 
G01 X16.1198 Y14.2959 
G01 X17.3748 Y15.5509 
G01 X17.4691 Y15.6452 
G01 X17.5845 Y15.7119 
G01 X17.7133 Y15.7464 
G01 X19.1932 Y15.7464 
G01 X19.1661 Y15.8118 
G01 X19.1661 Y17.0955 
G01 X15.9510 Y20.2936 
G01 X10.4474 Y20.2936 
G01 X10.4474 Y20.1998 
G01 X10.4090 Y20.1070 
G01 X10.3380 Y20.0360 
G01 X10.2452 Y19.9976 
G01 X9.4448 Y19.9976 
G01 X9.3520 Y20.0360 
G01 X9.2810 Y20.1070 
G01 X9.2426 Y20.1998 
G01 X9.2426 Y21.4002 
G01 X9.2810 Y21.4930 
G01 X9.3520 Y21.5640 
G01 X9.4448 Y21.6024 
G01 X10.2452 Y21.6024 
G01 X10.3380 Y21.5640 
G01 X10.4090 Y21.4930 
G01 X10.4474 Y21.4002 
G01 X10.4474 Y21.3064 
G01 X16.1593 Y21.3064 
G01 X16.2253 Y21.3066 
G01 X16.2907 Y21.2892 
G01 X16.3542 Y21.2724 
G01 X16.4130 Y21.2387 
G01 X16.4699 Y21.2060 
G01 X16.5177 Y21.1584 
G01 X19.9801 Y17.7144 
G01 X20.6613 Y17.7144 
G01 X23.0075 Y20.0437 
G01 X23.0541 Y20.0902 
G01 X23.1126 Y20.1240 
G01 X23.1695 Y20.1569 
G01 X23.2348 Y20.1744 
