(.../pcb-gcode-3.6.2.4/pcb-gcode.ulp)
(Copyright 2005 - 2012 by John Johnson)
(See readme.txt for licensing terms.)
(This file generated from the board:)
(.../Hardware/ControlPCB/ControlBoard.brd)
(Current profile is .../pcb-gcode-3.6.2.4/profiles/generic.pp  )
(This file generated 23.3.2016 15:38)
(Settings from pcb-machine.h)
(spindle on time = 0.0000)
(spindle speed = 30000.0000)
(milling depth = -0.2000)
(tool change at 0.0000 0.0000 25.4000 )
(feed rate xy = F508.00 )
(feed rate z  = F254.00 )
(Z Axis Settings)
(  High     Up        Down     Drill)
(38.1000 	2.5400 	-0.2000 	-1.5500 )
(Settings from pcb-defaults.h)
(isolate min = 0.0254)
(isolate max = 0.5080)
(isolate step = 0.1270)
(Generated top outlines, top drill, )
(Unit of measure: mm)
(Metric Mode)
G21
(Absolute Coordinates)
G90
S30000
G00 Z38.1000 
G00 X0.0000 Y0.0000 
M03
G04 P0.000000
G00 Z2.5400 
G01 Z-0.2000 F254.00 
G01 X100.0125 Y0.0000 F508.00 
G00 Z2.5400 
G00 X82.5500 Y13.9700 
G01 Z-0.2000 F254.00 
G01 X73.9775 Y13.9700 F508.00 
G01 X73.9775 Y14.2875 
G01 X77.4700 Y14.2875 
G01 X77.4700 Y16.1925 
G01 X73.9775 Y16.1925 
G01 X73.9775 Y16.8275 
G01 X77.4700 Y16.8275 
G01 X77.4700 Y18.7325 
G01 X73.9775 Y18.7325 
G01 X73.9775 Y19.3675 
G01 X77.4700 Y19.3675 
G01 X77.4700 Y21.2725 
G01 X73.9775 Y21.2725 
G01 X73.9775 Y21.9075 
G01 X77.4700 Y21.9075 
G01 X77.4700 Y23.8125 
G01 X73.9775 Y23.8125 
G01 X73.9775 Y24.4475 
G01 X77.4700 Y24.4475 
G01 X77.4700 Y26.3525 
G01 X73.9775 Y26.3525 
G01 X73.9775 Y26.9875 
G01 X77.4700 Y26.9875 
G01 X77.4700 Y28.8925 
G01 X73.9775 Y28.8925 
G01 X73.9775 Y29.5275 
G01 X77.4700 Y29.5275 
G01 X77.4700 Y31.4325 
G01 X73.9775 Y31.4325 
G01 X73.9775 Y32.0675 
G01 X77.4700 Y32.0675 
G01 X77.4700 Y33.9725 
G01 X73.9775 Y33.9725 
G01 X73.9775 Y34.6075 
G01 X77.4700 Y34.6075 
G01 X77.4700 Y36.5125 
G01 X73.9775 Y36.5125 
G01 X73.9775 Y37.1475 
G01 X77.4700 Y37.1475 
G01 X77.4700 Y39.0525 
G01 X73.9775 Y39.0525 
G01 X73.9775 Y39.3700 
G01 X77.7875 Y39.3700 
G01 X77.7875 Y36.8300 
G01 X74.2950 Y36.8300 
G00 Z2.5400 
G00 X74.2950 Y34.2900 
G01 Z-0.2000 F254.00 
G01 X77.7875 Y34.2900 F508.00 
G01 X77.7875 Y36.8300 
G00 Z2.5400 
G00 X78.7400 Y35.8775 
G01 Z-0.2000 F254.00 
G01 X82.2325 Y35.8775 F508.00 
G01 X82.2325 Y35.2425 
G01 X78.7400 Y35.2425 
G01 X78.7400 Y33.3375 
G01 X82.2325 Y33.3375 
G01 X82.2325 Y32.7025 
G01 X78.7400 Y32.7025 
G01 X78.7400 Y30.7975 
G01 X82.2325 Y30.7975 
G01 X82.2325 Y30.1625 
G01 X78.7400 Y30.1625 
G01 X78.7400 Y28.2575 
G01 X82.2325 Y28.2575 
G01 X82.2325 Y27.6225 
G01 X78.7400 Y27.6225 
G01 X78.7400 Y25.7175 
G01 X82.2325 Y25.7175 
G01 X82.2325 Y25.0825 
G01 X78.7400 Y25.0825 
G01 X78.7400 Y23.1775 
G01 X82.2325 Y23.1775 
G01 X82.2325 Y22.5425 
G01 X78.7400 Y22.5425 
G01 X78.7400 Y20.6375 
G01 X82.2325 Y20.6375 
G01 X82.2325 Y20.0025 
G01 X78.7400 Y20.0025 
G01 X78.7400 Y18.0975 
G01 X82.2325 Y18.0975 
G01 X82.2325 Y17.4625 
G01 X78.7400 Y17.4625 
G01 X78.7400 Y15.5575 
G01 X82.5500 Y15.5575 
G01 X82.5500 Y13.9700 
G00 Z2.5400 
G00 X82.2325 Y14.2875 
G01 Z-0.2000 F254.00 
G01 X77.7875 Y14.2875 F508.00 
G01 X77.7875 Y16.5100 
G01 X77.7875 Y19.0500 
G01 X77.7875 Y21.5900 
G01 X77.7875 Y24.1300 
G01 X77.7875 Y26.6700 
G01 X77.7875 Y29.2100 
G01 X77.7875 Y31.7500 
G01 X77.7875 Y34.2900 
G00 Z2.5400 
G00 X78.4225 Y33.0200 
G01 Z-0.2000 F254.00 
G01 X78.4225 Y30.4800 F508.00 
G01 X78.4225 Y27.9400 
G01 X78.4225 Y25.4000 
G01 X78.4225 Y22.8600 
G01 X78.4225 Y20.3200 
G01 X78.4225 Y17.7800 
G01 X78.4225 Y15.2400 
G01 X82.2325 Y15.2400 
G01 X82.2325 Y14.2875 
G00 Z2.5400 
G00 X81.9150 Y14.6050 
G01 Z-0.2000 F254.00 
G01 X78.1050 Y14.6050 F508.00 
G01 X78.1050 Y39.6875 
G01 X73.9775 Y39.6875 
G01 X73.9775 Y40.6400 
G01 X82.2325 Y40.6400 
G01 X82.2325 Y40.3225 
G01 X78.7400 Y40.3225 
G01 X78.7400 Y38.4175 
G01 X82.2325 Y38.4175 
G01 X82.2325 Y37.7825 
G01 X78.7400 Y37.7825 
G01 X78.7400 Y35.8775 
G00 Z2.5400 
G00 X78.4225 Y35.5600 
G01 Z-0.2000 F254.00 
G01 X78.4225 Y33.0200 F508.00 
G01 X81.9150 Y33.0200 
G00 Z2.5400 
G00 X81.9150 Y30.4800 
G01 Z-0.2000 F254.00 
G01 X78.4225 Y30.4800 F508.00 
G00 Z2.5400 
G00 X77.7875 Y29.2100 
G01 Z-0.2000 F254.00 
G01 X74.2950 Y29.2100 F508.00 
G00 Z2.5400 
G00 X74.2950 Y26.6700 
G01 Z-0.2000 F254.00 
G01 X77.7875 Y26.6700 F508.00 
G00 Z2.5400 
G00 X78.4225 Y25.4000 
G01 Z-0.2000 F254.00 
G01 X81.9150 Y25.4000 F508.00 
G00 Z2.5400 
G00 X81.9150 Y22.8600 
G01 Z-0.2000 F254.00 
G01 X78.4225 Y22.8600 F508.00 
G00 Z2.5400 
G00 X77.7875 Y24.1300 
G01 Z-0.2000 F254.00 
G01 X74.2950 Y24.1300 F508.00 
G00 Z2.5400 
G00 X74.2950 Y21.5900 
G01 Z-0.2000 F254.00 
G01 X77.7875 Y21.5900 F508.00 
G00 Z2.5400 
G00 X78.4225 Y20.3200 
G01 Z-0.2000 F254.00 
G01 X81.9150 Y20.3200 F508.00 
G00 Z2.5400 
G00 X81.9150 Y17.7800 
G01 Z-0.2000 F254.00 
G01 X78.4225 Y17.7800 F508.00 
G00 Z2.5400 
G00 X77.7875 Y19.0500 
G01 Z-0.2000 F254.00 
G01 X74.2950 Y19.0500 F508.00 
G00 Z2.5400 
G00 X71.9137 Y18.5738 
G01 Z-0.2000 F254.00 
G01 X71.9137 Y18.2563 F508.00 
G00 Z2.5400 
G00 X71.9137 Y18.5738 
G01 Z-0.2000 F254.00 
G01 X69.0563 Y18.5738 F508.00 
G01 X69.0563 Y17.1450 
G01 X68.8975 Y17.1450 
G01 X68.8975 Y18.5738 
G01 X68.7387 Y18.5738 
G01 X68.7387 Y17.1450 
G01 X68.5800 Y17.1450 
G01 X68.5800 Y18.5738 
G00 Z2.5400 
G00 X68.5800 Y16.9862 
G01 Z-0.2000 F254.00 
G01 X71.9137 Y16.9862 F508.00 
G01 X71.9137 Y17.3038 
G00 Z2.5400 
G00 X74.2950 Y16.5100 
G01 Z-0.2000 F254.00 
G01 X77.7875 Y16.5100 F508.00 
G00 Z2.5400 
G00 X78.4225 Y14.9225 
G01 Z-0.2000 F254.00 
G01 X81.9150 Y14.9225 F508.00 
G01 X81.9150 Y14.6050 
G00 Z2.5400 
G00 X71.7550 Y11.1125 
G01 Z-0.2000 F254.00 
G01 X69.2150 Y11.1125 F508.00 
G00 Z2.5400 
G00 X69.2150 Y10.7950 
G01 Z-0.2000 F254.00 
G01 X71.7550 Y10.7950 F508.00 
G01 X71.7550 Y11.1125 
G00 Z2.5400 
G00 X71.7550 Y10.4775 
G01 Z-0.2000 F254.00 
G01 X69.2150 Y10.4775 F508.00 
G01 X69.2150 Y10.7950 
G00 Z2.5400 
G00 X69.2150 Y26.8287 
G01 Z-0.2000 F254.00 
G01 X69.2150 Y26.9875 F508.00 
G01 X71.7550 Y26.9875 
G01 X71.7550 Y27.1462 
G01 X69.2150 Y27.1462 
G00 Z2.5400 
G00 X69.2150 Y26.8287 
G01 Z-0.2000 F254.00 
G01 X71.7550 Y26.8287 F508.00 
G00 Z2.5400 
G00 X71.7550 Y28.7338 
G01 Z-0.2000 F254.00 
G01 X69.2150 Y28.7338 F508.00 
G00 Z2.5400 
G00 X69.2150 Y28.8925 
G01 Z-0.2000 F254.00 
G01 X71.7550 Y28.8925 F508.00 
G01 X71.7550 Y28.7338 
G00 Z2.5400 
G00 X71.7550 Y29.0512 
G01 Z-0.2000 F254.00 
G01 X69.2150 Y29.0512 F508.00 
G01 X69.2150 Y28.8925 
G00 Z2.5400 
G00 X64.4525 Y26.9875 
G01 Z-0.2000 F254.00 
G01 X62.5475 Y26.9875 F508.00 
G00 Z2.5400 
G00 X60.0075 Y28.0987 
G01 Z-0.2000 F254.00 
G01 X58.1025 Y28.0987 F508.00 
G01 X58.1025 Y28.5750 
G01 X58.1025 Y28.8925 
G01 X60.0075 Y28.8925 
G01 X60.0075 Y28.0987 
G00 Z2.5400 
G00 X59.8488 Y28.2575 
G01 Z-0.2000 F254.00 
G01 X58.2612 Y28.2575 F508.00 
G00 Z2.5400 
G00 X58.1025 Y28.5750 
G01 Z-0.2000 F254.00 
G01 X59.8488 Y28.5750 F508.00 
G01 X59.8488 Y28.2575 
G00 Z2.5400 
G00 X60.0075 Y34.4487 
G01 Z-0.2000 F254.00 
G01 X60.0075 Y34.7662 F508.00 
G01 X62.0712 Y34.7662 
G01 X62.0712 Y35.0838 
G01 X60.0075 Y35.0838 
G00 Z2.5400 
G00 X60.0075 Y34.4487 
G01 Z-0.2000 F254.00 
G01 X62.0712 Y34.4487 F508.00 
G00 Z2.5400 
G00 X62.0712 Y36.0363 
G01 Z-0.2000 F254.00 
G01 X60.0075 Y36.0363 F508.00 
G01 X60.0075 Y36.3537 
G01 X62.0712 Y36.3537 
G01 X62.0712 Y36.6713 
G01 X60.0075 Y36.6713 
G00 Z2.5400 
G00 X47.1487 Y38.8937 
G01 Z-0.2000 F254.00 
G01 X44.1325 Y38.8937 F508.00 
G01 X44.1325 Y39.2112 
G01 X46.8312 Y39.2112 
G01 X46.8312 Y40.7987 
G01 X44.1325 Y40.7987 
G01 X44.1325 Y41.1163 
G01 X47.1487 Y41.1163 
G01 X47.1487 Y38.8937 
G00 Z2.5400 
G00 X43.6562 Y38.5763 
G01 Z-0.2000 F254.00 
G01 X43.6562 Y36.3537 F508.00 
G01 X41.4338 Y36.3537 
G01 X41.4338 Y36.6713 
G01 X43.3387 Y36.6713 
G01 X43.3387 Y38.2587 
G01 X40.6400 Y38.2587 
G01 X40.6400 Y38.5763 
G01 X43.6562 Y38.5763 
G00 Z2.5400 
G00 X41.9100 Y29.5275 
G01 Z-0.2000 F254.00 
G01 X33.8137 Y29.5275 F508.00 
G01 X33.8137 Y31.1150 
G01 X33.6550 Y31.1150 
G01 X33.6550 Y21.2725 
G01 X33.3375 Y21.2725 
G01 X33.3375 Y31.1150 
G01 X33.0200 Y31.1150 
G01 X33.0200 Y21.2725 
G01 X32.7025 Y21.2725 
G01 X32.7025 Y31.1150 
G01 X32.3850 Y31.1150 
G01 X32.3850 Y21.1137 
G01 X32.0675 Y20.7963 
G01 X32.0675 Y31.1150 
G01 X31.7500 Y31.1150 
G01 X31.7500 Y20.4788 
G01 X31.4325 Y20.1612 
G01 X31.4325 Y31.1150 
G01 X31.1150 Y31.1150 
G01 X31.1150 Y19.8438 
G01 X30.7975 Y19.5263 
G01 X30.7975 Y31.1150 
G01 X30.4800 Y31.1150 
G01 X30.4800 Y19.2087 
G01 X30.1625 Y18.8912 
G01 X30.1625 Y31.1150 
G01 X29.8450 Y31.1150 
G01 X29.8450 Y18.5738 
G01 X29.5275 Y18.2563 
G01 X29.5275 Y31.1150 
G01 X29.2100 Y31.1150 
G01 X29.2100 Y17.9387 
G01 X28.8925 Y17.6212 
G01 X28.8925 Y31.1150 
G01 X28.5750 Y31.1150 
G01 X28.5750 Y17.3038 
G01 X28.2575 Y16.9862 
G01 X28.2575 Y31.1150 
G01 X27.9400 Y31.1150 
G01 X27.9400 Y16.6687 
G01 X27.6225 Y16.3513 
G01 X27.6225 Y31.1150 
G01 X27.3050 Y31.1150 
G01 X27.3050 Y16.0338 
G01 X26.9875 Y15.7163 
G01 X26.9875 Y31.1150 
G01 X26.6700 Y31.1150 
G01 X26.6700 Y15.5575 
G00 Z2.5400 
G00 X33.9725 Y21.2725 
G01 Z-0.2000 F254.00 
G01 X36.3537 Y21.2725 F508.00 
G01 X38.2587 Y23.1775 
G01 X33.9725 Y23.1775 
G01 X33.9725 Y23.4950 
G01 X41.7512 Y23.4950 
G01 X41.9100 Y23.6537 
G01 X41.9100 Y23.8125 
G01 X33.9725 Y23.8125 
G01 X33.9725 Y24.1300 
G01 X41.9100 Y24.1300 
G01 X41.9100 Y24.4475 
G01 X33.9725 Y24.4475 
G01 X33.9725 Y24.7650 
G01 X41.9100 Y24.7650 
G01 X41.9100 Y25.0825 
G01 X33.9725 Y25.0825 
G01 X33.9725 Y25.4000 
G01 X41.9100 Y25.4000 
G01 X41.9100 Y25.7175 
G01 X33.9725 Y25.7175 
G01 X33.9725 Y26.0350 
G01 X41.9100 Y26.0350 
G01 X41.9100 Y26.3525 
G01 X33.9725 Y26.3525 
G01 X33.9725 Y26.6700 
G01 X41.9100 Y26.6700 
G01 X41.9100 Y26.9875 
G01 X33.9725 Y26.9875 
G01 X33.9725 Y27.3050 
G01 X41.9100 Y27.3050 
G01 X41.9100 Y27.6225 
G01 X33.9725 Y27.6225 
G01 X33.9725 Y27.9400 
G01 X41.9100 Y27.9400 
G01 X41.9100 Y28.2575 
G01 X33.9725 Y28.2575 
G01 X33.9725 Y28.5750 
G01 X41.9100 Y28.5750 
G01 X41.9100 Y28.8925 
G01 X33.9725 Y28.8925 
G01 X33.9725 Y29.2100 
G01 X41.9100 Y29.2100 
G01 X41.9100 Y29.5275 
G00 Z2.5400 
G00 X37.4650 Y22.8600 
G01 Z-0.2000 F254.00 
G01 X33.9725 Y22.8600 F508.00 
G01 X33.9725 Y21.2725 
G00 Z2.5400 
G00 X34.2900 Y21.5900 
G01 Z-0.2000 F254.00 
G01 X36.1950 Y21.5900 F508.00 
G01 X37.4650 Y22.8600 
G00 Z2.5400 
G00 X36.6713 Y22.5425 
G01 Z-0.2000 F254.00 
G01 X34.2900 Y22.5425 F508.00 
G01 X34.2900 Y21.5900 
G00 Z2.5400 
G00 X34.6075 Y21.9075 
G01 Z-0.2000 F254.00 
G01 X36.0363 Y21.9075 F508.00 
G01 X36.6713 Y22.5425 
G00 Z2.5400 
G00 X35.8775 Y22.2250 
G01 Z-0.2000 F254.00 
G01 X34.6075 Y22.2250 F508.00 
G01 X34.6075 Y21.9075 
G00 Z2.5400 
G00 X37.4650 Y7.1437 
G01 Z-0.2000 F254.00 
G01 X40.0050 Y7.1437 F508.00 
G01 X40.0050 Y6.8262 
G01 X37.4650 Y6.8262 
G01 X37.4650 Y7.1437 
G00 Z2.5400 
G00 X37.4650 Y5.8738 
G01 Z-0.2000 F254.00 
G01 X40.0050 Y5.8738 F508.00 
G01 X40.0050 Y5.5563 
G01 X37.4650 Y5.5563 
G01 X37.4650 Y5.8738 
G00 Z2.5400 
G00 X29.6863 Y5.3975 
G01 Z-0.2000 F254.00 
G01 X29.6863 Y5.2387 F508.00 
G01 X28.7338 Y5.2387 
G01 X28.7338 Y5.3975 
G01 X29.6863 Y5.3975 
G00 Z2.5400 
G00 X10.7950 Y33.0200 
G01 Z-0.2000 F254.00 
G01 X0.0000 Y33.0200 F508.00 
G01 X0.0000 Y33.1788 
G01 X10.6363 Y33.1788 
G01 X10.6363 Y47.4663 
G00 Z2.5400 
G00 X10.7950 Y47.4663 
G01 Z-0.2000 F254.00 
G01 X10.7950 Y33.0200 F508.00 
G00 Z2.5400 
G00 X16.6687 Y38.7350 
G01 Z-0.2000 F254.00 
G01 X16.6687 Y39.0525 F508.00 
G01 X20.3200 Y39.0525 
G01 X20.3200 Y40.9575 
G01 X16.8275 Y40.9575 
G01 X16.8275 Y41.5925 
G01 X20.3200 Y41.5925 
G01 X20.3200 Y43.4975 
G01 X16.8275 Y43.4975 
G01 X16.8275 Y43.8150 
G01 X20.3200 Y43.8150 
G01 X20.3200 Y44.1325 
G01 X16.8275 Y44.1325 
G01 X16.8275 Y44.4500 
G01 X20.3200 Y44.4500 
G01 X20.3200 Y44.7675 
G01 X16.8275 Y44.7675 
G01 X16.8275 Y45.0850 
G01 X25.2413 Y45.0850 
G01 X25.2413 Y44.7675 
G01 X20.6375 Y44.7675 
G01 X20.6375 Y41.2750 
G01 X20.6375 Y39.0525 
G01 X25.0825 Y39.0525 
G01 X25.0825 Y39.3700 
G01 X20.9550 Y39.3700 
G01 X20.9550 Y39.6875 
G01 X25.0825 Y39.6875 
G01 X25.0825 Y40.0050 
G01 X20.9550 Y40.0050 
G01 X20.9550 Y40.3225 
G01 X25.0825 Y40.3225 
G00 Z2.5400 
G00 X25.0825 Y38.7350 
G01 Z-0.2000 F254.00 
G01 X16.6687 Y38.7350 F508.00 
G00 Z2.5400 
G00 X17.1450 Y41.2750 
G01 Z-0.2000 F254.00 
G01 X20.6375 Y41.2750 F508.00 
G00 Z2.5400 
G00 X21.2725 Y40.6400 
G01 Z-0.2000 F254.00 
G01 X21.5900 Y40.6400 F508.00 
G01 X21.5900 Y42.2275 
G01 X25.0825 Y42.2275 
G01 X25.0825 Y42.8625 
G01 X21.5900 Y42.8625 
G01 X21.5900 Y44.4500 
G01 X20.9550 Y44.4500 
G01 X20.9550 Y40.3225 
G00 Z2.5400 
G00 X21.2725 Y40.6400 
G01 Z-0.2000 F254.00 
G01 X21.2725 Y42.5450 F508.00 
G01 X24.7650 Y42.5450 
G00 Z2.5400 
G00 X21.2725 Y42.5450 
G01 Z-0.2000 F254.00 
G01 X21.2725 Y44.1325 F508.00 
G00 Z2.5400 
G00 X30.1625 Y43.0213 
G01 Z-0.2000 F254.00 
G01 X32.0675 Y43.0213 F508.00 
G01 X32.0675 Y42.7037 
G01 X30.1625 Y42.7037 
G01 X30.1625 Y42.3862 
G01 X32.0675 Y42.3862 
G00 Z2.5400 
G00 X32.0675 Y41.4338 
G01 Z-0.2000 F254.00 
G01 X30.1625 Y41.4338 F508.00 
G00 Z2.5400 
G00 X30.1625 Y41.1163 
G01 Z-0.2000 F254.00 
G01 X32.0675 Y41.1163 F508.00 
G01 X32.0675 Y41.4338 
G00 Z2.5400 
G00 X32.0675 Y40.7987 
G01 Z-0.2000 F254.00 
G01 X30.1625 Y40.7987 F508.00 
G01 X30.1625 Y41.1163 
G00 Z2.5400 
G00 X0.0000 Y47.4663 
G01 Z-0.2000 F254.00 
G01 X100.0125 Y47.4663 F508.00 
G00 Z2.5400 
G00 X89.6937 Y47.4663 
G01 Z-0.2000 F254.00 
G01 X89.6937 Y33.1788 F508.00 
G01 X100.0125 Y33.1788 
G01 X100.0125 Y33.0200 
G01 X89.5350 Y33.0200 
G01 X89.5350 Y47.4663 
G00 Z2.5400 
G00 X81.9150 Y38.1000 
G01 Z-0.2000 F254.00 
G01 X78.4225 Y38.1000 F508.00 
G01 X78.4225 Y35.5600 
G01 X81.9150 Y35.5600 
G00 Z2.5400 
G00 X78.4225 Y38.1000 
G01 Z-0.2000 F254.00 
G01 X78.4225 Y40.6400 F508.00 
G00 Z2.5400 
G00 X78.1050 Y40.3225 
G01 Z-0.2000 F254.00 
G01 X78.1050 Y40.0050 F508.00 
G01 X74.2950 Y40.0050 
G01 X74.2950 Y40.3225 
G01 X78.1050 Y40.3225 
G00 Z2.5400 
G00 X77.7875 Y31.7500 
G01 Z-0.2000 F254.00 
G01 X74.2950 Y31.7500 F508.00 
G00 Z2.5400 
G00 X78.4225 Y27.9400 
G01 Z-0.2000 F254.00 
G01 X81.9150 Y27.9400 F508.00 
G00 Z38.1000 
M05
M02
